; generated by Slic3r 1.2.0 on 2014-10-23 at 11:27:57

; external perimeters extrusion width = 0.50mm
; perimeters extrusion width = 0.72mm
; infill extrusion width = 0.72mm
; solid infill extrusion width = 0.72mm
; top infill extrusion width = 0.72mm

G21 ; set units to millimeters
M190 S65 ; wait for bed temperature to be reached
M104 S180 ; set temperature
G28 ; home all axes
M109 S180 ; wait for temperature to be reached
G90 ; use absolute coordinates
G92 E0
M82 ; use absolute distances for extrusion
M106 S89
G1 F2400.000 E-2.00000
G1 Z0.600 F9000.000
G92 E0
G1 X11.341 Y10.649 F9000.000
G1 Z0.300 F9000.000
G1 E2.00000 F2400.000
G1 X13.094 Y9.213 E2.02602 F2400.000
G1 X16.236 Y8.389 E2.06330
G1 X149.408 Y7.995 E3.59208
G1 X169.408 Y7.995 E3.82167
G1 X171.640 Y8.392 E3.84769
G1 X173.598 Y9.534 E3.87370 F2400.000
G1 X175.041 Y11.281 E3.89972
G1 X175.880 Y14.466 E3.93753
G1 X175.879 Y34.519 E4.16773
G1 X174.656 Y185.317 E5.89888
G1 X174.241 Y187.545 E5.92490
G1 X173.083 Y189.493 E5.95092
G1 X171.324 Y190.923 E5.97694
G1 X168.198 Y191.735 E6.01402
G1 X35.592 Y192.005 E7.53628
G1 X15.592 Y192.005 E7.76588
G1 X13.360 Y191.608 E7.79189
G1 X11.402 Y190.466 E7.81791
G1 X9.959 Y188.719 E7.84393
G1 X9.120 Y185.534 E7.88174
G1 X9.120 Y165.505 E8.11166
G1 X9.784 Y14.831 E9.84135
G1 X10.190 Y12.602 E9.86737
G1 X11.303 Y10.714 E9.89253
G1 X11.513 Y10.840 F9000.000
G1 X11.574 Y10.740 E9.89387 F2400.000
G1 X13.318 Y9.359 E9.91941
G1 X16.236 Y8.624 E9.95396
G1 X149.408 Y8.231 E11.48273
G1 X169.408 Y8.231 E11.71232
G1 X171.597 Y8.627 E11.73785
G1 X173.507 Y9.767 E11.76339 F2400.000
G1 X174.896 Y11.505 E11.78893
G1 X175.644 Y14.466 E11.82399
G1 X175.644 Y34.517 E12.05416
G1 X174.420 Y185.315 E13.78531
G1 X174.006 Y187.500 E13.81085
G1 X172.850 Y189.401 E13.83639
G1 X171.101 Y190.776 E13.86192
G1 X168.197 Y191.500 E13.89628
G1 X35.592 Y191.769 E15.41854
G1 X15.592 Y191.769 E15.64813
G1 X13.403 Y191.373 E15.67367
G1 X11.493 Y190.233 E15.69921
G1 X10.104 Y188.495 E15.72474
G1 X9.356 Y185.534 E15.75980
G1 X9.356 Y165.506 E15.98971
G1 X10.019 Y14.832 E17.71940
G1 X10.426 Y12.645 E17.74494
G1 X11.475 Y10.905 E17.76827
G1 F2400.000 E15.76827
G1 Z0.600 F9000.000
G92 E0
G1 X16.405 Y15.010 F9000.000
G1 Z0.300 F9000.000
G1 E2.00000 F2400.000
G1 X36.105 Y15.010 E2.22615 F2400.000
G1 X36.105 Y34.710 E2.45230
G1 X16.405 Y34.710 E2.67844 F2400.000
G1 X16.405 Y15.085 E2.90373
G1 F2400.000 E0.90373
G1 Z0.600 F9000.000
G92 E0
G1 X36.355 Y34.277 F9000.000
G1 X35.869 Y34.277 F9000.000
G1 Z0.300 F9000.000
G1 E2.00000 F2400.000
G1 X35.869 Y34.474 E2.00227 F2400.000
G1 X16.640 Y34.474 E2.22300
G1 X16.640 Y15.245 E2.44374
G1 X35.869 Y15.245 E2.66448 F2400.000
G1 X35.869 Y34.202 E2.88209
G1 F2400.000 E0.88209
G1 Z0.600 F9000.000
G92 E0
G1 X35.633 Y26.704 F9000.000
G1 Z0.300 F9000.000
G1 E2.00000 F2400.000
G1 X35.633 Y34.239 E2.08650 F2400.000
G1 X16.876 Y34.239 E2.30183 F2400.000
G1 X16.876 Y15.481 E2.51716
G1 X35.633 Y15.481 E2.73248
G1 X35.633 Y26.629 E2.86045
G1 F2400.000 E0.86045
G1 Z0.600 F9000.000
G92 E0
G1 X17.100 Y15.705 F9000.000
G1 Z0.300 F9000.000
G1 E2.00000 F2400.000
G1 X35.410 Y15.705 E2.21019 F2400.000
G1 X35.410 Y34.015 E2.42038
G1 X17.100 Y34.015 E2.63057
G1 X17.100 Y15.780 E2.83990
G1 X17.336 Y15.941 F9000.000
G1 X35.174 Y15.941 E3.04467 F2400.000
G1 X35.174 Y33.779 E3.24944
G1 X17.336 Y33.779 E3.45421
G1 X17.336 Y16.016 E3.65812
G1 X17.572 Y16.177 F9000.000
G1 X34.937 Y16.177 E3.85746 F2400.000
G1 X34.937 Y33.543 E4.05681
G1 X17.572 Y33.543 E4.25616
G1 X17.572 Y16.252 E4.45465
G1 X17.808 Y16.413 F9000.000
G1 X34.701 Y16.413 E4.64858 F2400.000
G1 X34.701 Y33.306 E4.84251
G1 X17.808 Y33.306 E5.03643
G1 X17.808 Y16.488 E5.22950
G1 X18.044 Y16.649 F9000.000
G1 X34.465 Y16.649 E5.41801 F2400.000
G1 X34.465 Y33.070 E5.60651
G1 X18.044 Y33.070 E5.79502
G1 X18.044 Y16.724 E5.98267
G1 X18.280 Y16.885 F9000.000
G1 X34.229 Y16.885 E6.16575 F2400.000
G1 X34.229 Y32.834 E6.34884
G1 X18.280 Y32.834 E6.53193
G1 X18.280 Y16.960 E6.71415
G1 X18.516 Y17.122 F9000.000
G1 X33.993 Y17.122 E6.89182 F2400.000
G1 X33.993 Y32.598 E7.06948
G1 X18.516 Y32.598 E7.24715
G1 X18.516 Y17.197 E7.42396
G1 X18.752 Y17.358 F9000.000
G1 X33.757 Y17.358 E7.59620 F2400.000
G1 X33.757 Y32.362 E7.76845
G1 X18.752 Y32.362 E7.94069
G1 X18.752 Y17.433 E8.11208
G1 X18.989 Y17.594 F9000.000
G1 X33.521 Y17.594 E8.27890 F2400.000
G1 X33.521 Y32.126 E8.44572
G1 X18.989 Y32.126 E8.61255
G1 X18.989 Y17.669 E8.77851
G1 X19.225 Y17.830 F9000.000
G1 X33.285 Y17.830 E8.93992 F2400.000
G1 X33.285 Y31.890 E9.10132
G1 X19.225 Y31.890 E9.26272
G1 X19.225 Y17.905 E9.42327
G1 X19.461 Y18.066 F9000.000
G1 X33.049 Y18.066 E9.57925 F2400.000
G1 X33.049 Y31.654 E9.73523
G1 X19.461 Y31.654 E9.89122
G1 X19.461 Y18.141 E10.04634
G1 X19.697 Y18.302 F9000.000
G1 X32.813 Y18.302 E10.19690 F2400.000
G1 X32.813 Y31.418 E10.34746
G1 X19.697 Y31.418 E10.49802
G1 X19.697 Y18.377 E10.64773
G1 X19.933 Y18.538 F9000.000
G1 X32.576 Y18.538 E10.79287 F2400.000
G1 X32.576 Y31.182 E10.93801
G1 X19.933 Y31.182 E11.08315
G1 X19.933 Y18.613 E11.22743
G1 X20.169 Y18.774 F9000.000
G1 X32.340 Y18.774 E11.36715 F2400.000
G1 X32.340 Y30.945 E11.50687
G1 X20.169 Y30.945 E11.64659
G1 X20.169 Y18.849 E11.78545
G1 X20.405 Y19.010 F9000.000
G1 X32.104 Y19.010 E11.91975 F2400.000
G1 X32.104 Y30.709 E12.05406
G1 X20.405 Y30.709 E12.18836
G1 X20.405 Y19.085 E12.32179
G1 X20.641 Y19.246 F9000.000
G1 X31.868 Y19.246 E12.45067 F2400.000
G1 X31.868 Y30.473 E12.57955
G1 X20.641 Y30.473 E12.70843
G1 X20.641 Y19.321 E12.83645
G1 X20.877 Y19.483 F9000.000
G1 X31.632 Y19.483 E12.95991 F2400.000
G1 X31.632 Y30.237 E13.08337
G1 X20.877 Y30.237 E13.20683
G1 X20.877 Y19.558 E13.32943
G1 X21.113 Y19.719 F9000.000
G1 X31.396 Y19.719 E13.44746 F2400.000
G1 X31.396 Y30.001 E13.56550
G1 X21.113 Y30.001 E13.68354
G1 X21.113 Y19.794 E13.80072
G1 X21.350 Y19.955 F9000.000
G1 X31.160 Y19.955 E13.91334 F2400.000
G1 X31.160 Y29.765 E14.02595
G1 X21.350 Y29.765 E14.13857
G1 X21.350 Y20.030 E14.25033
G1 X21.586 Y20.191 F9000.000
G1 X30.924 Y20.191 E14.35752 F2400.000
G1 X30.924 Y29.529 E14.46472
G1 X21.586 Y29.529 E14.57192
G1 X21.586 Y20.266 E14.67825
G1 X21.822 Y20.427 F9000.000
G1 X30.688 Y20.427 E14.78003 F2400.000
G1 X30.688 Y29.293 E14.88181
G1 X21.822 Y29.293 E14.98358
G1 X21.822 Y20.502 E15.08450
G1 X22.058 Y20.663 F9000.000
G1 X30.452 Y20.663 E15.18085 F2400.000
G1 X30.452 Y29.057 E15.27721
G1 X22.058 Y29.057 E15.37356
G1 X22.058 Y20.738 E15.46906
G1 X22.294 Y20.899 F9000.000
G1 X30.215 Y20.899 E15.55999 F2400.000
G1 X30.215 Y28.821 E15.65093
G1 X22.294 Y28.821 E15.74186
G1 X22.294 Y20.974 E15.83193
G1 X22.530 Y21.135 F9000.000
G1 X29.979 Y21.135 E15.91745 F2400.000
G1 X29.979 Y28.584 E16.00296
G1 X22.530 Y28.584 E16.08848
G1 X22.530 Y21.210 E16.17313
G1 X22.766 Y21.371 F9000.000
G1 X29.743 Y21.371 E16.25322 F2400.000
G1 X29.743 Y28.348 E16.33332
G1 X22.766 Y28.348 E16.41341
G1 X22.766 Y21.446 E16.49264
G1 X23.002 Y21.607 F9000.000
G1 X29.507 Y21.607 E16.56731 F2400.000
G1 X29.507 Y28.112 E16.64199
G1 X23.002 Y28.112 E16.71666
G1 X23.002 Y21.682 E16.79047
G1 X23.238 Y21.844 F9000.000
G1 X29.271 Y21.844 E16.85972 F2400.000
G1 X29.271 Y27.876 E16.92898
G1 X23.238 Y27.876 E16.99823
G1 X23.238 Y21.919 E17.06662
G1 X23.474 Y22.080 F9000.000
G1 X29.035 Y22.080 E17.13045 F2400.000
G1 X29.035 Y27.640 E17.19428
G1 X23.474 Y27.640 E17.25811
G1 X23.474 Y22.155 E17.32108
G1 X23.711 Y22.316 F9000.000
G1 X28.799 Y22.316 E17.37949 F2400.000
G1 X28.799 Y27.404 E17.43790
G1 X23.711 Y27.404 E17.49631
G1 X23.711 Y22.391 E17.55386
G1 X23.947 Y22.552 F9000.000
G1 X28.563 Y22.552 E17.60685 F2400.000
G1 X28.563 Y27.168 E17.65984
G1 X23.947 Y27.168 E17.71283
G1 X23.947 Y22.627 E17.76496
G1 X24.183 Y22.788 F9000.000
G1 X28.327 Y22.788 E17.81253 F2400.000
G1 X28.327 Y26.932 E17.86010
G1 X24.183 Y26.932 E17.90767
G1 X24.183 Y22.863 E17.95438
G1 X24.419 Y23.024 F9000.000
G1 X28.090 Y23.024 E17.99652 F2400.000
G1 X28.090 Y26.696 E18.03867
G1 X24.419 Y26.696 E18.08082
G1 X24.419 Y23.099 E18.12211
G1 X24.655 Y23.260 F9000.000
G1 X27.854 Y23.260 E18.15884 F2400.000
G1 X27.854 Y26.460 E18.19556
G1 X24.655 Y26.460 E18.23229
G1 X24.655 Y23.335 E18.26816
G1 X24.891 Y23.496 F9000.000
G1 X27.618 Y23.496 E18.29947 F2400.000
G1 X27.618 Y26.223 E18.33077
G1 X24.891 Y26.223 E18.36208
G1 X24.891 Y23.571 E18.39253
G1 X25.127 Y23.732 F9000.000
G1 X27.382 Y23.732 E18.41841 F2400.000
G1 X27.382 Y25.987 E18.44430
G1 X25.127 Y25.987 E18.47018
G1 X25.127 Y23.807 E18.49521
G1 X25.363 Y23.968 F9000.000
G1 X27.146 Y23.968 E18.51568 F2400.000
G1 X27.146 Y25.751 E18.53614
G1 X25.363 Y25.751 E18.55661
G1 X25.363 Y24.043 E18.57621
G1 X25.599 Y24.205 F9000.000
G1 X26.910 Y24.205 E18.59126 F2400.000
G1 X26.910 Y25.515 E18.60630
G1 X25.599 Y25.515 E18.62135
G1 X25.599 Y24.280 E18.63553
G1 X25.836 Y24.441 F9000.000
G1 X26.674 Y24.441 E18.64515 F2400.000
G1 X26.674 Y25.279 E18.65478
G1 X25.836 Y25.279 E18.66440
G1 X25.836 Y24.516 E18.67317
G1 X26.072 Y24.677 F9000.000
G1 X26.438 Y24.677 E18.67737 F2400.000
G1 X26.438 Y25.043 E18.68157
G1 X26.072 Y25.043 E18.68578
G1 X26.072 Y24.752 E18.68912
G1 F2400.000 E16.68912
G1 Z0.600 F9000.000
G92 E0
G1 X81.023 Y91.389 F9000.000
G1 X82.173 Y91.953 F9000.000
G1 Z0.300 F9000.000
G1 E2.00000 F2400.000
G1 X101.873 Y91.953 E2.22615 F2400.000
G1 X101.873 Y111.653 E2.45230
G1 X82.173 Y111.653 E2.67844 F2400.000
G1 X82.173 Y92.028 E2.90373
G1 F2400.000 E0.90373
G1 Z0.600 F9000.000
G92 E0
G1 X102.023 Y111.803 F9000.000
G1 X102.123 Y111.220 F9000.000
G1 X101.637 Y111.220 F9000.000
G1 Z0.300 F9000.000
G1 E2.00000 F2400.000
G1 X101.637 Y111.418 E2.00227 F2400.000
G1 X82.409 Y111.418 E2.22300
G1 X82.409 Y92.189 E2.44374
G1 X101.637 Y92.189 E2.66448 F2400.000
G1 X101.637 Y111.145 E2.88209
G1 F2400.000 E0.88209
G1 Z0.600 F9000.000
G92 E0
G1 X92.107 Y92.424 F9000.000
G1 Z0.300 F9000.000
G1 E2.00000 F2400.000
G1 X101.402 Y92.424 E2.10669 F2400.000
G1 X101.402 Y111.182 E2.32202
G1 X82.644 Y111.182 E2.53735 F2400.000
G1 X82.644 Y92.424 E2.75268
G1 X92.032 Y92.424 E2.86045
G1 F2400.000 E0.86045
G1 Z0.600 F9000.000
G92 E0
G1 X82.868 Y92.648 F9000.000
G1 Z0.300 F9000.000
G1 E2.00000 F2400.000
G1 X101.178 Y92.648 E2.21019 F2400.000
G1 X101.178 Y110.958 E2.42038
G1 X82.868 Y110.958 E2.63057
G1 X82.868 Y92.723 E2.83990
G1 X83.104 Y92.884 F9000.000
G1 X100.942 Y92.884 E3.04467 F2400.000
G1 X100.942 Y110.722 E3.24944
G1 X83.104 Y110.722 E3.45421
G1 X83.104 Y92.959 E3.65812
G1 X83.340 Y93.120 F9000.000
G1 X100.706 Y93.120 E3.85746 F2400.000
G1 X100.706 Y110.486 E4.05681
G1 X83.340 Y110.486 E4.25616
G1 X83.340 Y93.195 E4.45465
G1 X83.576 Y93.357 F9000.000
G1 X100.470 Y93.357 E4.64858 F2400.000
G1 X100.470 Y110.250 E4.84251
G1 X83.576 Y110.250 E5.03643
G1 X83.576 Y93.432 E5.22950
G1 X83.812 Y93.593 F9000.000
G1 X100.233 Y93.593 E5.41801 F2400.000
G1 X100.233 Y110.014 E5.60651
G1 X83.812 Y110.014 E5.79502
G1 X83.812 Y93.668 E5.98267
G1 X84.048 Y93.829 F9000.000
G1 X99.997 Y93.829 E6.16575 F2400.000
G1 X99.997 Y109.778 E6.34884
G1 X84.048 Y109.778 E6.53193
G1 X84.048 Y93.904 E6.71415
G1 X84.285 Y94.065 F9000.000
G1 X99.761 Y94.065 E6.89182 F2400.000
G1 X99.761 Y109.542 E7.06948
G1 X84.285 Y109.542 E7.24715
G1 X84.285 Y94.140 E7.42396
G1 X84.521 Y94.301 F9000.000
G1 X99.525 Y94.301 E7.59620 F2400.000
G1 X99.525 Y109.305 E7.76845
G1 X84.521 Y109.305 E7.94069
G1 X84.521 Y94.376 E8.11208
G1 X84.757 Y94.537 F9000.000
G1 X99.289 Y94.537 E8.27890 F2400.000
G1 X99.289 Y109.069 E8.44572
G1 X84.757 Y109.069 E8.61255
G1 X84.757 Y94.612 E8.77851
G1 X84.993 Y94.773 F9000.000
G1 X99.053 Y94.773 E8.93992 F2400.000
G1 X99.053 Y108.833 E9.10132
G1 X84.993 Y108.833 E9.26272
G1 X84.993 Y94.848 E9.42327
G1 X85.229 Y95.009 F9000.000
G1 X98.817 Y95.009 E9.57925 F2400.000
G1 X98.817 Y108.597 E9.73523
G1 X85.229 Y108.597 E9.89122
G1 X85.229 Y95.084 E10.04634
G1 X85.465 Y95.245 F9000.000
G1 X98.581 Y95.245 E10.19690 F2400.000
G1 X98.581 Y108.361 E10.34746
G1 X85.465 Y108.361 E10.49802
G1 X85.465 Y95.320 E10.64773
G1 X85.701 Y95.482 F9000.000
G1 X98.345 Y95.482 E10.79287 F2400.000
G1 X98.345 Y108.125 E10.93801
G1 X85.701 Y108.125 E11.08315
G1 X85.701 Y95.557 E11.22743
G1 X85.937 Y95.718 F9000.000
G1 X98.109 Y95.718 E11.36715 F2400.000
G1 X98.109 Y107.889 E11.50687
G1 X85.937 Y107.889 E11.64659
G1 X85.937 Y95.793 E11.78545
G1 X86.173 Y95.954 F9000.000
G1 X97.872 Y95.954 E11.91975 F2400.000
G1 X97.872 Y107.653 E12.05406
G1 X86.173 Y107.653 E12.18836
G1 X86.173 Y96.029 E12.32179
G1 X86.409 Y96.190 F9000.000
G1 X97.636 Y96.190 E12.45067 F2400.000
G1 X97.636 Y107.417 E12.57955
G1 X86.409 Y107.417 E12.70843
G1 X86.409 Y96.265 E12.83645
G1 X86.646 Y96.426 F9000.000
G1 X97.400 Y96.426 E12.95991 F2400.000
G1 X97.400 Y107.181 E13.08337
G1 X86.646 Y107.181 E13.20683
G1 X86.646 Y96.501 E13.32943
G1 X86.882 Y96.662 F9000.000
G1 X97.164 Y96.662 E13.44746 F2400.000
G1 X97.164 Y106.944 E13.56550
G1 X86.882 Y106.944 E13.68354
G1 X86.882 Y96.737 E13.80072
G1 X87.118 Y96.898 F9000.000
G1 X96.928 Y96.898 E13.91334 F2400.000
G1 X96.928 Y106.708 E14.02595
G1 X87.118 Y106.708 E14.13857
G1 X87.118 Y96.973 E14.25033
G1 X87.354 Y97.134 F9000.000
G1 X96.692 Y97.134 E14.35752 F2400.000
G1 X96.692 Y106.472 E14.46472
G1 X87.354 Y106.472 E14.57192
G1 X87.354 Y97.209 E14.67825
G1 X87.590 Y97.370 F9000.000
G1 X96.456 Y97.370 E14.78003 F2400.000
G1 X96.456 Y106.236 E14.88181
G1 X87.590 Y106.236 E14.98358
G1 X87.590 Y97.445 E15.08450
G1 X87.826 Y97.606 F9000.000
G1 X96.220 Y97.606 E15.18085 F2400.000
G1 X96.220 Y106.000 E15.27721
G1 X87.826 Y106.000 E15.37356
G1 X87.826 Y97.681 E15.46906
G1 X88.062 Y97.843 F9000.000
G1 X95.984 Y97.843 E15.55999 F2400.000
G1 X95.984 Y105.764 E15.65093
G1 X88.062 Y105.764 E15.74186
G1 X88.062 Y97.918 E15.83193
G1 X88.298 Y98.079 F9000.000
G1 X95.748 Y98.079 E15.91745 F2400.000
G1 X95.748 Y105.528 E16.00296
G1 X88.298 Y105.528 E16.08848
G1 X88.298 Y98.154 E16.17313
G1 X88.534 Y98.315 F9000.000
G1 X95.511 Y98.315 E16.25322 F2400.000
G1 X95.511 Y105.292 E16.33332
G1 X88.534 Y105.292 E16.41341
G1 X88.534 Y98.390 E16.49264
G1 X88.770 Y98.551 F9000.000
G1 X95.275 Y98.551 E16.56731 F2400.000
G1 X95.275 Y105.056 E16.64199
G1 X88.770 Y105.056 E16.71666
G1 X88.770 Y98.626 E16.79047
G1 X89.007 Y98.787 F9000.000
G1 X95.039 Y98.787 E16.85972 F2400.000
G1 X95.039 Y104.820 E16.92898
G1 X89.007 Y104.820 E16.99823
G1 X89.007 Y98.862 E17.06662
G1 X89.243 Y99.023 F9000.000
G1 X94.803 Y99.023 E17.13045 F2400.000
G1 X94.803 Y104.583 E17.19428
G1 X89.243 Y104.583 E17.25811
G1 X89.243 Y99.098 E17.32108
G1 X89.479 Y99.259 F9000.000
G1 X94.567 Y99.259 E17.37949 F2400.000
G1 X94.567 Y104.347 E17.43790
G1 X89.479 Y104.347 E17.49631
G1 X89.479 Y99.334 E17.55386
G1 X89.715 Y99.495 F9000.000
G1 X94.331 Y99.495 E17.60685 F2400.000
G1 X94.331 Y104.111 E17.65984
G1 X89.715 Y104.111 E17.71283
G1 X89.715 Y99.570 E17.76496
G1 X89.951 Y99.731 F9000.000
G1 X94.095 Y99.731 E17.81253 F2400.000
G1 X94.095 Y103.875 E17.86010
G1 X89.951 Y103.875 E17.90767
G1 X89.951 Y99.806 E17.95438
G1 X90.187 Y99.967 F9000.000
G1 X93.859 Y99.967 E17.99652 F2400.000
G1 X93.859 Y103.639 E18.03867
G1 X90.187 Y103.639 E18.08082
G1 X90.187 Y100.042 E18.12211
G1 X90.423 Y100.204 F9000.000
G1 X93.623 Y100.204 E18.15884 F2400.000
G1 X93.623 Y103.403 E18.19556
G1 X90.423 Y103.403 E18.23229
G1 X90.423 Y100.279 E18.26816
G1 X90.659 Y100.440 F9000.000
G1 X93.386 Y100.440 E18.29947 F2400.000
G1 X93.386 Y103.167 E18.33077
G1 X90.659 Y103.167 E18.36208
G1 X90.659 Y100.515 E18.39253
G1 X90.895 Y100.676 F9000.000
G1 X93.150 Y100.676 E18.41841 F2400.000
G1 X93.150 Y102.931 E18.44430
G1 X90.895 Y102.931 E18.47018
G1 X90.895 Y100.751 E18.49521
G1 X91.131 Y100.912 F9000.000
G1 X92.914 Y100.912 E18.51568 F2400.000
G1 X92.914 Y102.695 E18.53614
G1 X91.131 Y102.695 E18.55661
G1 X91.131 Y100.987 E18.57621
G1 X91.368 Y101.148 F9000.000
G1 X92.678 Y101.148 E18.59126 F2400.000
G1 X92.678 Y102.459 E18.60630
G1 X91.368 Y102.459 E18.62135
G1 X91.368 Y101.223 E18.63553
G1 X91.604 Y101.384 F9000.000
G1 X92.442 Y101.384 E18.64515 F2400.000
G1 X92.442 Y102.222 E18.65478
