; generated by Slic3r 1.2.0 on 2014-10-23 at 11:26:05

; external perimeters extrusion width = 0.50mm
; perimeters extrusion width = 0.72mm
; infill extrusion width = 0.72mm
; solid infill extrusion width = 0.72mm
; top infill extrusion width = 0.72mm

G21 ; set units to millimeters
M190 S65 ; wait for bed temperature to be reached
M104 S180 ; set temperature
G28 ; home all axes
M109 S180 ; wait for temperature to be reached
G90 ; use absolute coordinates
G92 E0
M82 ; use absolute distances for extrusion
M106 S89
G1 F2400.000 E-2.00000
G1 Z0.600 F9000.000
G92 E0
G1 X11.341 Y10.649 F9000.000
G1 Z0.300 F9000.000
G1 E2.00000 F2400.000
G1 X13.094 Y9.213 E2.02342 F2400.000
G1 X16.236 Y8.389 E2.05697
G1 X149.408 Y7.995 E3.43287
G1 X169.408 Y7.995 E3.63950
G1 X171.640 Y8.392 E3.66292
G1 X173.598 Y9.534 E3.68633 F2400.000
G1 X175.041 Y11.281 E3.70975
G1 X175.880 Y14.466 E3.74378
G1 X175.879 Y34.519 E3.95095
G1 X174.656 Y185.317 E5.50899
G1 X174.241 Y187.545 E5.53241
G1 X173.083 Y189.493 E5.55583
G1 X171.324 Y190.923 E5.57924
G1 X168.198 Y191.735 E5.61262
G1 X35.592 Y192.005 E6.98266
G1 X15.592 Y192.005 E7.18929
G1 X13.360 Y191.608 E7.21271
G1 X11.402 Y190.466 E7.23612
G1 X9.959 Y188.719 E7.25954
G1 X9.120 Y185.534 E7.29357
G1 X9.120 Y165.505 E7.50049
G1 X9.784 Y14.831 E9.05722
G1 X10.190 Y12.602 E9.08063
G1 X11.303 Y10.714 E9.10327
G1 X11.513 Y10.840 F9000.000
G1 X11.574 Y10.740 E9.10449 F2400.000
G1 X13.318 Y9.359 E9.12747
G1 X16.236 Y8.624 E9.15856
G1 X149.408 Y8.231 E10.53445
G1 X169.408 Y8.231 E10.74109
G1 X171.597 Y8.627 E10.76407
G1 X173.507 Y9.767 E10.78705 F2400.000
G1 X174.896 Y11.505 E10.81003
G1 X175.644 Y14.466 E10.84159
G1 X175.644 Y34.517 E11.04874
G1 X174.420 Y185.315 E12.60678
G1 X174.006 Y187.500 E12.62977
G1 X172.850 Y189.401 E12.65275
G1 X171.101 Y190.776 E12.67573
G1 X168.197 Y191.500 E12.70665
G1 X35.592 Y191.769 E14.07669
G1 X15.592 Y191.769 E14.28332
G1 X13.403 Y191.373 E14.30630
G1 X11.493 Y190.233 E14.32928
G1 X10.104 Y188.495 E14.35227
G1 X9.356 Y185.534 E14.38382
G1 X9.356 Y165.506 E14.59074
G1 X10.019 Y14.832 E16.14746
G1 X10.426 Y12.645 E16.17044
G1 X11.475 Y10.905 E16.19144
G1 F2400.000 E14.19144
G1 Z0.600 F9000.000
G92 E0
G1 X16.405 Y15.010 F9000.000
G1 Z0.300 F9000.000
G1 E2.00000 F2400.000
G1 X36.105 Y15.010 E2.20353 F2400.000
G1 X36.105 Y34.710 E2.40707
G1 X16.405 Y34.710 E2.61060 F2400.000
G1 X16.405 Y15.085 E2.81336
G1 F2400.000 E0.81336
G1 Z0.600 F9000.000
G92 E0
G1 X36.355 Y34.277 F9000.000
G1 X35.869 Y34.277 F9000.000
G1 Z0.300 F9000.000
G1 E2.00000 F2400.000
G1 X35.869 Y34.474 E2.00204 F2400.000
G1 X16.640 Y34.474 E2.20070
G1 X16.640 Y15.245 E2.39937
G1 X35.869 Y15.245 E2.59803 F2400.000
G1 X35.869 Y34.202 E2.79388
G1 F2400.000 E0.79388
G1 Z0.600 F9000.000
G92 E0
G1 X31.523 Y34.239 F9000.000
G1 Z0.300 F9000.000
G1 E2.00000 F2400.000
G1 X16.876 Y34.239 E2.15133 F2400.000
G1 X16.876 Y15.481 E2.34513
G1 X35.633 Y15.481 E2.53892
G1 X35.633 Y34.239 E2.73272
G1 X31.598 Y34.239 E2.77441 F2400.000
G1 F2400.000 E0.77441
G1 Z0.600 F9000.000
G92 E0
G1 X17.100 Y15.705 F9000.000
G1 Z0.300 F9000.000
G1 E2.00000 F2400.000
G1 X35.410 Y15.705 E2.18917 F2400.000
G1 X35.410 Y34.015 E2.37834
G1 X17.100 Y34.015 E2.56751
G1 X17.100 Y15.780 E2.75591
G1 X17.336 Y15.941 F9000.000
G1 X35.174 Y15.941 E2.94020 F2400.000
G1 X35.174 Y33.779 E3.12449
G1 X17.336 Y33.779 E3.30879
G1 X17.336 Y16.016 E3.49230
G1 X17.572 Y16.177 F9000.000
G1 X34.937 Y16.177 E3.67172 F2400.000
G1 X34.937 Y33.543 E3.85113
G1 X17.572 Y33.543 E4.03055
G1 X17.572 Y16.252 E4.20918
G1 X17.808 Y16.413 F9000.000
G1 X34.701 Y16.413 E4.38372 F2400.000
G1 X34.701 Y33.306 E4.55825
G1 X17.808 Y33.306 E4.73279
G1 X17.808 Y16.488 E4.90655
G1 X18.044 Y16.649 F9000.000
G1 X34.465 Y16.649 E5.07621 F2400.000
G1 X34.465 Y33.070 E5.24586
G1 X18.044 Y33.070 E5.41552
G1 X18.044 Y16.724 E5.58440
G1 X18.280 Y16.885 F9000.000
G1 X34.229 Y16.885 E5.74918 F2400.000
G1 X34.229 Y32.834 E5.91396
G1 X18.280 Y32.834 E6.07873
G1 X18.280 Y16.960 E6.24274
G1 X18.516 Y17.122 F9000.000
G1 X33.993 Y17.122 E6.40264 F2400.000
G1 X33.993 Y32.598 E6.56254
G1 X18.516 Y32.598 E6.72244
G1 X18.516 Y17.197 E6.88156
G1 X18.752 Y17.358 F9000.000
G1 X33.757 Y17.358 E7.03658 F2400.000
G1 X33.757 Y32.362 E7.19160
G1 X18.752 Y32.362 E7.34662
G1 X18.752 Y17.433 E7.50087
G1 X18.989 Y17.594 F9000.000
G1 X33.521 Y17.594 E7.65101 F2400.000
G1 X33.521 Y32.126 E7.80115
G1 X18.989 Y32.126 E7.95129
G1 X18.989 Y17.669 E8.10066
G1 X19.225 Y17.830 F9000.000
G1 X33.285 Y17.830 E8.24592 F2400.000
G1 X33.285 Y31.890 E8.39119
G1 X19.225 Y31.890 E8.53645
G1 X19.225 Y17.905 E8.68094
G1 X19.461 Y18.066 F9000.000
G1 X33.049 Y18.066 E8.82132 F2400.000
G1 X33.049 Y31.654 E8.96171
G1 X19.461 Y31.654 E9.10209
G1 X19.461 Y18.141 E9.24170
G1 X19.697 Y18.302 F9000.000
G1 X32.813 Y18.302 E9.37721 F2400.000
G1 X32.813 Y31.418 E9.51272
G1 X19.697 Y31.418 E9.64822
G1 X19.697 Y18.377 E9.78295
G1 X19.933 Y18.538 F9000.000
G1 X32.576 Y18.538 E9.91358 F2400.000
G1 X32.576 Y31.182 E10.04421
G1 X19.933 Y31.182 E10.17484
G1 X19.933 Y18.613 E10.30469
G1 X20.169 Y18.774 F9000.000
G1 X32.340 Y18.774 E10.43044 F2400.000
G1 X32.340 Y30.945 E10.55619
G1 X20.169 Y30.945 E10.68194
G1 X20.169 Y18.849 E10.80691
G1 X20.405 Y19.010 F9000.000
G1 X32.104 Y19.010 E10.92778 F2400.000
G1 X32.104 Y30.709 E11.04865
G1 X20.405 Y30.709 E11.16952
G1 X20.405 Y19.085 E11.28962
G1 X20.641 Y19.246 F9000.000
G1 X31.868 Y19.246 E11.40561 F2400.000
G1 X31.868 Y30.473 E11.52160
G1 X20.641 Y30.473 E11.63759
G1 X20.641 Y19.321 E11.75281
G1 X20.877 Y19.483 F9000.000
G1 X31.632 Y19.483 E11.86392 F2400.000
G1 X31.632 Y30.237 E11.97503
G1 X20.877 Y30.237 E12.08615
G1 X20.877 Y19.558 E12.19648
G1 X21.113 Y19.719 F9000.000
G1 X31.396 Y19.719 E12.30272 F2400.000
G1 X31.396 Y30.001 E12.40895
G1 X21.113 Y30.001 E12.51519
G1 X21.113 Y19.794 E12.62065
G1 X21.350 Y19.955 F9000.000
G1 X31.160 Y19.955 E12.72200 F2400.000
G1 X31.160 Y29.765 E12.82336
G1 X21.350 Y29.765 E12.92471
G1 X21.350 Y20.030 E13.02529
G1 X21.586 Y20.191 F9000.000
G1 X30.924 Y20.191 E13.12177 F2400.000
G1 X30.924 Y29.529 E13.21825
G1 X21.586 Y29.529 E13.31473
G1 X21.586 Y20.266 E13.41043
G1 X21.822 Y20.427 F9000.000
G1 X30.688 Y20.427 E13.50203 F2400.000
G1 X30.688 Y29.293 E13.59362
G1 X21.822 Y29.293 E13.68522
G1 X21.822 Y20.502 E13.77605
G1 X22.058 Y20.663 F9000.000
G1 X30.452 Y20.663 E13.86277 F2400.000
G1 X30.452 Y29.057 E13.94949
G1 X22.058 Y29.057 E14.03621
G1 X22.058 Y20.738 E14.12215
G1 X22.294 Y20.899 F9000.000
G1 X30.215 Y20.899 E14.20399 F2400.000
G1 X30.215 Y28.821 E14.28583
G1 X22.294 Y28.821 E14.36768
G1 X22.294 Y20.974 E14.44874
G1 X22.530 Y21.135 F9000.000
G1 X29.979 Y21.135 E14.52570 F2400.000
G1 X29.979 Y28.584 E14.60267
G1 X22.530 Y28.584 E14.67963
G1 X22.530 Y21.210 E14.75582
G1 X22.766 Y21.371 F9000.000
G1 X29.743 Y21.371 E14.82790 F2400.000
G1 X29.743 Y28.348 E14.89998
G1 X22.766 Y28.348 E14.97207
G1 X22.766 Y21.446 E15.04338
G1 X23.002 Y21.607 F9000.000
G1 X29.507 Y21.607 E15.11058 F2400.000
G1 X29.507 Y28.112 E15.17779
G1 X23.002 Y28.112 E15.24499
G1 X23.002 Y21.682 E15.31142
G1 X23.238 Y21.844 F9000.000
G1 X29.271 Y21.844 E15.37375 F2400.000
G1 X29.271 Y27.876 E15.43608
G1 X23.238 Y27.876 E15.49840
G1 X23.238 Y21.919 E15.55996
G1 X23.474 Y22.080 F9000.000
G1 X29.035 Y22.080 E15.61740 F2400.000
G1 X29.035 Y27.640 E15.67485
G1 X23.474 Y27.640 E15.73230
G1 X23.474 Y22.155 E15.78897
G1 X23.711 Y22.316 F9000.000
G1 X28.799 Y22.316 E15.84154 F2400.000
G1 X28.799 Y27.404 E15.89411
G1 X23.711 Y27.404 E15.94668
G1 X23.711 Y22.391 E15.99848
G1 X23.947 Y22.552 F9000.000
G1 X28.563 Y22.552 E16.04617 F2400.000
G1 X28.563 Y27.168 E16.09386
G1 X23.947 Y27.168 E16.14155
G1 X23.947 Y22.627 E16.18846
G1 X24.183 Y22.788 F9000.000
G1 X28.327 Y22.788 E16.23128 F2400.000
G1 X28.327 Y26.932 E16.27409
G1 X24.183 Y26.932 E16.31690
G1 X24.183 Y22.863 E16.35894
G1 X24.419 Y23.024 F9000.000
G1 X28.090 Y23.024 E16.39687 F2400.000
G1 X28.090 Y26.696 E16.43481
G1 X24.419 Y26.696 E16.47274
G1 X24.419 Y23.099 E16.50990
G1 X24.655 Y23.260 F9000.000
G1 X27.854 Y23.260 E16.54295 F2400.000
G1 X27.854 Y26.460 E16.57601
G1 X24.655 Y26.460 E16.60906
G1 X24.655 Y23.335 E16.64134
G1 X24.891 Y23.496 F9000.000
G1 X27.618 Y23.496 E16.66952 F2400.000
G1 X27.618 Y26.223 E16.69770
G1 X24.891 Y26.223 E16.72587
G1 X24.891 Y23.571 E16.75327
G1 X25.127 Y23.732 F9000.000
G1 X27.382 Y23.732 E16.77657 F2400.000
G1 X27.382 Y25.987 E16.79987
G1 X25.127 Y25.987 E16.82317
G1 X25.127 Y23.807 E16.84569
G1 X25.363 Y23.968 F9000.000
G1 X27.146 Y23.968 E16.86411 F2400.000
G1 X27.146 Y25.751 E16.88253
G1 X25.363 Y25.751 E16.90095
G1 X25.363 Y24.043 E16.91859
G1 X25.599 Y24.205 F9000.000
G1 X26.910 Y24.205 E16.93213 F2400.000
G1 X26.910 Y25.515 E16.94567
G1 X25.599 Y25.515 E16.95921
G1 X25.599 Y24.280 E16.97198
G1 X25.836 Y24.441 F9000.000
G1 X26.674 Y24.441 E16.98064 F2400.000
G1 X26.674 Y25.279 E16.98930
G1 X25.836 Y25.279 E16.99796
G1 X25.836 Y24.516 E17.00585
G1 X26.072 Y24.677 F9000.000
G1 X26.438 Y24.677 E17.00963 F2400.000
G1 X26.438 Y25.043 E17.01342
G1 X26.072 Y25.043 E17.01720
G1 X26.072 Y24.752 E17.02021
G1 F2400.000 E15.02021
G1 Z0.600 F9000.000
G92 E0
G1 X81.023 Y91.389 F9000.000
G1 X82.173 Y91.953 F9000.000
G1 Z0.300 F9000.000
G1 E2.00000 F2400.000
G1 X101.873 Y91.953 E2.20353 F2400.000
G1 X101.873 Y111.653 E2.40707
G1 X82.173 Y111.653 E2.61060 F2400.000
G1 X82.173 Y92.028 E2.81336
G1 F2400.000 E0.81336
G1 Z0.600 F9000.000
G92 E0
G1 X102.023 Y111.803 F9000.000
G1 X102.123 Y111.220 F9000.000
G1 X101.637 Y111.220 F9000.000
G1 Z0.300 F9000.000
G1 E2.00000 F2400.000
G1 X101.637 Y111.418 E2.00204 F2400.000
G1 X82.409 Y111.418 E2.20070
G1 X82.409 Y92.189 E2.39937
G1 X101.637 Y92.189 E2.59803 F2400.000
G1 X101.637 Y111.145 E2.79388
G1 F2400.000 E0.79388
G1 Z0.600 F9000.000
G92 E0
G1 X97.086 Y92.424 F9000.000
G1 Z0.300 F9000.000
G1 E2.00000 F2400.000
G1 X101.402 Y92.424 E2.04459 F2400.000
G1 X101.402 Y111.182 E2.23838
G1 X82.644 Y111.182 E2.43218 F2400.000
G1 X82.644 Y92.424 E2.62598
G1 X97.011 Y92.424 E2.77441
G1 F2400.000 E0.77441
G1 Z0.600 F9000.000
G92 E0
G1 X82.868 Y92.648 F9000.000
G1 Z0.300 F9000.000
G1 E2.00000 F2400.000
G1 X101.178 Y92.648 E2.18917 F2400.000
G1 X101.178 Y110.958 E2.37834
G1 X82.868 Y110.958 E2.56751
G1 X82.868 Y92.723 E2.75591
G1 X83.104 Y92.884 F9000.000
G1 X100.942 Y92.884 E2.94020 F2400.000
G1 X100.942 Y110.722 E3.12449
G1 X83.104 Y110.722 E3.30879
G1 X83.104 Y92.959 E3.49230
G1 X83.340 Y93.120 F9000.000
G1 X100.706 Y93.120 E3.67172 F2400.000
G1 X100.706 Y110.486 E3.85113
G1 X83.340 Y110.486 E4.03055
G1 X83.340 Y93.195 E4.20918
G1 X83.576 Y93.357 F9000.000
G1 X100.470 Y93.357 E4.38372 F2400.000
G1 X100.470 Y110.250 E4.55825
G1 X83.576 Y110.250 E4.73279
G1 X83.576 Y93.432 E4.90655
G1 X83.812 Y93.593 F9000.000
G1 X100.233 Y93.593 E5.07621 F2400.000
G1 X100.233 Y110.014 E5.24586
G1 X83.812 Y110.014 E5.41552
G1 X83.812 Y93.668 E5.58440
G1 X84.048 Y93.829 F9000.000
G1 X99.997 Y93.829 E5.74918 F2400.000
G1 X99.997 Y109.778 E5.91396
G1 X84.048 Y109.778 E6.07873
G1 X84.048 Y93.904 E6.24274
G1 X84.285 Y94.065 F9000.000
G1 X99.761 Y94.065 E6.40264 F2400.000
G1 X99.761 Y109.542 E6.56254
G1 X84.285 Y109.542 E6.72244
G1 X84.285 Y94.140 E6.88156
G1 X84.521 Y94.301 F9000.000
G1 X99.525 Y94.301 E7.03658 F2400.000
G1 X99.525 Y109.305 E7.19160
G1 X84.521 Y109.305 E7.34662
G1 X84.521 Y94.376 E7.50087
G1 X84.757 Y94.537 F9000.000
G1 X99.289 Y94.537 E7.65101 F2400.000
G1 X99.289 Y109.069 E7.80115
G1 X84.757 Y109.069 E7.95129
G1 X84.757 Y94.612 E8.10066
G1 X84.993 Y94.773 F9000.000
G1 X99.053 Y94.773 E8.24592 F2400.000
G1 X99.053 Y108.833 E8.39119
G1 X84.993 Y108.833 E8.53645
G1 X84.993 Y94.848 E8.68094
G1 X85.229 Y95.009 F9000.000
G1 X98.817 Y95.009 E8.82132 F2400.000
G1 X98.817 Y108.597 E8.96171
G1 X85.229 Y108.597 E9.10209
G1 X85.229 Y95.084 E9.24170
G1 X85.465 Y95.245 F9000.000
G1 X98.581 Y95.245 E9.37721 F2400.000
G1 X98.581 Y108.361 E9.51272
G1 X85.465 Y108.361 E9.64822
G1 X85.465 Y95.320 E9.78295
G1 X85.701 Y95.482 F9000.000
G1 X98.345 Y95.482 E9.91358 F2400.000
G1 X98.345 Y108.125 E10.04421
G1 X85.701 Y108.125 E10.17484
G1 X85.701 Y95.557 E10.30469
G1 X85.937 Y95.718 F9000.000
G1 X98.109 Y95.718 E10.43044 F2400.000
G1 X98.109 Y107.889 E10.55619
G1 X85.937 Y107.889 E10.68194
G1 X85.937 Y95.793 E10.80691
G1 X86.173 Y95.954 F9000.000
G1 X97.872 Y95.954 E10.92778 F2400.000
G1 X97.872 Y107.653 E11.04865
G1 X86.173 Y107.653 E11.16952
G1 X86.173 Y96.029 E11.28962
G1 X86.409 Y96.190 F9000.000
G1 X97.636 Y96.190 E11.40561 F2400.000
G1 X97.636 Y107.417 E11.52160
G1 X86.409 Y107.417 E11.63759
G1 X86.409 Y96.265 E11.75281
G1 X86.646 Y96.426 F9000.000
G1 X97.400 Y96.426 E11.86392 F2400.000
G1 X97.400 Y107.181 E11.97503
G1 X86.646 Y107.181 E12.08615
G1 X86.646 Y96.501 E12.19648
G1 X86.882 Y96.662 F9000.000
G1 X97.164 Y96.662 E12.30272 F2400.000
G1 X97.164 Y106.944 E12.40895
G1 X86.882 Y106.944 E12.51519
G1 X86.882 Y96.737 E12.62065
G1 X87.118 Y96.898 F9000.000
G1 X96.928 Y96.898 E12.72200 F2400.000
G1 X96.928 Y106.708 E12.82336
G1 X87.118 Y106.708 E12.92471
G1 X87.118 Y96.973 E13.02529
G1 X87.354 Y97.134 F9000.000
G1 X96.692 Y97.134 E13.12177 F2400.000
G1 X96.692 Y106.472 E13.21825
G1 X87.354 Y106.472 E13.31473
G1 X87.354 Y97.209 E13.41043
G1 X87.590 Y97.370 F9000.000
G1 X96.456 Y97.370 E13.50203 F2400.000
G1 X96.456 Y106.236 E13.59362
G1 X87.590 Y106.236 E13.68522
G1 X87.590 Y97.445 E13.77605
G1 X87.826 Y97.606 F9000.000
G1 X96.220 Y97.606 E13.86277 F2400.000
G1 X96.220 Y106.000 E13.94949
G1 X87.826 Y106.000 E14.03621
G1 X87.826 Y97.681 E14.12215
G1 X88.062 Y97.843 F9000.000
G1 X95.984 Y97.843 E14.20399 F2400.000
G1 X95.984 Y105.764 E14.28583
G1 X88.062 Y105.764 E14.36768
G1 X88.062 Y97.918 E14.44874
G1 X88.298 Y98.079 F9000.000
G1 X95.748 Y98.079 E14.52570 F2400.000
G1 X95.748 Y105.528 E14.60267
G1 X88.298 Y105.528 E14.67963
G1 X88.298 Y98.154 E14.75582
G1 X88.534 Y98.315 F9000.000
G1 X95.511 Y98.315 E14.82790 F2400.000
G1 X95.511 Y105.292 E14.89998
G1 X88.534 Y105.292 E14.97207
G1 X88.534 Y98.390 E15.04338
G1 X88.770 Y98.551 F9000.000
G1 X95.275 Y98.551 E15.11058 F2400.000
G1 X95.275 Y105.056 E15.17779
G1 X88.770 Y105.056 E15.24499
G1 X88.770 Y98.626 E15.31142
G1 X89.007 Y98.787 F9000.000
G1 X95.039 Y98.787 E15.37375 F2400.000
G1 X95.039 Y104.820 E15.43608
G1 X89.007 Y104.820 E15.49840
G1 X89.007 Y98.862 E15.55996
G1 X89.243 Y99.023 F9000.000
G1 X94.803 Y99.023 E15.61740 F2400.000
G1 X94.803 Y104.583 E15.67485
G1 X89.243 Y104.583 E15.73230
G1 X89.243 Y99.098 E15.78897
G1 X89.479 Y99.259 F9000.000
G1 X94.567 Y99.259 E15.84154 F2400.000
G1 X94.567 Y104.347 E15.89411
G1 X89.479 Y104.347 E15.94668
G1 X89.479 Y99.334 E15.99848
G1 X89.715 Y99.495 F9000.000
G1 X94.331 Y99.495 E16.04617 F2400.000
G1 X94.331 Y104.111 E16.09386
G1 X89.715 Y104.111 E16.14155
G1 X89.715 Y99.570 E16.18846
G1 X89.951 Y99.731 F9000.000
G1 X94.095 Y99.731 E16.23128 F2400.000
G1 X94.095 Y103.875 E16.27409
G1 X89.951 Y103.875 E16.31690
G1 X89.951 Y99.806 E16.35894
G1 X90.187 Y99.967 F9000.000
G1 X93.859 Y99.967 E16.39687 F2400.000
G1 X93.859 Y103.639 E16.43481
G1 X90.187 Y103.639 E16.47274
G1 X90.187 Y100.042 E16.50990
G1 X90.423 Y100.204 F9000.000
G1 X93.623 Y100.204 E16.54295 F2400.000
G1 X93.623 Y103.403 E16.57601
G1 X90.423 Y103.403 E16.60906
G1 X90.423 Y100.279 E16.64134
G1 X90.659 Y100.440 F9000.000
G1 X93.386 Y100.440 E16.66952 F2400.000
G1 X93.386 Y103.167 E16.69770
G1 X90.659 Y103.167 E16.72587
G1 X90.659 Y100.515 E16.75327
G1 X90.895 Y100.676 F9000.000
G1 X93.150 Y100.676 E16.77657 F2400.000
G1 X93.150 Y102.931 E16.79987
G1 X90.895 Y102.931 E16.82317
G1 X90.895 Y100.751 E16.84569
G1 X91.131 Y100.912 F9000.000
G1 X92.914 Y100.912 E16.86411 F2400.000
G1 X92.914 Y102.695 E16.88253
G1 X91.131 Y102.695 E16.90095
G1 X91.131 Y100.987 E16.91859
G1 X91.368 Y101.148 F9000.000
G1 X92.678 Y101.148 E16.93213 F2400.000
G1 X92.678 Y102.459 E16.94567
G1 X91.368 Y102.459 E16.95921
G1 X91.368 Y101.223 E16.97198
G1 X91.604 Y101.384 F9000.000
G1 X92.442 Y101.384 E16.98064 F2400.000
G1 X92.442 Y102.222 E16.98930
G1 X91.604 Y102.222 E16.99796
