; generated by Slic3r 1.1.7 on 2014-11-28 at 14:39:07

; perimeters extrusion width = 0.40mm
; infill extrusion width = 0.42mm
; solid infill extrusion width = 0.42mm
; top infill extrusion width = 0.42mm

; perimeters extrusion width = 0.50mm
; infill extrusion width = 0.70mm
; solid infill extrusion width = 0.70mm
; top infill extrusion width = 0.70mm

G21 ; set units to millimeters
M190 S65 ; wait for bed temperature to be reached
M104 S200 T0 ; set temperature
M104 S180 T1 ; set temperature
G28 ; home all axes
M109 S200 T0 ; wait for temperature to be reached
M109 S180 T1 ; wait for temperature to be reached
G90 ; use absolute coordinates
G92 E0
M82 ; use absolute distances for extrusion
T0
G92 E0
M106 S89
G1 F2400.000 E-3.00000
G1 Z0.700 F9000.000
G92 E0
G1 X80.688 Y16.586 F9000.000
G1 Z0.400 F9000.000
G1 E3.00000 F2400.000
G1 X81.846 Y14.182 E3.04791 F1800.000
G1 X83.661 Y12.226 E3.09583
G1 X85.972 Y10.893 E3.14374
G1 X89.239 Y10.275 E3.20344
G1 X119.239 Y10.275 E3.74218
G1 X121.877 Y10.673 E3.79009
G1 X124.281 Y11.831 E3.83800 F1800.000
G1 X126.236 Y13.646 E3.88592
G1 X127.570 Y15.957 E3.93383
G1 X128.187 Y19.224 E3.99353
G1 X128.187 Y49.224 E4.53227
G1 X127.790 Y51.862 E4.58018
G1 X126.632 Y54.266 E4.62809
G1 X124.817 Y56.222 E4.67601
G1 X122.506 Y57.555 E4.72392
G1 X119.239 Y58.173 E4.78363
G1 X89.239 Y58.173 E5.32236
G1 X86.600 Y57.775 E5.37027
G1 X84.197 Y56.617 E5.41818
G1 X82.241 Y54.802 E5.46610
G1 X80.908 Y52.491 E5.51401
G1 X80.290 Y49.224 E5.57372
G1 X80.290 Y19.224 E6.11245
G1 X80.679 Y16.645 E6.15928
G1 X81.047 Y16.702 F9000.000
G1 X81.056 Y16.642 E6.16037 F1800.000
G1 X82.213 Y14.300 E6.20728
G1 X84.020 Y12.413 E6.25419
G1 X86.311 Y11.159 E6.30110
G1 X89.239 Y10.644 E6.35448
G1 X119.239 Y10.644 E6.89321
G1 X121.821 Y11.041 E6.94012
G1 X124.163 Y12.198 E6.98703 F1800.000
G1 X126.049 Y14.005 E7.03394
G1 X127.304 Y16.296 E7.08086
G1 X127.819 Y19.224 E7.13424
G1 X127.819 Y49.224 E7.67297
G1 X127.421 Y51.806 E7.71988
G1 X126.265 Y54.148 E7.76679
G1 X124.458 Y56.034 E7.81370
G1 X122.166 Y57.289 E7.86061
G1 X119.239 Y57.804 E7.91399
G1 X89.239 Y57.804 E8.45272
G1 X86.657 Y57.406 E8.49964
G1 X84.314 Y56.250 E8.54655
G1 X82.428 Y54.443 E8.59346
G1 X81.174 Y52.151 E8.64037
G1 X80.659 Y49.224 E8.69375
G1 X80.659 Y19.224 E9.23248
G1 X81.038 Y16.761 E9.27723
G1 F2400.000 E-0.72277
G1 Z0.700 F9000.000
G92 E0
T1
G92 E0
G1 X35.046 Y16.819 F9000.000
G1 Z0.400 F9000.000
G1 X35.065 Y16.700 E0.00189 F1800.000
G1 X36.219 Y14.420 E0.04186
G1 X38.018 Y12.606 E0.08183
G1 X40.288 Y11.432 E0.12180
G1 X42.879 Y11.012 E0.16286
G1 X72.879 Y11.012 E0.63216
G1 X75.403 Y11.410 E0.67213
G1 X77.683 Y12.564 E0.71210 F1800.000
G1 X79.497 Y14.363 E0.75207
G1 X80.671 Y16.633 E0.79204
G1 X81.090 Y19.224 E0.83310
G1 X81.090 Y49.224 E1.30240
G1 X80.693 Y51.748 E1.34237
G1 X79.539 Y54.028 E1.38234
G1 X77.739 Y55.842 E1.42231
G1 X75.470 Y57.016 E1.46229
G1 X72.879 Y57.435 E1.50334
G1 X42.879 Y57.435 E1.97264
G1 X40.355 Y57.038 E2.01261
G1 X38.075 Y55.884 E2.05258
G1 X36.260 Y54.085 E2.09256
G1 X35.087 Y51.815 E2.13253
G1 X34.667 Y49.224 E2.17359
G1 X34.667 Y19.224 E2.64288
G1 X35.034 Y16.893 E2.67980
G1 X35.402 Y16.952 F9000.000
G1 X35.433 Y16.759 E2.68286 F1800.000
G1 X36.585 Y14.544 E2.72192
G1 X38.375 Y12.803 E2.76098
G1 X40.622 Y11.713 E2.80004
G1 X42.879 Y11.381 E2.83572
G1 X72.879 Y11.381 E3.30502
G1 X75.344 Y11.778 E3.34408
G1 X77.559 Y12.930 E3.38314 F1800.000
G1 X79.300 Y14.720 E3.42220
G1 X80.390 Y16.967 E3.46126
G1 X80.722 Y19.224 E3.49694
G1 X80.722 Y49.224 E3.96624
G1 X80.324 Y51.689 E4.00530
G1 X79.172 Y53.904 E4.04436
G1 X77.382 Y55.645 E4.08342
G1 X75.136 Y56.735 E4.12248
G1 X72.879 Y57.067 E4.15816
G1 X42.879 Y57.067 E4.62746
G1 X40.414 Y56.669 E4.66652
G1 X38.199 Y55.517 E4.70558
G1 X36.458 Y53.727 E4.74464
G1 X35.368 Y51.481 E4.78370
G1 X35.036 Y49.224 E4.81938
G1 X35.036 Y19.224 E5.28868
G1 X35.390 Y17.026 E5.32350
G1 F3600.000 E-4.67650
G1 Z0.700 F9000.000
G92 E0
T0
G92 E0
G1 X82.118 Y17.087 F9000.000
G1 Z0.400 F9000.000
G1 E10.00000 F2400.000
G1 X82.162 Y16.819 E10.00487 F1800.000
G1 X83.312 Y14.671 E10.04864
G1 X85.091 Y13.006 E10.09240
G1 X87.312 Y12.002 E10.13617
G1 X89.239 Y11.750 E10.17106
G1 X119.239 Y11.750 E10.70979
G1 X121.643 Y12.147 E10.75356
G1 X123.792 Y13.297 E10.79732 F1800.000
G1 X125.457 Y15.076 E10.84109
G1 X126.461 Y17.297 E10.88485
G1 X126.713 Y19.224 E10.91974
G1 X126.713 Y49.224 E11.45847
G1 X126.316 Y51.628 E11.50224
G1 X125.166 Y53.777 E11.54600
G1 X123.386 Y55.442 E11.58977
G1 X121.165 Y56.446 E11.63353
G1 X119.239 Y56.698 E11.66843
G1 X89.239 Y56.698 E12.20716
G1 X86.834 Y56.301 E12.25092
G1 X84.685 Y55.151 E12.29469
G1 X83.021 Y53.371 E12.33845
G1 X82.017 Y51.150 E12.38222
G1 X81.764 Y49.224 E12.41711
G1 X81.764 Y19.224 E12.95584
G1 X82.108 Y17.146 E12.99366
G1 X82.475 Y17.208 F9000.000
G1 X82.530 Y16.881 E12.99962 F1800.000
G1 X83.677 Y14.801 E13.04228
G1 X85.446 Y13.215 E13.08494
G1 X87.639 Y12.301 E13.12761
G1 X89.239 Y12.118 E13.15652
G1 X119.239 Y12.118 E13.69525
G1 X121.581 Y12.515 E13.73792
G1 X123.662 Y13.662 E13.78058 F1800.000
G1 X125.248 Y15.431 E13.82325
G1 X126.162 Y17.624 E13.86591
G1 X126.345 Y19.224 E13.89483
G1 X126.345 Y49.224 E14.43356
G1 X125.947 Y51.566 E14.47622
G1 X124.800 Y53.647 E14.51889
G1 X123.031 Y55.233 E14.56155
G1 X120.838 Y56.147 E14.60422
G1 X119.239 Y56.330 E14.63313
G1 X89.239 Y56.330 E15.17186
G1 X86.896 Y55.932 E15.21453
G1 X84.816 Y54.785 E15.25719
G1 X83.230 Y53.016 E15.29986
G1 X82.315 Y50.824 E15.34252
G1 X82.133 Y49.224 E15.37143
G1 X82.133 Y19.224 E15.91017
G1 X82.465 Y17.268 E15.94580
G1 F2400.000 E5.94580
G1 Z0.700 F9000.000
G92 E0
T1
G92 E0
G1 X36.471 Y17.331 F9000.000
G1 Z0.400 F9000.000
G1 E10.00000 F3600.000
G1 X36.539 Y16.945 E10.00613 F1800.000
G1 X37.683 Y14.935 E10.04231
G1 X39.440 Y13.431 E10.07850
G1 X41.602 Y12.609 E10.11468
G1 X42.879 Y12.487 E10.13475
G1 X72.879 Y12.487 E10.60404
G1 X75.157 Y12.884 E10.64022
G1 X77.167 Y14.028 E10.67641 F1800.000
G1 X78.672 Y15.785 E10.71259
G1 X79.494 Y17.947 E10.74877
G1 X79.616 Y19.224 E10.76884
G1 X79.616 Y49.224 E11.23814
G1 X79.219 Y51.502 E11.27432
G1 X78.075 Y53.513 E11.31050
G1 X76.318 Y55.017 E11.34668
G1 X74.156 Y55.839 E11.38286
G1 X72.879 Y55.961 E11.40293
G1 X42.879 Y55.961 E11.87223
G1 X40.600 Y55.564 E11.90841
G1 X38.590 Y54.420 E11.94459
G1 X37.086 Y52.663 E11.98077
G1 X36.264 Y50.501 E12.01696
G1 X36.142 Y49.224 E12.03703
G1 X36.142 Y19.224 E12.50632
G1 X36.459 Y17.405 E12.53520
G1 X36.825 Y17.471 F9000.000
G1 X36.907 Y17.011 E12.54251 F1800.000
G1 X38.048 Y15.074 E12.57768
G1 X39.791 Y13.654 E12.61285
G1 X42.879 Y12.855 E12.66274
G1 X72.879 Y12.855 E13.13203
G1 X75.092 Y13.252 E13.16720
G1 X77.029 Y14.393 E13.20237 F1800.000
G1 X78.449 Y16.136 E13.23755
G1 X79.247 Y19.224 E13.28743
G1 X79.247 Y49.224 E13.75673
G1 X78.851 Y51.437 E13.79190
G1 X77.709 Y53.374 E13.82707
G1 X75.966 Y54.794 E13.86224
G1 X72.879 Y55.592 E13.91213
G1 X42.879 Y55.592 E14.38142
G1 X40.666 Y55.196 E14.41659
G1 X38.729 Y54.054 E14.45176
G1 X37.309 Y52.311 E14.48693
G1 X36.510 Y49.224 E14.53682
G1 X36.510 Y19.224 E15.00612
G1 X36.811 Y17.545 E15.03280
G1 F3600.000 E5.03280
G1 Z0.700 F9000.000
G92 E0
T0
G92 E0
G1 X89.419 Y29.404 F9000.000
G1 Z0.400 F9000.000
G1 E10.00000 F2400.000
G1 X119.059 Y29.404 E10.53227 F1800.000
G1 X119.059 Y39.044 E10.70538
G1 X89.419 Y39.044 E11.23765 F1800.000
G1 X89.419 Y29.464 E11.40968
G1 F2400.000 E8.40968
G1 Z0.700 F9000.000
G92 E0
G1 X119.259 Y38.697 F9000.000
G1 X118.690 Y38.675 F9000.000
G1 Z0.400 F9000.000
G1 E3.00000 F2400.000
G1 X89.787 Y38.675 E3.51903 F1800.000
G1 X89.787 Y29.772 E3.67890
G1 X118.690 Y29.772 E4.19793 F1800.000
G1 X118.690 Y38.615 E4.35673
G1 F2400.000 E1.35673
G1 Z0.700 F9000.000
G92 E0
G1 X106.761 Y38.307 F9000.000
G1 Z0.400 F9000.000
G1 E3.00000 F2400.000
G1 X90.156 Y38.307 E3.29818 F1800.000
G1 X90.156 Y30.141 E3.44482
G1 X118.322 Y30.141 E3.95061
G1 X118.322 Y38.307 E4.09725
G1 X106.821 Y38.307 E4.30378 F1800.000
G1 F2400.000 E1.30378
G1 Z0.700 F9000.000
G92 E0
G1 X118.034 Y30.388 F9000.000
G1 Z0.400 F9000.000
G1 E3.00000 F2400.000
G1 X118.074 Y30.428 E3.00102 F1800.000
G1 X118.074 Y30.955 E3.01047
G1 X117.508 Y30.388 E3.02485
G1 X116.982 Y30.388 E3.03430
G1 X118.074 Y31.481 E3.06205
G1 X118.074 Y32.007 E3.07150
G1 X116.456 Y30.388 E3.11261
G1 X115.929 Y30.388 E3.12207
G1 X118.074 Y32.533 E3.17655
G1 X118.074 Y33.060 E3.18600
G1 X115.403 Y30.388 E3.25384
G1 X114.877 Y30.388 E3.26329
G1 X118.074 Y33.586 E3.34451
G1 X118.074 Y34.112 E3.35396
G1 X114.350 Y30.388 E3.44854
G1 X113.824 Y30.388 E3.45799
G1 X118.074 Y34.639 E3.56593
G1 X118.074 Y35.165 E3.57538
G1 X113.298 Y30.388 E3.69670
G1 X112.771 Y30.388 E3.70615
G1 X118.074 Y35.691 E3.84082
G1 X118.074 Y36.218 E3.85028
G1 X112.245 Y30.388 E3.99832
G1 X111.719 Y30.388 E4.00777
G1 X118.074 Y36.744 E4.16918
G1 X118.074 Y37.270 E4.17863
G1 X111.192 Y30.388 E4.35341
G1 X110.666 Y30.388 E4.36286
G1 X118.074 Y37.797 E4.55100
G1 X117.811 Y38.060 E4.55768
G1 X110.140 Y30.388 E4.75250
G1 X109.614 Y30.388 E4.76195
G1 X117.285 Y38.060 E4.95677
G1 X116.758 Y38.060 E4.96622
G1 X109.087 Y30.388 E5.16104
G1 X108.561 Y30.388 E5.17050
G1 X116.232 Y38.060 E5.36532
G1 X115.706 Y38.060 E5.37477
G1 X108.035 Y30.388 E5.56959
G1 X107.508 Y30.388 E5.57904
G1 X115.180 Y38.060 E5.77386
G1 X114.653 Y38.060 E5.78331
G1 X106.982 Y30.388 E5.97813
G1 X106.456 Y30.388 E5.98758
G1 X114.127 Y38.060 E6.18240
G1 X113.601 Y38.060 E6.19185
G1 X105.929 Y30.388 E6.38667
G1 X105.403 Y30.388 E6.39612
G1 X113.074 Y38.060 E6.59094
G1 X112.548 Y38.060 E6.60039
G1 X104.877 Y30.388 E6.79521
G1 X104.350 Y30.388 E6.80467
G1 X112.022 Y38.060 E6.99949
G1 X111.495 Y38.060 E7.00894
G1 X103.824 Y30.388 E7.20376
G1 X103.298 Y30.388 E7.21321
G1 X110.969 Y38.060 E7.40803
G1 X110.443 Y38.060 E7.41748
G1 X102.772 Y30.388 E7.61230
G1 X102.245 Y30.388 E7.62175
G1 X109.917 Y38.060 E7.81657
G1 X109.390 Y38.060 E7.82602
G1 X101.719 Y30.388 E8.02084
G1 X101.193 Y30.388 E8.03029
G1 X108.864 Y38.060 E8.22511
G1 X108.338 Y38.060 E8.23456
G1 X100.666 Y30.388 E8.42938
G1 X100.140 Y30.388 E8.43884
G1 X107.811 Y38.060 E8.63366
G1 X107.285 Y38.060 E8.64311
G1 X99.614 Y30.388 E8.83793
G1 X99.087 Y30.388 E8.84738
G1 X106.759 Y38.060 E9.04220
G1 X106.232 Y38.060 E9.05165
G1 X98.561 Y30.388 E9.24647
G1 X98.035 Y30.388 E9.25592
G1 X105.706 Y38.060 E9.45074
G1 X105.180 Y38.060 E9.46019
G1 X97.508 Y30.388 E9.65501
G1 X96.982 Y30.388 E9.66446
G1 X104.653 Y38.060 E9.85928
G1 X104.127 Y38.060 E9.86873
G1 X96.456 Y30.388 E10.06355
G1 X95.930 Y30.388 E10.07300
G1 X103.601 Y38.060 E10.26782
G1 X103.075 Y38.060 E10.27728
G1 X95.403 Y30.388 E10.47210
G1 X94.877 Y30.388 E10.48155
G1 X102.548 Y38.060 E10.67637
G1 X102.022 Y38.060 E10.68582
G1 X94.351 Y30.388 E10.88064
G1 X93.824 Y30.388 E10.89009
G1 X101.496 Y38.060 E11.08491
G1 X100.969 Y38.060 E11.09436
G1 X93.298 Y30.388 E11.28918
G1 X92.772 Y30.388 E11.29863
G1 X100.443 Y38.060 E11.49345
G1 X99.917 Y38.060 E11.50290
G1 X92.245 Y30.388 E11.69772
G1 X91.719 Y30.388 E11.70717
G1 X99.390 Y38.060 E11.90199
G1 X98.864 Y38.060 E11.91145
G1 X91.193 Y30.388 E12.10627
G1 X90.667 Y30.388 E12.11572
G1 X98.338 Y38.060 E12.31054
G1 X97.811 Y38.060 E12.31999
G1 X90.403 Y30.651 E12.50813
G1 X90.403 Y31.178 E12.51758
G1 X97.285 Y38.060 E12.69236
G1 X96.759 Y38.060 E12.70181
G1 X90.403 Y31.704 E12.86322
G1 X90.403 Y32.230 E12.87267
G1 X96.233 Y38.060 E13.02071
G1 X95.706 Y38.060 E13.03016
G1 X90.403 Y32.756 E13.16484
G1 X90.403 Y33.283 E13.17429
G1 X95.180 Y38.060 E13.29560
G1 X94.654 Y38.060 E13.30505
G1 X90.403 Y33.809 E13.41300
G1 X90.403 Y34.335 E13.42245
G1 X94.127 Y38.060 E13.51703
G1 X93.601 Y38.060 E13.52648
G1 X90.403 Y34.862 E13.60769
G1 X90.403 Y35.388 E13.61714
G1 X93.075 Y38.060 E13.68499
G1 X92.548 Y38.060 E13.69444
G1 X90.403 Y35.914 E13.74892
G1 X90.403 Y36.441 E13.75837
G1 X92.022 Y38.060 E13.79949
G1 X91.496 Y38.060 E13.80894
G1 X90.403 Y36.967 E13.83669
G1 X90.403 Y37.493 E13.84614
G1 X90.969 Y38.060 E13.86052
G1 X90.443 Y38.060 E13.86997
G1 X90.403 Y38.020 E13.87099
G1 F2400.000 E3.87099
G1 Z0.700 F9000.000
G92 E0
T1
G92 E0
G1 X44.043 Y29.044 F9000.000
G1 Z0.400 F9000.000
G1 E10.00000 F3600.000
G1 X43.059 Y29.044 E10.01630 F1800.000
G1 X43.059 Y19.404 E10.17588
G1 X72.699 Y19.404 E10.66654
G1 X72.699 Y29.044 E10.82612
G1 X44.118 Y29.044 E11.29924 F1800.000
G1 F3600.000 E6.29924
G1 Z0.700 F9000.000
G92 E0
G1 X72.699 Y28.544 F9000.000
G1 X72.309 Y28.544 F9000.000
G1 Z0.400 F9000.000
G1 E5.00000 F3600.000
G1 X72.309 Y28.654 E5.00182 F1800.000
G1 X43.449 Y28.654 E5.47957
G1 X43.449 Y19.794 E5.62623
G1 X72.309 Y19.794 E6.10398 F1800.000
G1 X72.309 Y28.469 E6.24759
G1 F3600.000 E1.24759
G1 Z0.700 F9000.000
G92 E0
G1 X54.727 Y28.264 F9000.000
G1 Z0.400 F9000.000
G1 E5.00000 F3600.000
G1 X43.839 Y28.264 E5.18023 F1800.000
G1 X43.839 Y20.184 E5.31399
G1 X71.919 Y20.184 E5.77882
G1 X71.919 Y28.264 E5.91257
G1 X54.802 Y28.264 E6.19593 F1800.000
G1 F3600.000 E1.19593
G1 Z0.700 F9000.000
G92 E0
G1 X54.802 Y39.404 F9000.000
G1 Z0.400 F9000.000
G1 E5.00000 F3600.000
G1 X72.699 Y39.404 E5.29627 F1800.000
G1 X72.699 Y49.044 E5.45585
G1 X43.059 Y49.044 E5.94651 F1800.000
G1 X43.059 Y39.404 E6.10609
G1 X54.727 Y39.404 E6.29924
G1 F3600.000 E1.29924
G1 Z0.700 F9000.000
G92 E0
G1 X72.202 Y48.992 F9000.000
G1 X72.202 Y48.654 F9000.000
G1 Z0.400 F9000.000
G1 E5.00000 F3600.000
G1 X43.449 Y48.654 E5.47597 F1800.000
G1 X43.449 Y39.794 E5.62264
G1 X72.309 Y39.794 E6.10039 F1800.000
G1 X72.309 Y48.654 E6.24705
G1 X72.277 Y48.654 E6.24759
G1 F3600.000 E1.24759
G1 Z0.700 F9000.000
G92 E0
G1 X45.162 Y40.184 F9000.000
G1 Z0.400 F9000.000
G1 E5.00000 F3600.000
G1 X71.919 Y40.184 E5.44294 F1800.000
G1 X71.919 Y48.264 E5.57669
G1 X43.839 Y48.264 E6.04152 F1800.000
G1 X43.839 Y40.184 E6.17528
G1 X45.087 Y40.184 E6.19593
G1 F3600.000 E1.19593
G1 Z0.700 F9000.000
G92 E0
G1 X44.102 Y47.961 F9000.000
G1 Z0.400 F9000.000
G1 E5.00000 F3600.000
G1 X44.142 Y48.001 E5.00094 F1800.000
G1 X44.698 Y48.001 E5.01014
G1 X44.102 Y47.405 E5.02409
G1 X44.102 Y46.849 E5.03330
G1 X45.254 Y48.001 E5.06027
G1 X45.810 Y48.001 E5.06947
G1 X44.102 Y46.293 E5.10946
G1 X44.102 Y45.737 E5.11866
G1 X46.366 Y48.001 E5.17167
G1 X46.922 Y48.001 E5.18087
G1 X44.102 Y45.181 E5.24689
G1 X44.102 Y44.625 E5.25609
G1 X47.478 Y48.001 E5.33513
G1 X48.034 Y48.001 E5.34433
G1 X44.102 Y44.069 E5.43639
G1 X44.102 Y43.513 E5.44559
G1 X48.590 Y48.001 E5.55066
G1 X49.146 Y48.001 E5.55987
G1 X44.102 Y42.957 E5.67795
G1 X44.102 Y42.401 E5.68716
G1 X49.702 Y48.001 E5.81826
G1 X50.258 Y48.001 E5.82746
G1 X44.102 Y41.845 E5.97158
G1 X44.102 Y41.289 E5.98079
G1 X50.814 Y48.001 E6.13792
G1 X51.370 Y48.001 E6.14713
G1 X44.102 Y40.733 E6.31728
G1 X44.371 Y40.447 E6.32379
G1 X51.926 Y48.001 E6.50065
G1 X52.482 Y48.001 E6.50985
G1 X44.928 Y40.447 E6.68670
G1 X45.484 Y40.447 E6.69591
G1 X53.038 Y48.001 E6.87276
G1 X53.594 Y48.001 E6.88196
G1 X46.040 Y40.447 E7.05882
G1 X46.596 Y40.447 E7.06802
G1 X54.150 Y48.001 E7.24487
G1 X54.706 Y48.001 E7.25408
G1 X47.152 Y40.447 E7.43093
G1 X47.708 Y40.447 E7.44013
G1 X55.262 Y48.001 E7.61699
G1 X55.818 Y48.001 E7.62619
G1 X48.264 Y40.447 E7.80304
G1 X48.820 Y40.447 E7.81225
G1 X56.374 Y48.001 E7.98910
G1 X56.930 Y48.001 E7.99831
G1 X49.376 Y40.447 E8.17516
G1 X49.932 Y40.447 E8.18436
G1 X57.486 Y48.001 E8.36122
G1 X58.042 Y48.001 E8.37042
G1 X50.488 Y40.447 E8.54727
G1 X51.044 Y40.447 E8.55648
G1 X58.598 Y48.001 E8.73333
G1 X59.154 Y48.001 E8.74253
G1 X51.600 Y40.447 E8.91939
G1 X52.156 Y40.447 E8.92859
G1 X59.710 Y48.001 E9.10544
G1 X60.266 Y48.001 E9.11465
G1 X52.712 Y40.447 E9.29150
G1 X53.268 Y40.447 E9.30070
G1 X60.822 Y48.001 E9.47756
G1 X61.378 Y48.001 E9.48676
G1 X53.824 Y40.447 E9.66361
G1 X54.380 Y40.447 E9.67282
G1 X61.934 Y48.001 E9.84967
G1 X62.490 Y48.001 E9.85888
G1 X54.936 Y40.447 E10.03573
G1 X55.492 Y40.447 E10.04493
G1 X63.046 Y48.001 E10.22179
G1 X63.602 Y48.001 E10.23099
G1 X56.048 Y40.447 E10.40784
G1 X56.604 Y40.447 E10.41705
G1 X64.158 Y48.001 E10.59390
G1 X64.714 Y48.001 E10.60310
G1 X57.160 Y40.447 E10.77996
G1 X57.716 Y40.447 E10.78916
