; generated by Slic3r 1.2.2 on 2015-01-04 at 13:47:31

; external perimeters extrusion width = 0.40mm
; perimeters extrusion width = 0.48mm
; infill extrusion width = 0.72mm
; solid infill extrusion width = 0.72mm
; top infill extrusion width = 0.72mm

M190 S55 ; set bed temperature
M104 S255 T0 ; set temperature
M104 S180 T1 ; set temperature
G28 ; home all axes
M109 S255 T0 ; wait for temperature to be reached
M109 S180 T1 ; wait for temperature to be reached
G21 ; set units to millimeters
G90 ; use absolute coordinates
M82 ; use absolute distances for extrusion
G92 E0
T0
G92 E0
M106 S89.25
G1 E-3.00000 F2400.00000
G92 E0
G1 Z0.440 F9000.000
G1 X73.970 Y52.483 F9000.000
G1 Z0.140 F9000.000
G1 E3.00000 F2400.00000
G1 X75.801 Y50.367 E3.04501 F1800.000
G1 X78.154 Y48.851 E3.09001
G1 X80.839 Y48.059 E3.13502
G1 X82.253 Y47.957 E3.15781
G1 X102.253 Y47.957 E3.47940
G1 X105.024 Y48.355 E3.52441
G1 X107.570 Y49.517 E3.56942 F1800.000
G1 X109.687 Y51.349 E3.61442
G1 X111.202 Y53.702 E3.65943
G1 X111.994 Y56.387 E3.70444
G1 X112.096 Y57.800 E3.72723
G1 X112.096 Y77.800 E4.04882
G1 X111.698 Y80.571 E4.09383
G1 X110.536 Y83.118 E4.13883
G1 X108.705 Y85.234 E4.18384
G1 X106.352 Y86.750 E4.22885
G1 X103.667 Y87.541 E4.27385
G1 X102.253 Y87.643 E4.29665
G1 X82.253 Y87.643 E4.61824
G1 X79.482 Y87.245 E4.66325
G1 X76.936 Y86.084 E4.70825
G1 X74.819 Y84.252 E4.75326
G1 X73.304 Y81.899 E4.79827
G1 X72.512 Y79.214 E4.84327
G1 X72.410 Y77.800 E4.86607
G1 X72.410 Y57.800 E5.18766
G1 X72.808 Y55.030 E5.23266
G1 X73.945 Y52.538 E5.27670
G1 X74.221 Y52.666 F9000.000
G1 X74.264 Y52.573 E5.27836 F1800.000
G1 X76.090 Y50.508 E5.32268
G1 X78.431 Y49.052 E5.36700
G1 X82.253 Y48.253 E5.42979
G1 X102.253 Y48.253 E5.75138
G1 X104.981 Y48.651 E5.79571
G1 X107.481 Y49.811 E5.84003 F1800.000
G1 X109.545 Y51.638 E5.88435
G1 X111.002 Y53.978 E5.92867
G1 X111.800 Y57.800 E5.99146
G1 X111.800 Y77.800 E6.31305
G1 X111.403 Y80.528 E6.35737
G1 X110.242 Y83.028 E6.40170
G1 X108.416 Y85.093 E6.44602
G1 X106.075 Y86.549 E6.49034
G1 X102.253 Y87.348 E6.55313
G1 X82.253 Y87.348 E6.87472
G1 X79.525 Y86.950 E6.91904
G1 X77.025 Y85.789 E6.96336
G1 X74.961 Y83.963 E7.00769
G1 X73.504 Y81.623 E7.05201
G1 X72.706 Y77.800 E7.11480
G1 X72.706 Y57.800 E7.43639
G1 X73.103 Y55.073 E7.48071
G1 X74.195 Y52.720 E7.52241
G1 E-2.47759 F2400.00000
G92 E0
G1 Z0.740 F9000.000
T1
G92 E0
G1 X27.420 Y51.850 F9000.000
G1 Z0.140 F9000.000
G1 X27.508 Y51.663 E0.00259 F1800.000
G1 X29.329 Y49.652 E0.03663
G1 X31.656 Y48.256 E0.07067
G1 X35.203 Y47.549 E0.11606
G1 X55.203 Y47.549 E0.36699
G1 X57.887 Y47.946 E0.40103
G1 X60.340 Y49.106 E0.43507 F1800.000
G1 X62.351 Y50.927 E0.46911
G1 X63.748 Y53.253 E0.50315
G1 X64.455 Y56.800 E0.54853
G1 X64.455 Y76.800 E0.79946
G1 X64.057 Y79.484 E0.83350
G1 X62.898 Y81.937 E0.86755
G1 X61.077 Y83.949 E0.90159
G1 X58.750 Y85.345 E0.93563
G1 X55.203 Y86.052 E0.98101
G1 X35.203 Y86.052 E1.23194
G1 X32.519 Y85.654 E1.26598
G1 X30.066 Y84.495 E1.30002
G1 X28.055 Y82.674 E1.33406
G1 X26.658 Y80.348 E1.36810
G1 X25.951 Y76.800 E1.41349
G1 X25.951 Y56.800 E1.66442
G1 X26.349 Y54.117 E1.69846
G1 X27.388 Y51.918 E1.72897
G1 X27.661 Y52.050 F9000.000
G1 X27.803 Y51.756 E1.73306 F1800.000
G1 X29.618 Y49.799 E1.76655
G1 X31.929 Y48.464 E1.80004
G1 X35.203 Y47.844 E1.84184
G1 X55.203 Y47.844 E2.09277
G1 X57.842 Y48.242 E2.12626
G1 X60.247 Y49.400 E2.15975 F1800.000
G1 X62.204 Y51.215 E2.19324
G1 X63.539 Y53.527 E2.22673
G1 X64.159 Y56.800 E2.26853
G1 X64.159 Y76.800 E2.51946
G1 X63.761 Y79.440 E2.55295
G1 X62.603 Y81.845 E2.58644
G1 X60.788 Y83.802 E2.61993
G1 X58.477 Y85.137 E2.65342
G1 X55.203 Y85.757 E2.69522
G1 X35.203 Y85.757 E2.94615
G1 X32.564 Y85.359 E2.97964
G1 X30.159 Y84.201 E3.01313
G1 X28.202 Y82.386 E3.04662
G1 X26.867 Y80.074 E3.08011
G1 X26.247 Y76.800 E3.12192
G1 X26.247 Y56.800 E3.37285
G1 X26.645 Y54.161 E3.40634
G1 X27.629 Y52.117 E3.43480
G1 E-6.56520 F3600.00000
G92 E0
G1 Z0.740 F9000.000
T0
G92 E0
G1 X74.950 Y53.250 F9000.000
G1 Z0.140 F9000.000
G1 E10.00000 F2400.00000
G1 X75.147 Y52.850 E10.00717 F1800.000
G1 X76.956 Y50.949 E10.04937
G1 X79.252 Y49.677 E10.09157
G1 X82.253 Y49.140 E10.14060
G1 X102.253 Y49.140 E10.46219
G1 X104.847 Y49.538 E10.50439
G1 X107.203 Y50.694 E10.54660 F1800.000
G1 X109.105 Y52.503 E10.58880
G1 X110.377 Y54.799 E10.63100
G1 X110.914 Y57.800 E10.68003
G1 X110.914 Y77.800 E11.00162
G1 X110.516 Y80.395 E11.04382
G1 X109.359 Y82.751 E11.08602
G1 X107.550 Y84.652 E11.12822
G1 X105.254 Y85.924 E11.17043
G1 X102.253 Y86.461 E11.21945
G1 X82.253 Y86.461 E11.54104
G1 X79.659 Y86.063 E11.58325
G1 X77.303 Y84.907 E11.62545
G1 X75.401 Y83.098 E11.66765
G1 X74.129 Y80.802 E11.70985
G1 X73.592 Y77.800 E11.75888
G1 X73.592 Y57.800 E12.08047
G1 X73.990 Y55.206 E12.12267
G1 X74.924 Y53.304 E12.15674
G1 X75.194 Y53.439 F9000.000
G1 X75.441 Y52.946 E12.16561 F1800.000
G1 X77.243 Y51.101 E12.20708
G1 X79.522 Y49.894 E12.24855
G1 X82.253 Y49.435 E12.29308
G1 X102.253 Y49.435 E12.61467
G1 X104.801 Y49.833 E12.65614
G1 X107.107 Y50.988 E12.69761 F1800.000
G1 X108.952 Y52.791 E12.73908
G1 X110.160 Y55.070 E12.78055
G1 X110.618 Y57.800 E12.82508
G1 X110.618 Y77.800 E13.14667
G1 X110.220 Y80.349 E13.18814
G1 X109.065 Y82.655 E13.22961
G1 X107.263 Y84.499 E13.27108
G1 X104.984 Y85.707 E13.31255
G1 X102.253 Y86.165 E13.35708
G1 X82.253 Y86.165 E13.67867
G1 X79.705 Y85.768 E13.72014
G1 X77.399 Y84.613 E13.76161
G1 X75.554 Y82.810 E13.80308
G1 X74.346 Y80.531 E13.84455
G1 X73.888 Y77.800 E13.88908
G1 X73.888 Y57.800 E14.21067
G1 X74.286 Y55.252 E14.25214
G1 X75.167 Y53.493 E14.28377
G1 E4.28377 F2400.00000
G92 E0
G1 Z0.740 F9000.000
T1
G92 E0
G1 X28.385 Y52.630 F9000.000
G1 Z0.140 F9000.000
G1 E10.00000 F3600.00000
G1 X28.685 Y52.044 E10.00826 F1800.000
G1 X30.480 Y50.258 E10.04004
G1 X32.741 Y49.116 E10.07182
G1 X35.203 Y48.731 E10.10308
G1 X55.203 Y48.731 E10.35401
G1 X57.704 Y49.129 E10.38579
G1 X59.960 Y50.282 E10.41757 F1800.000
G1 X61.746 Y52.078 E10.44935
G1 X62.888 Y54.339 E10.48113
G1 X63.272 Y56.800 E10.51239
G1 X63.272 Y76.800 E10.76332
G1 X62.875 Y79.302 E10.79510
G1 X61.721 Y81.557 E10.82687
G1 X59.926 Y83.343 E10.85865
G1 X57.665 Y84.485 E10.89043
G1 X55.203 Y84.870 E10.92169
G1 X35.203 Y84.870 E11.17262
G1 X32.702 Y84.472 E11.20440
G1 X30.446 Y83.319 E11.23618
G1 X28.660 Y81.523 E11.26796
G1 X27.518 Y79.262 E11.29974
G1 X27.134 Y76.800 E11.33100
G1 X27.134 Y56.800 E11.58193
G1 X27.531 Y54.299 E11.61371
G1 X28.351 Y52.697 E11.63629
G1 X28.616 Y52.836 F9000.000
G1 X28.978 Y52.144 E11.64608 F1800.000
G1 X30.766 Y50.417 E11.67727
G1 X33.008 Y49.343 E11.70846
G1 X35.203 Y49.027 E11.73628
G1 X55.203 Y49.027 E11.98721
G1 X57.657 Y49.424 E12.01840
G1 X59.860 Y50.576 E12.04959 F1800.000
G1 X61.586 Y52.364 E12.08077
G1 X62.660 Y54.606 E12.11196
G1 X62.977 Y56.800 E12.13978
G1 X62.977 Y76.800 E12.39071
G1 X62.579 Y79.254 E12.42190
G1 X61.428 Y81.457 E12.45309
G1 X59.640 Y83.184 E12.48427
G1 X57.398 Y84.258 E12.51546
G1 X55.203 Y84.574 E12.54328
G1 X35.203 Y84.574 E12.79421
G1 X32.749 Y84.177 E12.82540
G1 X30.546 Y83.025 E12.85659
G1 X28.820 Y81.237 E12.88777
G1 X27.746 Y78.995 E12.91896
G1 X27.429 Y76.800 E12.94678
G1 X27.429 Y56.800 E13.19771
G1 X27.827 Y54.347 E13.22890
G1 X28.582 Y52.902 E13.24935
G1 E3.24935 F3600.00000
G92 E0
G1 Z0.740 F9000.000
T0
G92 E0
G1 X75.895 Y54.043 F9000.000
G1 Z0.140 F9000.000
G1 E10.00000 F2400.00000
G1 X76.322 Y53.246 E10.01455 F1800.000
G1 X78.102 Y51.580 E10.05374
G1 X80.323 Y50.576 E10.09294
G1 X82.253 Y50.322 E10.12424
G1 X102.253 Y50.322 E10.44583
G1 X104.658 Y50.720 E10.48503
G1 X106.808 Y51.869 E10.52422 F1800.000
G1 X108.473 Y53.649 E10.56342
G1 X109.478 Y55.871 E10.60262
G1 X109.731 Y57.800 E10.63392
G1 X109.731 Y77.800 E10.95551
G1 X109.334 Y80.206 E10.99470
G1 X108.184 Y82.355 E11.03390
G1 X106.404 Y84.021 E11.07310
G1 X104.183 Y85.025 E11.11229
G1 X102.253 Y85.278 E11.14359
G1 X82.253 Y85.278 E11.46518
G1 X79.848 Y84.881 E11.50438
G1 X77.698 Y83.731 E11.54358
G1 X76.033 Y81.951 E11.58277
G1 X75.028 Y79.730 E11.62197
G1 X74.775 Y77.800 E11.65327
G1 X74.775 Y57.800 E11.97486
G1 X75.172 Y55.395 E12.01406
G1 X75.867 Y54.096 E12.03774
G1 X76.128 Y54.239 F9000.000
G1 X76.615 Y53.350 E12.05405 F1800.000
G1 X78.387 Y51.747 E12.09246
G1 X80.586 Y50.814 E12.13087
G1 X82.253 Y50.618 E12.15787
G1 X102.253 Y50.618 E12.47946
G1 X104.608 Y51.015 E12.51787
G1 X106.703 Y52.163 E12.55627 F1800.000
G1 X108.306 Y53.934 E12.59468
G1 X109.239 Y56.133 E12.63309
G1 X109.435 Y57.800 E12.66009
G1 X109.435 Y77.800 E12.98168
G1 X109.038 Y80.156 E13.02009
G1 X107.891 Y82.251 E13.05850
G1 X106.119 Y83.853 E13.09691
G1 X103.920 Y84.787 E13.13532
G1 X102.253 Y84.983 E13.16231
G1 X82.253 Y84.983 E13.48390
G1 X79.898 Y84.586 E13.52231
G1 X77.803 Y83.438 E13.56072
G1 X76.200 Y81.667 E13.59913
G1 X75.267 Y79.468 E13.63754
G1 X75.071 Y77.800 E13.66454
G1 X75.071 Y57.800 E13.98613
G1 X75.468 Y55.445 E14.02454
G1 X76.099 Y54.292 E14.04567
G1 E4.04567 F2400.00000
G92 E0
G1 Z0.740 F9000.000
T1
G92 E0
G1 X29.308 Y53.437 F9000.000
G1 Z0.140 F9000.000
G1 E10.00000 F3600.00000
G1 X29.859 Y52.457 E10.01411 F1800.000
G1 X31.621 Y50.919 E10.04345
G1 X33.795 Y50.059 E10.07280
G1 X35.203 Y49.914 E10.09055
G1 X55.203 Y49.914 E10.34148
G1 X57.508 Y50.311 E10.37082
G1 X59.547 Y51.456 E10.40016 F1800.000
G1 X61.085 Y53.218 E10.42951
G1 X61.944 Y55.393 E10.45885
G1 X62.090 Y56.800 E10.47660
G1 X62.090 Y76.800 E10.72753
G1 X61.693 Y79.105 E10.75687
G1 X60.547 Y81.144 E10.78622
G1 X58.785 Y82.682 E10.81556
G1 X56.611 Y83.542 E10.84490
G1 X55.203 Y83.687 E10.86265
G1 X35.203 Y83.687 E11.11358
G1 X32.898 Y83.290 E11.14293
G1 X30.859 Y82.145 E11.17227
G1 X29.321 Y80.383 E11.20161
G1 X28.462 Y78.208 E11.23095
G1 X28.316 Y76.800 E11.24871
G1 X28.316 Y56.800 E11.49964
G1 X28.713 Y54.496 E11.52898
G1 X29.271 Y53.503 E11.54327
G1 X29.527 Y53.650 F9000.000
G1 X30.152 Y52.566 E11.55897 F1800.000
G1 X31.903 Y51.095 E11.58767
G1 X34.052 Y50.310 E11.61637
G1 X35.203 Y50.209 E11.63087
G1 X55.203 Y50.209 E11.88179
G1 X57.456 Y50.606 E11.91050
G1 X59.437 Y51.749 E11.93920 F1800.000
G1 X60.909 Y53.501 E11.96790
G1 X61.693 Y55.650 E11.99660
G1 X61.794 Y56.800 E12.01109
G1 X61.794 Y76.800 E12.26202
G1 X61.397 Y79.053 E12.29072
G1 X60.254 Y81.035 E12.31942
G1 X58.503 Y82.506 E12.34812
G1 X56.354 Y83.290 E12.37683
G1 X55.203 Y83.392 E12.39132
G1 X35.203 Y83.392 E12.64225
G1 X32.950 Y82.995 E12.67095
G1 X30.969 Y81.852 E12.69965
G1 X29.497 Y80.100 E12.72835
G1 X28.713 Y77.951 E12.75705
G1 X28.612 Y76.800 E12.77155
G1 X28.612 Y56.800 E13.02248
G1 X29.009 Y54.548 E13.05118
G1 X29.489 Y53.715 E13.06324
G1 E3.06324 F3600.00000
G92 E0
G1 Z0.740 F9000.000
T0
G92 E0
G1 X76.791 Y54.864 F9000.000
G1 Z0.140 F9000.000
G1 E10.00000 F2400.00000
G1 X77.495 Y53.678 E10.02218 F1800.000
G1 X79.235 Y52.275 E10.05812
G1 X82.253 Y51.505 E10.10820
G1 X102.253 Y51.505 E10.42979
G1 X104.453 Y51.902 E10.46574
G1 X106.375 Y53.042 E10.50168 F1800.000
G1 X107.778 Y54.782 E10.53762
G1 X108.549 Y57.800 E10.58771
G1 X108.549 Y77.800 E10.90930
G1 X108.152 Y80.000 E10.94524
G1 X107.011 Y81.923 E10.98118
G1 X105.271 Y83.325 E11.01712
G1 X102.253 Y84.096 E11.06721
G1 X82.253 Y84.096 E11.38880
G1 X80.053 Y83.699 E11.42474
G1 X78.131 Y82.559 E11.46068
G1 X76.728 Y80.818 E11.49663
G1 X75.957 Y77.800 E11.54671
G1 X75.957 Y57.800 E11.86830
G1 X76.354 Y55.601 E11.90424
G1 X76.760 Y54.916 E11.91705
G1 E8.91705 F2400.00000
G92 E0
G1 Z0.740 F9000.000
G1 X82.433 Y57.980 F9000.000
G1 Z0.140 F9000.000
G1 E3.00000 F2400.00000
G1 X102.073 Y57.980 E3.31580 F1800.000
G1 X102.073 Y77.620 E3.63160
G1 X82.433 Y77.620 E3.94740 F1800.000
G1 X82.433 Y58.040 E4.26224
G1 X82.233 Y58.327 F9000.000
G1 X82.729 Y58.276 F9000.000
G1 X101.777 Y58.276 E4.56854 F1800.000
G1 X101.777 Y77.325 E4.87483
G1 X82.789 Y77.325 E5.18016
G1 E2.18016 F2400.00000
G92 E0
G1 Z0.740 F9000.000
G1 X90.911 Y77.029 F9000.000
G1 Z0.140 F9000.000
G1 E3.00000 F2400.00000
G1 X83.024 Y77.029 E3.12682 F1800.000
G1 X83.024 Y58.572 E3.42360
G1 X101.482 Y58.572 E3.72039
G1 X101.482 Y77.029 E4.01718
G1 X90.971 Y77.029 E4.18619 F1800.000
G1 E-5.81381 F2400.00000
G92 E0
G1 Z0.740 F9000.000
T1
G92 E0
G1 X44.969 Y66.641 F9000.000
G1 Z0.140 F9000.000
G1 E10.00000 F3600.00000
G1 X44.969 Y67.034 E10.00501 F1800.000
G1 X45.437 Y67.034 E10.01098
G1 X45.437 Y66.566 E10.01694
G1 X44.969 Y66.566 E10.02291
G1 X44.669 Y66.341 F9000.000
G1 X44.669 Y67.335 E10.03559 F1800.000
G1 X45.737 Y67.335 E10.04922
G1 X45.737 Y66.266 E10.06285
G1 X44.669 Y66.266 E10.07648
G1 X44.368 Y66.040 F9000.000
G1 X44.368 Y67.635 E10.09682 F1800.000
G1 X46.038 Y67.635 E10.11811
G1 X46.038 Y65.965 E10.13941
G1 X44.368 Y65.965 E10.16070
G1 X44.068 Y65.740 F9000.000
G1 X44.068 Y67.936 E10.18871 F1800.000
G1 X46.338 Y67.936 E10.21767
G1 X46.338 Y65.665 E10.24662
G1 X44.068 Y65.665 E10.27558
G1 X43.767 Y65.440 F9000.000
G1 X43.767 Y68.236 E10.31125 F1800.000
G1 X46.639 Y68.236 E10.34787
G1 X46.639 Y65.365 E10.38450
G1 X43.767 Y65.365 E10.42112
G1 X43.467 Y65.139 F9000.000
G1 X43.467 Y68.537 E10.46445 F1800.000
G1 X46.939 Y68.537 E10.50874
G1 X46.939 Y65.064 E10.55303
G1 X43.467 Y65.064 E10.59731
G1 X43.166 Y64.839 F9000.000
G1 X43.166 Y68.837 E10.64831 F1800.000
G1 X47.240 Y68.837 E10.70026
G1 X47.240 Y64.764 E10.75221
G1 X43.166 Y64.764 E10.80416
G1 X42.866 Y64.538 F9000.000
G1 X42.866 Y69.138 E10.86282 F1800.000
G1 X47.540 Y69.138 E10.92244
G1 X47.540 Y64.463 E10.98205
G1 X42.866 Y64.463 E11.04167
G1 X42.565 Y64.238 F9000.000
G1 X42.565 Y69.438 E11.10799 F1800.000
G1 X47.841 Y69.438 E11.17527
G1 X47.841 Y64.163 E11.24255
G1 X42.565 Y64.163 E11.30983
G1 X42.265 Y63.937 F9000.000
G1 X42.265 Y69.739 E11.38381 F1800.000
G1 X48.141 Y69.739 E11.45876
G1 X48.141 Y63.862 E11.53370
G1 X42.265 Y63.862 E11.60864
G1 X41.964 Y63.637 F9000.000
G1 X41.964 Y70.039 E11.69029 F1800.000
G1 X48.442 Y70.039 E11.77290
G1 X48.442 Y63.562 E11.85551
G1 X41.964 Y63.562 E11.93812
G1 X41.664 Y63.336 F9000.000
G1 X41.664 Y70.340 E12.02743 F1800.000
G1 X48.742 Y70.340 E12.11770
G1 X48.742 Y63.261 E12.20797
G1 X41.664 Y63.261 E12.29825
G1 X41.363 Y63.036 F9000.000
G1 X41.363 Y70.640 E12.39522 F1800.000
G1 X49.043 Y70.640 E12.49316
G1 X49.043 Y62.961 E12.59110
G1 X41.363 Y62.961 E12.68903
G1 X41.063 Y62.735 F9000.000
G1 X41.063 Y70.941 E12.79367 F1800.000
G1 X49.343 Y70.941 E12.89927
G1 X49.343 Y62.660 E13.00487
G1 X41.063 Y62.660 E13.11047
G1 X40.762 Y62.435 F9000.000
G1 X40.762 Y71.241 E13.22278 F1800.000
G1 X49.644 Y71.241 E13.33604
G1 X49.644 Y62.360 E13.44931
G1 X40.762 Y62.360 E13.56257
G1 X40.462 Y62.134 F9000.000
G1 X40.462 Y71.542 E13.68254 F1800.000
G1 X49.944 Y71.542 E13.80347
G1 X49.944 Y62.059 E13.92440
G1 X40.462 Y62.059 E14.04532
G1 X40.161 Y61.834 F9000.000
G1 X40.161 Y71.842 E14.17296 F1800.000
G1 X50.245 Y71.842 E14.30155
G1 X50.245 Y61.759 E14.43014
G1 X40.161 Y61.759 E14.55873
G1 X39.861 Y61.533 F9000.000
G1 X39.861 Y72.143 E14.69403 F1800.000
G1 X50.545 Y72.143 E14.83029
G1 X50.545 Y61.458 E14.96654
G1 X39.861 Y61.458 E15.10280
G1 X39.560 Y61.233 F9000.000
G1 X39.560 Y72.443 E15.24576 F1800.000
G1 X50.846 Y72.443 E15.38968
G1 X50.846 Y61.158 E15.53360
G1 X39.560 Y61.158 E15.67752
G1 X39.260 Y60.932 F9000.000
G1 X39.260 Y72.744 E15.82815 F1800.000
G1 X51.146 Y72.744 E15.97973
G1 X51.146 Y60.857 E16.13131
G1 X39.260 Y60.857 E16.28290
G1 X38.959 Y60.632 F9000.000
G1 X38.959 Y73.044 E16.44119 F1800.000
G1 X51.447 Y73.044 E16.60044
G1 X51.447 Y60.557 E16.75968
G1 X38.959 Y60.557 E16.91893
G1 X38.659 Y60.331 F9000.000
G1 X38.659 Y73.344 E17.08489 F1800.000
G1 X51.747 Y73.344 E17.25180
G1 X51.747 Y60.256 E17.41871
G1 X38.659 Y60.256 E17.58562
G1 X38.358 Y60.031 F9000.000
G1 X38.358 Y73.645 E17.75924 F1800.000
G1 X52.048 Y73.645 E17.93382
G1 X52.048 Y59.956 E18.10839
G1 X38.358 Y59.956 E18.28297
G1 X38.058 Y59.730 F9000.000
G1 X38.058 Y73.945 E18.46425 F1800.000
G1 X52.348 Y73.945 E18.64649
G1 X52.348 Y59.655 E18.82873
G1 X38.058 Y59.655 E19.01097
G1 X37.757 Y59.430 F9000.000
G1 X37.757 Y74.246 E19.19992 F1800.000
G1 X52.649 Y74.246 E19.38982
G1 X52.649 Y59.355 E19.57973
