; generated by Slic3r 1.2.1-dev on 2014-11-08 at 15:10:52

; external perimeters extrusion width = 0.40mm
; perimeters extrusion width = 0.67mm
; infill extrusion width = 0.67mm
; solid infill extrusion width = 0.67mm
; top infill extrusion width = 0.67mm

M190 S70 ; wait for bed temperature to be reached
M104 S220 T1 ; set temperature
G28 ; home all axes
M109 S220 T1 ; wait for temperature to be reached
G21 ; set units to millimeters
G90 ; use absolute coordinates
M82 ; use absolute distances for extrusion
G92 E0
T0
G92 E0
G1 E-2.00000 F2400.000
G92 E0
G1 Z0.300 F9000.000
G1 Z0.600 F9000.000
G1 X121.219 Y20.114 F9000.000
G1 Z0.300 F9000.000
G1 E2.00000 F2400.000
G1 X121.382 Y19.133 E2.01184 F1200.000
G1 X122.531 Y16.995 E2.04072
G1 X124.309 Y15.343 E2.06961
G1 X126.526 Y14.354 E2.09849
G1 X128.398 Y14.113 E2.12096
G1 X158.398 Y14.113 E2.47799
G1 X160.793 Y14.511 E2.50687
G1 X162.930 Y15.660 E2.53575 F1200.000
G1 X164.582 Y17.438 E2.56464
G1 X165.572 Y19.654 E2.59352
G1 X165.812 Y21.527 E2.61599
G1 X165.812 Y51.527 E2.97302
G1 X165.415 Y53.921 E3.00190
G1 X164.265 Y56.059 E3.03079
G1 X162.487 Y57.711 E3.05967
G1 X160.271 Y58.700 E3.08856
G1 X158.398 Y58.941 E3.11102
G1 X128.398 Y58.941 E3.46805
G1 X126.004 Y58.543 E3.49693
G1 X123.866 Y57.394 E3.52582
G1 X122.214 Y55.616 E3.55470
G1 X121.225 Y53.399 E3.58359
G1 X120.984 Y51.527 E3.60606
G1 X120.984 Y21.527 E3.96308
G1 X121.207 Y20.188 E3.97923
G1 X121.439 Y20.227 F9000.000
G1 X121.617 Y19.172 E3.99197 F1200.000
G1 X122.765 Y17.078 E4.02038
G1 X124.536 Y15.476 E4.04880
G1 X126.735 Y14.544 E4.07722
G1 X128.398 Y14.349 E4.09716
G1 X158.398 Y14.349 E4.45418
G1 X160.753 Y14.746 E4.48260
G1 X162.847 Y15.894 E4.51102 F1200.000
G1 X164.449 Y17.665 E4.53944
G1 X165.381 Y19.863 E4.56786
G1 X165.576 Y21.527 E4.58779
G1 X165.576 Y51.527 E4.94482
G1 X165.179 Y53.882 E4.97323
G1 X164.031 Y55.976 E5.00165
G1 X162.260 Y57.578 E5.03007
G1 X160.062 Y58.510 E5.05849
G1 X158.398 Y58.705 E5.07842
G1 X128.398 Y58.705 E5.43545
G1 X126.043 Y58.308 E5.46387
G1 X123.949 Y57.160 E5.49229
G1 X122.348 Y55.389 E5.52071
G1 X121.416 Y53.190 E5.54913
G1 X121.220 Y51.527 E5.56906
G1 X121.220 Y21.527 E5.92608
G1 X121.427 Y20.301 E5.94088
G1 E0.94088 F2400.000
G92 E0
G1 Z0.600 F9000.000
T1
G92 E0
G1 X121.659 Y20.341 F9000.000
G1 Z0.300 F9000.000
G1 X121.853 Y19.213 E0.01225 F1200.000
G1 X122.999 Y17.163 E0.03738
G1 X124.762 Y15.613 E0.06251
G1 X126.942 Y14.739 E0.08764
G1 X128.398 Y14.584 E0.10331
G1 X158.398 Y14.584 E0.42436
G1 X160.713 Y14.982 E0.44949
G1 X162.762 Y16.128 E0.47462 F1200.000
G1 X164.313 Y17.891 E0.49974
G1 X165.186 Y20.071 E0.52487
G1 X165.341 Y21.527 E0.54054
G1 X165.341 Y51.527 E0.86159
G1 X164.944 Y53.841 E0.88672
G1 X163.798 Y55.891 E0.91185
G1 X162.034 Y57.441 E0.93698
G1 X159.854 Y58.315 E0.96211
G1 X158.398 Y58.469 E0.97778
G1 X128.398 Y58.469 E1.29883
G1 X126.084 Y58.072 E1.32396
G1 X124.034 Y56.926 E1.34908
G1 X122.484 Y55.163 E1.37421
G1 X121.610 Y52.983 E1.39934
G1 X121.456 Y51.527 E1.41501
G1 X121.456 Y21.527 E1.73606
G1 X121.649 Y20.400 E1.74830
G1 X121.881 Y20.441 F9000.000
G1 X122.088 Y19.254 E1.76119 F1200.000
G1 X123.232 Y17.249 E1.78589
G1 X124.988 Y15.752 E1.81058
G1 X127.147 Y14.938 E1.83528
G1 X128.398 Y14.820 E1.84872
G1 X158.398 Y14.820 E2.16977
G1 X160.671 Y15.217 E2.19446
G1 X162.676 Y16.361 E2.21916 F1200.000
G1 X164.173 Y18.117 E2.24386
G1 X164.987 Y20.276 E2.26855
G1 X165.105 Y21.527 E2.28200
G1 X165.105 Y51.527 E2.60304
G1 X164.708 Y53.800 E2.62774
G1 X163.564 Y55.804 E2.65244
G1 X161.808 Y57.302 E2.67713
G1 X159.649 Y58.116 E2.70183
G1 X158.398 Y58.234 E2.71527
G1 X128.398 Y58.234 E3.03632
G1 X126.125 Y57.837 E3.06101
G1 X124.121 Y56.693 E3.08571
G1 X122.623 Y54.937 E3.11041
G1 X121.809 Y52.778 E3.13510
G1 X121.691 Y51.527 E3.14855
G1 X121.691 Y21.527 E3.46959
G1 X121.871 Y20.500 E3.48075
G1 E-1.51925 F2400.000
G92 E0
G1 Z0.600 F9000.000
T0
G92 E0
G1 X122.102 Y20.541 F9000.000
G1 Z0.300 F9000.000
G1 E5.00000 F2400.000
G1 X122.324 Y19.295 E5.01505 F1200.000
G1 X123.466 Y17.338 E5.04203
G1 X125.213 Y15.894 E5.06900
G1 X128.398 Y15.056 E5.10820
G1 X158.398 Y15.056 E5.46522
G1 X160.630 Y15.453 E5.49220
G1 X162.587 Y16.595 E5.51917 F1200.000
G1 X164.031 Y18.342 E5.54614
G1 X164.869 Y21.527 E5.58534
G1 X164.869 Y51.527 E5.94236
G1 X164.473 Y53.758 E5.96934
G1 X163.330 Y55.716 E5.99631
G1 X161.583 Y57.160 E6.02328
G1 X158.398 Y57.998 E6.06248
G1 X128.398 Y57.998 E6.41950
G1 X126.167 Y57.601 E6.44648
G1 X124.209 Y56.459 E6.47345
G1 X122.765 Y54.712 E6.50042
G1 X121.927 Y51.527 E6.53962
G1 X121.927 Y21.527 E6.89665
G1 X122.089 Y20.615 E6.90767
G1 X122.320 Y20.657 F9000.000
G1 X122.559 Y19.338 E6.92362 F1200.000
G1 X123.699 Y17.428 E6.95009
G1 X125.437 Y16.039 E6.97657
G1 X128.398 Y15.291 E7.01291
G1 X158.398 Y15.291 E7.36994
G1 X160.587 Y15.688 E7.39641
G1 X162.497 Y16.828 E7.42289 F1200.000
G1 X163.886 Y18.566 E7.44936
G1 X164.634 Y21.527 E7.48570
G1 X164.634 Y51.527 E7.84273
G1 X164.237 Y53.716 E7.86920
G1 X163.097 Y55.626 E7.89568
G1 X161.359 Y57.015 E7.92215
G1 X158.398 Y57.763 E7.95850
G1 X128.398 Y57.763 E8.31552
G1 X126.209 Y57.366 E8.34199
G1 X124.299 Y56.226 E8.36847
G1 X122.910 Y54.488 E8.39494
G1 X122.163 Y51.527 E8.43129
G1 X122.163 Y21.527 E8.78831
G1 X122.307 Y20.730 E8.79795
G1 E3.79795 F2400.000
G92 E0
G1 Z0.600 F9000.000
T1
G92 E0
G1 X128.548 Y21.677 F9000.000
G1 Z0.300 F9000.000
G1 E5.00000 F2400.000
G1 X158.248 Y21.677 E5.31784 F1200.000
G1 X158.248 Y51.377 E5.63567
G1 X128.548 Y51.377 E5.95351 F1200.000
G1 X128.548 Y21.737 E6.27070
G1 E4.27070 F2400.000
G92 E0
G1 Z0.600 F9000.000
G1 X158.448 Y51.031 F9000.000
G1 X128.784 Y21.913 F9000.000
G1 Z0.300 F9000.000
G1 E2.00000 F2400.000
G1 X158.013 Y21.913 E2.31279 F1200.000
G1 X158.013 Y51.141 E2.62559
G1 X128.844 Y51.141 E2.93774
G1 X129.019 Y50.906 F9000.000
G1 X129.019 Y22.148 E3.24549 F1200.000
G1 X157.777 Y22.148 E3.55324
G1 X157.777 Y50.906 E3.86099
G1 X129.079 Y50.906 E4.16809 F1200.000
G1 E2.16809 F2400.000
G92 E0
G1 Z0.600 F9000.000
G1 X138.255 Y50.670 F9000.000
G1 Z0.300 F9000.000
G1 E2.00000 F2400.000
G1 X129.255 Y50.670 E2.09631 F1200.000
G1 X129.255 Y22.384 E2.39902
G1 X157.541 Y22.384 E2.70173 F1200.000
G1 X157.541 Y50.670 E3.00443
G1 X138.315 Y50.670 E3.21019
G1 E1.21019 F2400.000
G92 E0
G1 Z0.600 F9000.000
G1 X129.479 Y22.608 F9000.000
G1 Z0.300 F9000.000
G1 E2.00000 F2400.000
G1 X157.318 Y22.608 E2.29792 F1200.000
G1 X157.318 Y50.446 E2.59583
G1 X129.479 Y50.446 E2.89375
G1 X129.479 Y22.668 E3.19102
G1 X129.716 Y22.844 F9000.000
G1 X157.081 Y22.844 E3.48387 F1200.000
G1 X157.081 Y50.209 E3.77672
G1 X129.716 Y50.209 E4.06957
G1 X129.716 Y22.904 E4.36177
G1 X129.953 Y23.081 F9000.000
G1 X156.844 Y23.081 E4.64955 F1200.000
G1 X156.844 Y49.973 E4.93733
G1 X129.953 Y49.973 E5.22511
G1 X129.953 Y23.141 E5.51225
G1 X130.189 Y23.318 F9000.000
G1 X156.607 Y23.318 E5.79496 F1200.000
G1 X156.607 Y49.736 E6.07767
G1 X130.189 Y49.736 E6.36038
G1 X130.189 Y23.378 E6.64245
G1 X130.426 Y23.555 F9000.000
G1 X156.370 Y23.555 E6.92009 F1200.000
G1 X156.370 Y49.499 E7.19773
G1 X130.426 Y49.499 E7.47537
G1 X130.426 Y23.615 E7.75237
G1 X130.663 Y23.792 F9000.000
G1 X156.133 Y23.792 E8.02495 F1200.000
G1 X156.133 Y49.262 E8.29752
G1 X130.663 Y49.262 E8.57009
G1 X130.663 Y23.852 E8.84203
G1 X130.900 Y24.029 F9000.000
G1 X155.897 Y24.029 E9.10953 F1200.000
G1 X155.897 Y49.025 E9.37703
G1 X130.900 Y49.025 E9.64454
G1 X130.900 Y24.089 E9.91140
G1 X131.137 Y24.265 F9000.000
G1 X155.660 Y24.265 E10.17384 F1200.000
G1 X155.660 Y48.789 E10.43627
G1 X131.137 Y48.789 E10.69871
G1 X131.137 Y24.325 E10.96050
G1 X131.373 Y24.502 F9000.000
G1 X155.423 Y24.502 E11.21787 F1200.000
G1 X155.423 Y48.552 E11.47524
G1 X131.373 Y48.552 E11.73261
G1 X131.373 Y24.562 E11.98933
G1 X131.610 Y24.739 F9000.000
G1 X155.186 Y24.739 E12.24163 F1200.000
G1 X155.186 Y48.315 E12.49393
G1 X131.610 Y48.315 E12.74623
G1 X131.610 Y24.799 E12.99788
G1 X131.847 Y24.976 F9000.000
G1 X154.949 Y24.976 E13.24511 F1200.000
G1 X154.949 Y48.078 E13.49234
G1 X131.847 Y48.078 E13.73957
G1 X131.847 Y25.036 E13.98616
G1 X132.084 Y25.213 F9000.000
G1 X154.713 Y25.213 E14.22832 F1200.000
G1 X154.713 Y47.841 E14.47048
G1 X132.084 Y47.841 E14.71264
G1 X132.084 Y25.273 E14.95416
G1 X132.321 Y25.449 F9000.000
G1 X154.476 Y25.449 E15.19126 F1200.000
G1 X154.476 Y47.604 E15.42835
G1 X132.321 Y47.604 E15.66544
G1 X132.321 Y25.509 E15.90189
G1 X132.558 Y25.686 F9000.000
G1 X154.239 Y25.686 E16.13391 F1200.000
G1 X154.239 Y47.368 E16.36594
G1 X132.558 Y47.368 E16.59796
G1 X132.558 Y25.746 E16.82934
G1 X132.794 Y25.923 F9000.000
G1 X154.002 Y25.923 E17.05630 F1200.000
G1 X154.002 Y47.131 E17.28325
G1 X132.794 Y47.131 E17.51021
G1 X132.794 Y25.983 E17.73652
G1 X133.031 Y26.160 F9000.000
G1 X153.765 Y26.160 E17.95841 F1200.000
G1 X153.765 Y46.894 E18.18030
G1 X133.031 Y46.894 E18.40218
G1 X133.031 Y26.220 E18.62343
G1 X133.268 Y26.397 F9000.000
G1 X153.528 Y26.397 E18.84025 F1200.000
G1 X153.528 Y46.657 E19.05706
G1 X133.268 Y46.657 E19.27388
G1 X133.268 Y26.457 E19.49006
G1 X133.505 Y26.634 F9000.000
G1 X153.292 Y26.634 E19.70181 F1200.000
G1 X153.292 Y46.420 E19.91356
G1 X133.505 Y46.420 E20.12530
G1 X133.505 Y26.694 E20.33641
G1 X133.742 Y26.870 F9000.000
G1 X153.055 Y26.870 E20.54309 F1200.000
G1 X153.055 Y46.184 E20.74977
G1 X133.742 Y46.184 E20.95645
G1 X133.742 Y26.930 E21.16249
G1 X133.978 Y27.107 F9000.000
G1 X152.818 Y27.107 E21.36410 F1200.000
G1 X152.818 Y45.947 E21.56572
G1 X133.978 Y45.947 E21.76733
G1 X133.978 Y27.167 E21.96830
G1 X134.215 Y27.344 F9000.000
G1 X152.581 Y27.344 E22.16484 F1200.000
G1 X152.581 Y45.710 E22.36138
G1 X134.215 Y45.710 E22.55793
G1 X134.215 Y27.404 E22.75383
G1 X134.452 Y27.581 F9000.000
G1 X152.344 Y27.581 E22.94530 F1200.000
G1 X152.344 Y45.473 E23.13678
G1 X134.452 Y45.473 E23.32825
G1 X134.452 Y27.641 E23.51908
G1 X134.689 Y27.818 F9000.000
G1 X152.107 Y27.818 E23.70549 F1200.000
G1 X152.107 Y45.236 E23.89190
G1 X134.689 Y45.236 E24.07830
G1 X134.689 Y27.878 E24.26407
G1 X134.926 Y28.054 F9000.000
G1 X151.871 Y28.054 E24.44540 F1200.000
G1 X151.871 Y44.999 E24.62674
G1 X134.926 Y44.999 E24.80808
G1 X134.926 Y28.114 E24.98877
G1 X135.163 Y28.291 F9000.000
G1 X151.634 Y28.291 E25.16504 F1200.000
G1 X151.634 Y44.763 E25.34131
G1 X135.163 Y44.763 E25.51758
G1 X135.163 Y28.351 E25.69320
G1 X135.399 Y28.528 F9000.000
G1 X151.397 Y28.528 E25.86440 F1200.000
G1 X151.397 Y44.526 E26.03560
G1 X135.399 Y44.526 E26.20680
G1 X135.399 Y28.588 E26.37736
G1 X135.636 Y28.765 F9000.000
G1 X151.160 Y28.765 E26.54349 F1200.000
G1 X151.160 Y44.289 E26.70962
G1 X135.636 Y44.289 E26.87575
G1 X135.636 Y28.825 E27.04124
G1 X135.873 Y29.002 F9000.000
G1 X150.923 Y29.002 E27.20231 F1200.000
G1 X150.923 Y44.052 E27.36337
G1 X135.873 Y44.052 E27.52443
G1 X135.873 Y29.062 E27.68485
G1 X136.110 Y29.239 F9000.000
G1 X150.687 Y29.239 E27.84085 F1200.000
G1 X150.687 Y43.815 E27.99684
G1 X136.110 Y43.815 E28.15283
G1 X136.110 Y29.299 E28.30819
G1 X136.347 Y29.475 F9000.000
G1 X150.450 Y29.475 E28.45911 F1200.000
G1 X150.450 Y43.578 E28.61004
G1 X136.347 Y43.578 E28.76096
G1 X136.347 Y29.535 E28.91124
G1 X136.583 Y29.712 F9000.000
G1 X150.213 Y29.712 E29.05710 F1200.000
G1 X150.213 Y43.342 E29.20296
G1 X136.583 Y43.342 E29.34881
G1 X136.583 Y29.772 E29.49403
G1 X136.820 Y29.949 F9000.000
G1 X149.976 Y29.949 E29.63482 F1200.000
G1 X149.976 Y43.105 E29.77560
G1 X136.820 Y43.105 E29.91639
G1 X136.820 Y30.009 E30.05654
G1 X137.057 Y30.186 F9000.000
G1 X149.739 Y30.186 E30.19226 F1200.000
G1 X149.739 Y42.868 E30.32798
G1 X137.057 Y42.868 E30.46369
G1 X137.057 Y30.246 E30.59877
G1 X137.294 Y30.423 F9000.000
G1 X149.502 Y30.423 E30.72942 F1200.000
G1 X149.502 Y42.631 E30.86007
G1 X137.294 Y42.631 E30.99072
G1 X137.294 Y30.483 E31.12073
G1 X137.531 Y30.659 F9000.000
G1 X149.266 Y30.659 E31.24631 F1200.000
G1 X149.266 Y42.394 E31.37190
G1 X137.531 Y42.394 E31.49748
G1 X137.531 Y30.719 E31.62242
G1 X137.768 Y30.896 F9000.000
G1 X149.029 Y30.896 E31.74293 F1200.000
G1 X149.029 Y42.158 E31.86344
G1 X137.768 Y42.158 E31.98396
G1 X137.768 Y30.956 E32.10383
G1 X138.004 Y31.133 F9000.000
G1 X148.792 Y31.133 E32.21927 F1200.000
G1 X148.792 Y41.921 E32.33472
G1 X138.004 Y41.921 E32.45016
G1 X138.004 Y31.193 E32.56496
G1 X138.241 Y31.370 F9000.000
G1 X148.555 Y31.370 E32.67534 F1200.000
G1 X148.555 Y41.684 E32.78571
G1 X138.241 Y41.684 E32.89609
G1 X138.241 Y31.430 E33.00582
G1 X138.478 Y31.607 F9000.000
G1 X148.318 Y31.607 E33.11113 F1200.000
G1 X148.318 Y41.447 E33.21644
G1 X138.478 Y41.447 E33.32175
G1 X138.478 Y31.667 E33.42641
G1 X138.715 Y31.844 F9000.000
G1 X148.082 Y31.844 E33.52665 F1200.000
G1 X148.082 Y41.210 E33.62689
G1 X138.715 Y41.210 E33.72713
G1 X138.715 Y31.904 E33.82672
G1 X138.952 Y32.080 F9000.000
G1 X147.845 Y32.080 E33.92189 F1200.000
G1 X147.845 Y40.973 E34.01706
G1 X138.952 Y40.973 E34.11223
G1 X138.952 Y32.140 E34.20676
G1 X139.188 Y32.317 F9000.000
G1 X147.608 Y32.317 E34.29686 F1200.000
G1 X147.608 Y40.737 E34.38696
G1 X139.188 Y40.737 E34.47706
G1 X139.188 Y32.377 E34.56652
G1 X139.425 Y32.554 F9000.000
G1 X147.371 Y32.554 E34.65156 F1200.000
G1 X147.371 Y40.500 E34.73659
G1 X139.425 Y40.500 E34.82162
G1 X139.425 Y32.614 E34.90601
G1 X139.662 Y32.791 F9000.000
G1 X147.134 Y32.791 E34.98597 F1200.000
G1 X147.134 Y40.263 E35.06594
G1 X139.662 Y40.263 E35.14590
G1 X139.662 Y32.851 E35.22522
G1 X139.899 Y33.028 F9000.000
G1 X146.897 Y33.028 E35.30012 F1200.000
G1 X146.897 Y40.026 E35.37501
G1 X139.899 Y40.026 E35.44991
G1 X139.899 Y33.088 E35.52416
G1 X140.136 Y33.264 F9000.000
G1 X146.661 Y33.264 E35.59399 F1200.000
G1 X146.661 Y39.789 E35.66381
G1 X140.136 Y39.789 E35.73364
G1 X140.136 Y33.324 E35.80283
G1 X140.373 Y33.501 F9000.000
G1 X146.424 Y33.501 E35.86758 F1200.000
G1 X146.424 Y39.553 E35.93234
G1 X140.373 Y39.553 E35.99710
G1 X140.373 Y33.561 E36.06121
G1 X140.609 Y33.738 F9000.000
G1 X146.187 Y33.738 E36.12090 F1200.000
G1 X146.187 Y39.316 E36.18059
G1 X140.609 Y39.316 E36.24028
G1 X140.609 Y33.798 E36.29933
G1 X140.846 Y33.975 F9000.000
G1 X145.950 Y33.975 E36.35395 F1200.000
G1 X145.950 Y39.079 E36.40857
G1 X140.846 Y39.079 E36.46319
G1 X140.846 Y34.035 E36.51717
G1 X141.083 Y34.212 F9000.000
G1 X145.713 Y34.212 E36.56672 F1200.000
G1 X145.713 Y38.842 E36.61627
G1 X141.083 Y38.842 E36.66582
G1 X141.083 Y34.272 E36.71473
G1 X141.320 Y34.449 F9000.000
G1 X145.477 Y34.449 E36.75922 F1200.000
G1 X145.477 Y38.605 E36.80370
G1 X141.320 Y38.605 E36.84818
G1 X141.320 Y34.509 E36.89202
G1 X141.557 Y34.685 F9000.000
G1 X145.240 Y34.685 E36.93144 F1200.000
G1 X145.240 Y38.368 E36.97085
G1 X141.557 Y38.368 E37.01027
G1 X141.557 Y34.745 E37.04904
G1 X141.793 Y34.922 F9000.000
G1 X145.003 Y34.922 E37.08339 F1200.000
G1 X145.003 Y38.132 E37.11773
G1 X141.793 Y38.132 E37.15208
G1 X141.793 Y34.982 E37.18578
G1 X142.030 Y35.159 F9000.000
G1 X144.766 Y35.159 E37.21506 F1200.000
G1 X144.766 Y37.895 E37.24434
G1 X142.030 Y37.895 E37.27361
G1 X142.030 Y35.219 E37.30225
G1 X142.267 Y35.396 F9000.000
G1 X144.529 Y35.396 E37.32646 F1200.000
G1 X144.529 Y37.658 E37.35066
G1 X142.267 Y37.658 E37.37487
G1 X142.267 Y35.456 E37.39844
G1 X142.504 Y35.633 F9000.000
G1 X144.292 Y35.633 E37.41758 F1200.000
G1 X144.292 Y37.421 E37.43672
G1 X142.504 Y37.421 E37.45586
G1 X142.504 Y35.693 E37.47436
G1 X142.741 Y35.869 F9000.000
G1 X144.056 Y35.869 E37.48843 F1200.000
G1 X144.056 Y37.184 E37.50250
G1 X142.741 Y37.184 E37.51657
G1 X142.741 Y35.929 E37.53000
G1 X142.978 Y36.106 F9000.000
G1 X143.819 Y36.106 E37.53900 F1200.000
G1 X143.819 Y36.948 E37.54800
G1 X142.978 Y36.948 E37.55701
G1 X142.978 Y36.166 E37.56537
G1 X143.214 Y36.343 F9000.000
G1 X143.582 Y36.343 E37.56930 F1200.000
G1 X143.582 Y36.711 E37.57323
G1 X143.214 Y36.711 E37.57717
G1 X143.214 Y36.403 E37.58046
G1 E35.58046 F2400.000
G92 E0
G1 Z0.600 F9000.000
G1 X128.598 Y36.403 F9000.000
G1 Z0.500 F9000.000
G1 E2.00000 F2400.000
G1 X128.598 Y21.727 E2.15868 F2400.000
G1 X158.198 Y21.727 E2.47872
G1 X158.198 Y51.327 E2.79876
G1 X128.598 Y51.327 E3.11879 F2400.000
G1 X128.598 Y36.463 E3.27950
