; generated by Slic3r 1.2.1-dev on 2014-11-08 at 08:23:58

; external perimeters extrusion width = 0.40mm
; perimeters extrusion width = 0.67mm
; infill extrusion width = 0.67mm
; solid infill extrusion width = 0.67mm
; top infill extrusion width = 0.67mm

M190 S70 ; wait for bed temperature to be reached
M104 S260 T1 ; set temperature
G28 ; home all axes
M109 S260 T1 ; wait for temperature to be reached
G21 ; set units to millimeters
G90 ; use absolute coordinates
M82 ; use absolute distances for extrusion
G92 E0
T0
G92 E0
G1 E-2.00000 F2400.000
G92 E0
G1 Z0.300 F9000.000
G1 Z0.600 F9000.000
G1 X73.311 Y78.909 F9000.000
G1 Z0.300 F9000.000
G1 E2.00000 F2400.000
G1 X73.411 Y78.816 E2.00163 F1200.000
G1 X75.627 Y77.827 E2.03052
G1 X77.500 Y77.586 E2.05298
G1 X107.500 Y77.586 E2.41001
G1 X109.894 Y77.984 E2.43889
G1 X112.032 Y79.133 E2.46778 F1200.000
G1 X113.684 Y80.911 E2.49666
G1 X114.673 Y83.127 E2.52555
G1 X114.914 Y85.000 E2.54801
G1 X114.914 Y115.000 E2.90504
G1 X114.516 Y117.394 E2.93392
G1 X113.367 Y119.532 E2.96281
G1 X111.589 Y121.184 E2.99169
G1 X109.373 Y122.173 E3.02058
G1 X107.500 Y122.414 E3.04305
G1 X77.500 Y122.414 E3.40007
G1 X75.106 Y122.016 E3.42896
G1 X72.968 Y120.867 E3.45784
G1 X71.316 Y119.089 E3.48673
G1 X70.327 Y116.873 E3.51561
G1 X70.086 Y115.000 E3.53808
G1 X70.086 Y85.000 E3.89510
G1 X70.484 Y82.606 E3.92399
G1 X71.633 Y80.468 E3.95287
G1 X73.256 Y78.960 E3.97923
G1 X73.422 Y79.144 F9000.000
G1 X73.638 Y78.949 E3.98269 F1200.000
G1 X75.836 Y78.017 E4.01111
G1 X77.500 Y77.822 E4.03105
G1 X107.500 Y77.822 E4.38807
G1 X109.855 Y78.219 E4.41649
G1 X111.949 Y79.367 E4.44491 F1200.000
G1 X113.551 Y81.138 E4.47333
G1 X114.483 Y83.336 E4.50175
G1 X114.678 Y85.000 E4.52168
G1 X114.678 Y115.000 E4.87870
G1 X114.281 Y117.355 E4.90712
G1 X113.133 Y119.449 E4.93554
G1 X111.362 Y121.051 E4.96396
G1 X109.164 Y121.983 E4.99238
G1 X107.500 Y122.178 E5.01231
G1 X77.500 Y122.178 E5.36934
G1 X75.145 Y121.781 E5.39776
G1 X73.051 Y120.633 E5.42618
G1 X71.449 Y118.862 E5.45460
G1 X70.517 Y116.664 E5.48301
G1 X70.322 Y115.000 E5.50295
G1 X70.322 Y85.000 E5.85997
G1 X70.719 Y82.645 E5.88839
G1 X71.867 Y80.551 E5.91681
G1 X73.367 Y79.195 E5.94088
G1 E0.94088 F2400.000
G92 E0
G1 Z0.600 F9000.000
T1
G92 E0
G1 X73.530 Y79.380 F9000.000
G1 Z0.300 F9000.000
G1 X73.864 Y79.086 E0.00530 F1200.000
G1 X76.044 Y78.212 E0.03325
G1 X77.500 Y78.058 E0.05068
G1 X107.500 Y78.058 E0.40770
G1 X109.814 Y78.455 E0.43565
G1 X111.864 Y79.601 E0.46359 F1200.000
G1 X113.414 Y81.364 E0.49154
G1 X114.288 Y83.544 E0.51948
G1 X114.442 Y85.000 E0.53691
G1 X114.442 Y115.000 E0.89393
G1 X114.045 Y117.314 E0.92188
G1 X112.899 Y119.364 E0.94982
G1 X111.136 Y120.914 E0.97777
G1 X108.956 Y121.788 E1.00572
G1 X107.500 Y121.942 E1.02314
G1 X77.500 Y121.942 E1.38017
G1 X75.186 Y121.545 E1.40811
G1 X73.136 Y120.399 E1.43606
G1 X71.586 Y118.636 E1.46400
G1 X70.712 Y116.456 E1.49195
G1 X70.558 Y115.000 E1.50938
G1 X70.558 Y85.000 E1.86640
G1 X70.955 Y82.686 E1.89435
G1 X72.101 Y80.636 E1.92229
G1 X73.484 Y79.420 E1.94422
G1 X73.643 Y79.606 F9000.000
G1 X74.090 Y79.225 E1.95121 F1200.000
G1 X76.249 Y78.411 E1.97867
G1 X77.500 Y78.293 E1.99362
G1 X107.500 Y78.293 E2.35064
G1 X109.773 Y78.690 E2.37811
G1 X111.777 Y79.834 E2.40557 F1200.000
G1 X113.275 Y81.590 E2.43304
G1 X114.089 Y83.749 E2.46050
G1 X114.207 Y85.000 E2.47545
G1 X114.207 Y115.000 E2.83247
G1 X113.810 Y117.273 E2.85994
G1 X112.666 Y119.277 E2.88740
G1 X110.910 Y120.775 E2.91487
G1 X108.751 Y121.589 E2.94233
G1 X107.500 Y121.707 E2.95728
G1 X77.500 Y121.707 E3.31430
G1 X75.227 Y121.310 E3.34177
G1 X73.223 Y120.166 E3.36923
G1 X71.725 Y118.410 E3.39670
G1 X70.911 Y116.251 E3.42416
G1 X70.793 Y115.000 E3.43911
G1 X70.793 Y85.000 E3.79614
G1 X71.190 Y82.727 E3.82360
G1 X72.334 Y80.723 E3.85106
G1 X73.598 Y79.645 E3.87083
G1 E-1.12917 F2400.000
G92 E0
G1 Z0.600 F9000.000
T0
G92 E0
G1 X73.752 Y79.832 F9000.000
G1 Z0.300 F9000.000
G1 E5.00000 F2400.000
G1 X74.315 Y79.367 E5.00868 F1200.000
G1 X77.500 Y78.529 E5.04788
G1 X107.500 Y78.529 E5.40491
G1 X109.731 Y78.926 E5.43188
G1 X111.689 Y80.068 E5.45885 F1200.000
G1 X113.133 Y81.815 E5.48583
G1 X113.971 Y85.000 E5.52502
G1 X113.971 Y115.000 E5.88205
G1 X113.574 Y117.231 E5.90902
G1 X112.432 Y119.189 E5.93599
G1 X110.685 Y120.633 E5.96297
G1 X107.500 Y121.471 E6.00216
G1 X77.500 Y121.471 E6.35919
G1 X75.269 Y121.074 E6.38616
G1 X73.311 Y119.932 E6.41313
G1 X71.867 Y118.185 E6.44011
G1 X71.029 Y115.000 E6.47931
G1 X71.029 Y85.000 E6.83633
G1 X71.426 Y82.769 E6.86330
G1 X72.568 Y80.811 E6.89028
G1 X73.695 Y79.880 E6.90767
G1 X73.844 Y80.067 F9000.000
G1 X74.539 Y79.512 E6.91825 F1200.000
G1 X77.500 Y78.764 E6.95460
G1 X107.500 Y78.764 E7.31162
G1 X109.689 Y79.161 E7.33810
G1 X111.599 Y80.301 E7.36457 F1200.000
G1 X112.988 Y82.039 E7.39104
G1 X113.736 Y85.000 E7.42739
G1 X113.736 Y115.000 E7.78441
G1 X113.339 Y117.189 E7.81089
G1 X112.199 Y119.099 E7.83736
G1 X110.461 Y120.488 E7.86384
G1 X107.500 Y121.236 E7.90018
G1 X77.500 Y121.236 E8.25721
G1 X75.311 Y120.839 E8.28368
G1 X73.401 Y119.699 E8.31015
G1 X72.012 Y117.961 E8.33663
G1 X71.264 Y115.000 E8.37297
G1 X71.264 Y85.000 E8.73000
G1 X71.661 Y82.811 E8.75647
G1 X72.801 Y80.901 E8.78294
G1 X73.786 Y80.114 E8.79795
G1 E3.79795 F2400.000
G92 E0
G1 Z0.600 F9000.000
T1
G92 E0
G1 X77.650 Y85.150 F9000.000
G1 Z0.300 F9000.000
G1 E5.00000 F2400.000
G1 X107.350 Y85.150 E5.35345 F1200.000
G1 X107.350 Y114.850 E5.70691
G1 X77.650 Y114.850 E6.06036 F1200.000
G1 X77.650 Y85.210 E6.41310
G1 E4.41310 F2400.000
G92 E0
G1 Z0.600 F9000.000
G1 X107.550 Y114.504 F9000.000
G1 X77.886 Y85.386 F9000.000
G1 Z0.300 F9000.000
G1 E2.00000 F2400.000
G1 X107.114 Y85.386 E2.34785 F1200.000
G1 X107.114 Y114.614 E2.69569
G1 X77.946 Y114.614 E3.04283
G1 X78.121 Y114.379 F9000.000
G1 X78.121 Y85.621 E3.38506 F1200.000
G1 X106.879 Y85.621 E3.72730
G1 X106.879 Y114.379 E4.06954
G1 X78.181 Y114.379 E4.41106 F1200.000
G1 E2.41106 F2400.000
G92 E0
G1 Z0.600 F9000.000
G1 X103.500 Y89.000 F9000.000
G1 X98.301 Y85.857 F9000.000
G1 Z0.300 F9000.000
G1 E2.00000 F2400.000
G1 X106.643 Y85.857 E2.09928 F1200.000
G1 X106.643 Y114.143 E2.43591
G1 X78.357 Y114.143 E2.77254
G1 X78.357 Y85.857 E3.10917
G1 X98.241 Y85.857 E3.34581 F1200.000
G1 E1.34581 F2400.000
G92 E0
G1 Z0.600 F9000.000
G1 X98.241 Y89.850 F9000.000
G1 Z0.300 F9000.000
G1 E2.00000 F2400.000
G1 X102.650 Y89.850 E2.05247 F1200.000
G1 X102.650 Y110.150 E2.29406
G1 X82.350 Y110.150 E2.53565
G1 X82.350 Y89.850 E2.77723
G1 X98.181 Y89.850 E2.96563 F1200.000
G1 E0.96563 F2400.000
G92 E0
G1 Z0.600 F9000.000
G1 X82.350 Y89.450 F9000.000
G1 X98.181 Y89.614 F9000.000
G1 Z0.300 F9000.000
G1 E2.00000 F2400.000
G1 X102.886 Y89.614 E2.05599 F1200.000
G1 X102.886 Y110.386 E2.30319
G1 X82.114 Y110.386 E2.55038 F1200.000
G1 X82.114 Y89.614 E2.79758
G1 X98.121 Y89.614 E2.98807
G1 X98.121 Y89.379 F9000.000
G1 X103.121 Y89.379 E3.04758 F1200.000
G1 X103.121 Y110.621 E3.30038
G1 X81.879 Y110.621 E3.55318
G1 X81.879 Y89.379 E3.80598
G1 X98.061 Y89.379 E3.99856 F1200.000
G1 X98.061 Y89.143 F9000.000
G1 X103.357 Y89.143 E4.06159 F1200.000
G1 X103.357 Y110.857 E4.32000
G1 X81.643 Y110.857 E4.57841 F1200.000
G1 X81.643 Y89.143 E4.83683
G1 X98.001 Y89.143 E5.03149
G1 E3.03149 F2400.000
G92 E0
G1 Z0.600 F9000.000
G1 X78.581 Y86.081 F9000.000
G1 Z0.300 F9000.000
G1 E2.00000 F2400.000
G1 X106.419 Y86.081 E2.33130 F1200.000
G1 X106.419 Y113.919 E2.66261
G1 X78.581 Y113.919 E2.99391
G1 X78.581 Y86.141 E3.32450
G1 X78.817 Y86.317 F9000.000
G1 X106.183 Y86.317 E3.65016 F1200.000
G1 X106.183 Y113.683 E3.97583
G1 X78.817 Y113.683 E4.30150
G1 X78.817 Y86.377 E4.62645
G1 X79.054 Y86.554 F9000.000
G1 X105.946 Y86.554 E4.94648 F1200.000
G1 X105.946 Y113.446 E5.26651
G1 X79.054 Y113.446 E5.58654
G1 X79.054 Y86.614 E5.90585
G1 X79.291 Y86.791 F9000.000
G1 X105.709 Y86.791 E6.22025 F1200.000
G1 X105.709 Y113.209 E6.53464
G1 X79.291 Y113.209 E6.84903
G1 X79.291 Y86.851 E7.16271
G1 X79.528 Y87.028 F9000.000
G1 X105.472 Y87.028 E7.47147 F1200.000
G1 X105.472 Y112.972 E7.78022
G1 X79.528 Y112.972 E8.08898
G1 X79.528 Y87.088 E8.39702
G1 X79.765 Y87.265 F9000.000
G1 X105.235 Y87.265 E8.70014 F1200.000
G1 X105.235 Y112.735 E9.00326
G1 X79.765 Y112.735 E9.30638
G1 X79.765 Y87.325 E9.60878
G1 X80.235 Y87.735 F9000.000
G1 X104.765 Y87.735 E9.90071 F1200.000
G1 X104.765 Y112.265 E10.19263
G1 X80.235 Y112.265 E10.48455
G1 X80.235 Y87.795 E10.77576
G1 X80.472 Y87.972 F9000.000
G1 X104.528 Y87.972 E11.06204 F1200.000
G1 X104.528 Y112.028 E11.34833
G1 X80.472 Y112.028 E11.63461
G1 X80.472 Y88.032 E11.92018
G1 X80.709 Y88.209 F9000.000
G1 X104.291 Y88.209 E12.20083 F1200.000
G1 X104.291 Y111.791 E12.48148
G1 X80.709 Y111.791 E12.76213
G1 X80.709 Y88.269 E13.04206
G1 X80.946 Y88.446 F9000.000
G1 X104.054 Y88.446 E13.31708 F1200.000
G1 X104.054 Y111.554 E13.59209
G1 X80.946 Y111.554 E13.86710
G1 X80.946 Y88.506 E14.14140
G1 X81.183 Y88.683 F9000.000
G1 X103.817 Y88.683 E14.41077 F1200.000
G1 X103.817 Y111.317 E14.68015
G1 X81.183 Y111.317 E14.94952
G1 X81.183 Y88.743 E15.21818
G1 X81.419 Y88.919 F9000.000
G1 X103.581 Y88.919 E15.48192 F1200.000
G1 X103.581 Y111.081 E15.74566
G1 X81.419 Y111.081 E16.00940
G1 X81.419 Y88.979 E16.27242
G1 E14.27242 F2400.000
G92 E0
G1 Z0.600 F9000.000
G1 X77.700 Y88.979 F9000.000
G1 Z0.500 F9000.000
G1 E2.00000 F2400.000
G1 X77.700 Y85.200 E2.04544 F2400.000
G1 X107.300 Y85.200 E2.40134
G1 X107.300 Y114.800 E2.75725
G1 X77.700 Y114.800 E3.11315 F2400.000
G1 X77.700 Y89.039 E3.42289
G1 E1.42289 F2400.000
G92 E0
G1 Z0.800 F9000.000
G1 X78.500 Y86.000 F9000.000
G1 X78.500 Y114.000 F9000.000
G1 X106.500 Y114.000 F9000.000
G1 X107.500 Y114.454 F9000.000
G1 X78.193 Y89.039 F9000.000
G1 Z0.500 F9000.000
G1 E2.00000 F2400.000
G1 X78.193 Y85.693 E2.07080 F2400.000
G1 X106.807 Y85.693 E2.67620 F2400.000
G1 X106.807 Y114.307 E3.28160
G1 X78.193 Y114.307 E3.88700
G1 X78.193 Y89.099 E4.42033
G1 X78.821 Y89.099 F9000.000
G1 X78.821 Y86.321 E4.47911 F2400.000
G1 X106.179 Y86.321 E5.05792
G1 X106.179 Y113.679 E5.63674
G1 X78.821 Y113.679 E6.21555 F2400.000
G1 X78.821 Y89.159 E6.73431
G1 E4.73431 F2400.000
G92 E0
G1 Z0.800 F9000.000
G1 X94.724 Y86.949 F9000.000
G1 Z0.500 F9000.000
G1 E2.00000 F2400.000
G1 X105.551 Y86.949 E2.22906 F2400.000
G1 X105.551 Y113.051 E2.78129
G1 X79.449 Y113.051 E3.33352
G1 X79.449 Y86.949 E3.88574
G1 X94.664 Y86.949 E4.20764 F2400.000
G1 E2.20764 F2400.000
G92 E0
G1 Z0.800 F9000.000
G1 X94.664 Y89.800 F9000.000
G1 Z0.500 F9000.000
G1 E2.00000 F2400.000
G1 X102.700 Y89.800 E2.09663 F2400.000
G1 X102.700 Y110.200 E2.34191
G1 X82.300 Y110.200 E2.58719
G1 X82.300 Y89.800 E2.83248
G1 X94.604 Y89.800 E2.98042 F2400.000
G1 E0.98042 F2400.000
G92 E0
G1 Z0.800 F9000.000
G1 X82.300 Y89.400 F9000.000
G1 X94.604 Y89.307 F9000.000
G1 Z0.500 F9000.000
G1 E2.00000 F2400.000
G1 X103.193 Y89.307 E2.18172 F2400.000
G1 X103.193 Y110.693 E2.63417
G1 X81.807 Y110.693 E3.08662 F2400.000
G1 X81.807 Y89.307 E3.53907
G1 X94.544 Y89.307 E3.80854
G1 X94.544 Y88.679 F9000.000
G1 X103.821 Y88.679 E4.00482 F2400.000
G1 X103.821 Y111.321 E4.48385
G1 X81.179 Y111.321 E4.96289
G1 X81.179 Y88.679 E5.44193
G1 X94.484 Y88.679 E5.72342 F2400.000
G1 X94.484 Y88.051 F9000.000
G1 X104.449 Y88.051 E5.93426 F2400.000
G1 X104.449 Y111.949 E6.43989
G1 X80.551 Y111.949 E6.94551 F2400.000
G1 X80.551 Y88.051 E7.45114
G1 X94.424 Y88.051 E7.74465
G1 X94.424 Y87.500 F9000.000
G1 X104.763 Y87.500 E7.84656 F2400.000
G1 X104.959 Y87.541 E7.84853
G1 X105.000 Y87.737 E7.85050
G1 X105.000 Y112.263 E8.09224
G1 X104.959 Y112.459 E8.09421
G1 X104.763 Y112.500 E8.09618
G1 X80.237 Y112.500 E8.33791
G1 X80.041 Y112.459 E8.33989
G1 X80.000 Y112.263 E8.34186
G1 X80.000 Y87.737 E8.58359
G1 X80.041 Y87.541 E8.58557
G1 X80.237 Y87.500 E8.58754 F2400.000
G1 X94.364 Y87.500 E8.72677
G1 E6.72677 F2400.000
G92 E0
G1 Z0.800 F9000.000
G1 X94.364 Y85.200 F9000.000
G1 Z0.700 F9000.000
G1 E2.00000 F2400.000
G1 X107.300 Y85.200 E2.15554 F2400.000
G1 X107.300 Y114.800 E2.51144
G1 X77.700 Y114.800 E2.86735 F2400.000
G1 X77.700 Y85.200 E3.22325
G1 X94.304 Y85.200 E3.42289
G1 E1.42289 F2400.000
G92 E0
G1 Z1.000 F9000.000
G1 X106.500 Y114.000 F9000.000
G1 X106.914 Y114.696 F9000.000
G1 X94.304 Y85.693 F9000.000
G1 Z0.700 F9000.000
G1 E2.00000 F2400.000
G1 X106.807 Y85.693 E2.26454 F2400.000
G1 X106.807 Y114.307 E2.86994
G1 X78.193 Y114.307 E3.47534
G1 X78.193 Y85.693 E4.08074
G1 X94.244 Y85.693 E4.42033 F2400.000
G1 X94.244 Y86.321 F9000.000
G1 X106.179 Y86.321 E4.67284 F2400.000
G1 X106.179 Y113.679 E5.25166
G1 X78.821 Y113.679 E5.83047 F2400.000
G1 X78.821 Y86.321 E6.40928
G1 X94.184 Y86.321 E6.73431
G1 E4.73431 F2400.000
G92 E0
G1 Z1.000 F9000.000
G1 X103.500 Y87.500 F9000.000
G1 X81.500 Y87.500 F9000.000
G1 X80.257 Y87.757 F9000.000
G1 X80.000 Y89.000 F9000.000
G1 X80.000 Y111.000 F9000.000
G1 X80.257 Y112.243 F9000.000
G1 X81.500 Y112.500 F9000.000
G1 X85.909 Y113.051 F9000.000
G1 Z0.700 F9000.000
G1 E2.00000 F2400.000
G1 X79.449 Y113.051 E2.13667 F2400.000
G1 X79.449 Y86.949 E2.68889
G1 X105.551 Y86.949 E3.24112 F2400.000
G1 X105.551 Y113.051 E3.79335
G1 X85.969 Y113.051 E4.20764
G1 E2.20764 F2400.000
G92 E0
G1 Z1.000 F9000.000
G1 X85.969 Y110.200 F9000.000
G1 Z0.700 F9000.000
G1 E2.00000 F2400.000
G1 X82.300 Y110.200 E2.04412 F2400.000
G1 X82.300 Y89.800 E2.28940
G1 X102.700 Y89.800 E2.53468 F2400.000
G1 X102.700 Y110.200 E2.77997
G1 X86.029 Y110.200 E2.98042
G1 E0.98042 F2400.000
G92 E0
G1 Z1.000 F9000.000
G1 X81.500 Y111.000 F9000.000
G1 X81.500 Y89.000 F9000.000
G1 X82.196 Y89.414 F9000.000
G1 X86.029 Y110.693 F9000.000
G1 Z0.700 F9000.000
G1 E2.00000 F2400.000
G1 X81.807 Y110.693 E2.08932 F2400.000
G1 X81.807 Y89.307 E2.54177
G1 X103.193 Y89.307 E2.99422
G1 X103.193 Y110.693 E3.44667
G1 X86.089 Y110.693 E3.80854 F2400.000
G1 X86.089 Y111.321 F9000.000
G1 X81.179 Y111.321 E3.91242 F2400.000
G1 X81.179 Y88.679 E4.39146
G1 X103.821 Y88.679 E4.87050 F2400.000
G1 X103.821 Y111.321 E5.34953
G1 X86.149 Y111.321 E5.72342
G1 X86.149 Y111.949 F9000.000
G1 X80.551 Y111.949 E5.84186 F2400.000
G1 X80.551 Y88.051 E6.34749
G1 X104.449 Y88.051 E6.85311
G1 X104.449 Y111.949 E7.35874
G1 X86.209 Y111.949 E7.74465 F2400.000
G1 X86.209 Y112.500 F9000.000
G1 X80.237 Y112.500 E7.80351 F2400.000
G1 X80.041 Y112.459 E7.80549
G1 X80.000 Y112.263 E7.80746
G1 X80.000 Y87.737 E8.04919
G1 X80.041 Y87.541 E8.05117
G1 X80.237 Y87.500 E8.05314 F2400.000
G1 X104.763 Y87.500 E8.29487
G1 X104.959 Y87.541 E8.29684
G1 X105.000 Y87.737 E8.29882
G1 X105.000 Y112.263 E8.54055
G1 X104.959 Y112.459 E8.54252
G1 X104.763 Y112.500 E8.54450
G1 X86.269 Y112.500 E8.72677
G1 E6.72677 F2400.000
G92 E0
G1 Z1.000 F9000.000
G1 X86.269 Y114.800 F9000.000
G1 Z0.900 F9000.000
G1 E2.00000 F2400.000
G1 X77.700 Y114.800 E2.10303 F2400.000
G1 X77.700 Y85.200 E2.45893
G1 X107.300 Y85.200 E2.81484
G1 X107.300 Y114.800 E3.17074
G1 X86.329 Y114.800 E3.42289 F2400.000
G1 E1.42289 F2400.000
G92 E0
G1 Z1.200 F9000.000
G1 X107.300 Y114.400 F9000.000
G1 X86.329 Y114.307 F9000.000
G1 Z0.900 F9000.000
G1 E2.00000 F2400.000
G1 X78.193 Y114.307 E2.17214 F2400.000
G1 X78.193 Y85.693 E2.77754
G1 X106.807 Y85.693 E3.38294 F2400.000
G1 X106.807 Y114.307 E3.98834
G1 X86.389 Y114.307 E4.42033
G1 X86.389 Y113.679 F9000.000
G1 X78.821 Y113.679 E4.58045 F2400.000
G1 X78.821 Y86.321 E5.15926
G1 X106.179 Y86.321 E5.73807
G1 X106.179 Y113.679 E6.31689
G1 X86.449 Y113.679 E6.73431 F2400.000
G1 E4.73431 F2400.000
G92 E0
G1 Z1.200 F9000.000
G1 X93.430 Y113.051 F9000.000
G1 Z0.900 F9000.000
G1 E2.00000 F2400.000
G1 X79.449 Y113.051 E2.29579 F2400.000
G1 X79.449 Y86.949 E2.84802
G1 X105.551 Y86.949 E3.40024 F2400.000
G1 X105.551 Y113.051 E3.95247
G1 X93.490 Y113.051 E4.20764
G1 E2.20764 F2400.000
G92 E0
G1 Z1.200 F9000.000
G1 X93.490 Y110.200 F9000.000
G1 Z0.900 F9000.000
G1 E2.00000 F2400.000
G1 X82.300 Y110.200 E2.13455 F2400.000
G1 X82.300 Y89.800 E2.37983
G1 X102.700 Y89.800 E2.62512 F2400.000
G1 X102.700 Y110.200 E2.87040
G1 X93.550 Y110.200 E2.98042
G1 E0.98042 F2400.000
G92 E0
G1 Z1.200 F9000.000
G1 X103.500 Y111.000 F9000.000
