; generated by Slic3r 1.2.2 on 2015-01-04 at 14:58:16

; external perimeters extrusion width = 0.40mm
; perimeters extrusion width = 0.48mm
; infill extrusion width = 0.48mm
; solid infill extrusion width = 0.48mm
; top infill extrusion width = 0.48mm

M190 S85 ; set bed temperature
M104 S260 ; set temperature
G28 ; home all axes
M109 S260 ; wait for temperature to be reached
G21 ; set units to millimeters
G90 ; use absolute coordinates
M82 ; use absolute distances for extrusion
G92 E0
M106 S89.25
G1 E-2.00000 F2400.00000
G92 E0
G1 Z0.140 F7800.000
G1 X29.487 Y26.712 F7800.000
G1 E2.00000 F2400.00000
G1 X31.812 Y25.324 E2.07888 F1350.000
G1 X35.324 Y24.628 E2.18319
G1 X55.324 Y24.628 E2.76586
G1 X58.002 Y25.026 E2.84475
G1 X60.449 Y26.185 E2.92363
G1 X62.453 Y28.005 E3.00251
G1 X63.842 Y30.330 E3.08139
G1 X64.537 Y33.842 E3.18570
G1 X64.537 Y53.842 E3.76837
G1 X64.140 Y56.520 E3.84725
G1 X62.981 Y58.967 E3.92614
G1 X61.160 Y60.971 E4.00502
G1 X58.836 Y62.360 E4.08390
G1 X55.324 Y63.056 E4.18821
G1 X35.324 Y63.056 E4.77088
G1 X32.646 Y62.658 E4.84976
G1 X30.199 Y61.499 E4.92865
G1 X28.194 Y59.678 E5.00753
G1 X26.806 Y57.354 E5.08641
G1 X26.110 Y53.842 E5.19072
G1 X26.110 Y33.842 E5.77339
G1 X26.508 Y31.164 E5.85227
G1 X27.667 Y28.717 E5.93115
G1 X29.447 Y26.757 E6.00829
G1 X30.010 Y26.981 F7800.000
G1 X32.306 Y25.705 E6.08483 F1350.000
G1 X35.324 Y25.164 E6.17415
G1 X55.324 Y25.164 E6.75682
G1 X57.921 Y25.561 E6.83336
G1 X60.280 Y26.718 E6.90991
G1 X62.184 Y28.528 E6.98645
G1 X63.460 Y30.824 E7.06299
G1 X64.002 Y33.842 E7.15231
G1 X64.002 Y53.842 E7.73498
G1 X63.604 Y56.439 E7.81152
G1 X62.448 Y58.798 E7.88806
G1 X60.638 Y60.702 E7.96461
G1 X58.341 Y61.978 E8.04115
G1 X55.324 Y62.520 E8.13046
G1 X35.324 Y62.520 E8.71314
G1 X32.727 Y62.122 E8.78968
G1 X30.368 Y60.966 E8.86622
G1 X28.463 Y59.156 E8.94276
G1 X27.187 Y56.859 E9.01931
G1 X26.646 Y53.842 E9.10862
G1 X26.646 Y33.842 E9.69130
G1 X27.043 Y31.245 E9.76784
G1 X28.200 Y28.886 E9.84438
G1 X29.968 Y27.025 E9.91918
G1 X30.530 Y27.260 F7800.000
G1 X32.796 Y26.102 E9.99330 F1350.000
G1 X35.324 Y25.699 E10.06789
G1 X55.324 Y25.699 E10.65056
G1 X57.837 Y26.097 E10.72469
G1 X60.105 Y27.251 E10.79882
G1 X61.906 Y29.048 E10.87294
G1 X63.064 Y31.314 E10.94707
G1 X63.466 Y33.842 E11.02166
G1 X63.466 Y53.842 E11.60433
G1 X63.069 Y56.355 E11.67846
G1 X61.915 Y58.623 E11.75259
G1 X60.117 Y60.424 E11.82671
G1 X57.852 Y61.582 E11.90084
G1 X55.324 Y61.984 E11.97543
G1 X35.324 Y61.984 E12.55810
G1 X32.811 Y61.587 E12.63223
G1 X30.543 Y60.433 E12.70636
G1 X28.742 Y58.635 E12.78048
G1 X27.584 Y56.370 E12.85461
G1 X27.181 Y53.842 E12.92919
G1 X27.181 Y33.842 E13.51187
G1 X27.579 Y31.329 E13.58600
G1 X28.733 Y29.061 E13.66012
G1 X30.488 Y27.302 E13.73250
G1 X31.048 Y27.550 F7800.000
G1 X33.279 Y26.515 E13.80414 F1350.000
G1 X35.324 Y26.235 E13.86427
G1 X55.324 Y26.235 E14.44695
G1 X57.750 Y26.632 E14.51858
G1 X59.923 Y27.783 E14.59021
G1 X61.616 Y29.567 E14.66184
G1 X62.651 Y31.797 E14.73348
G1 X62.931 Y33.842 E14.79361
G1 X62.931 Y53.842 E15.37629
G1 X62.533 Y56.268 E15.44792
G1 X61.383 Y58.441 E15.51955
G1 X59.599 Y60.134 E15.59118
G1 X57.369 Y61.169 E15.66282
G1 X55.324 Y61.449 E15.72295
G1 X35.324 Y61.449 E16.30563
G1 X32.897 Y61.051 E16.37726
G1 X30.724 Y59.901 E16.44889
G1 X29.032 Y58.117 E16.52052
G1 X27.997 Y55.887 E16.59216
G1 X27.717 Y53.842 E16.65229
G1 X27.717 Y33.842 E17.23497
G1 X28.114 Y31.415 E17.30660
G1 X29.265 Y29.242 E17.37823
G1 X31.005 Y27.591 E17.44812
G1 X31.564 Y27.853 F7800.000
G1 X33.754 Y26.947 E17.51716 F1350.000
G1 X35.324 Y26.771 E17.56317
G1 X55.324 Y26.771 E18.14585
G1 X57.660 Y27.168 E18.21489
G1 X59.734 Y28.315 E18.28394
G1 X61.313 Y30.082 E18.35299
G1 X62.219 Y32.273 E18.42204
G1 X62.395 Y33.842 E18.46804
G1 X62.395 Y53.842 E19.05072
G1 X61.998 Y56.178 E19.11976
G1 X60.851 Y58.252 E19.18881
G1 X59.083 Y59.831 E19.25786
G1 X56.893 Y60.737 E19.32691
G1 X55.324 Y60.913 E19.37291
G1 X35.324 Y60.913 E19.95559
G1 X32.987 Y60.516 E20.02463
G1 X30.913 Y59.369 E20.09368
G1 X29.335 Y57.601 E20.16273
G1 X28.429 Y55.411 E20.23178
G1 X28.253 Y53.842 E20.27778
G1 X28.253 Y33.842 E20.86046
G1 X28.650 Y31.505 E20.92951
G1 X29.797 Y29.431 E20.99855
G1 X31.520 Y27.893 E21.06585
G1 X32.077 Y28.170 F7800.000
G1 X35.324 Y27.306 E21.16373 F1350.000
G1 X55.324 Y27.306 E21.74640
G1 X57.567 Y27.703 E21.81276
G1 X59.537 Y28.846 E21.87912
G1 X60.996 Y30.595 E21.94549
G1 X61.859 Y33.842 E22.04336
G1 X61.859 Y53.842 E22.62603
G1 X61.462 Y56.085 E22.69239
G1 X60.320 Y58.055 E22.75876
G1 X58.570 Y59.514 E22.82512
G1 X55.324 Y60.377 E22.92299
G1 X35.324 Y60.377 E23.50567
G1 X33.081 Y59.980 E23.57203
G1 X31.110 Y58.838 E23.63839
G1 X29.652 Y57.088 E23.70475
G1 X28.788 Y53.842 E23.80262
G1 X28.788 Y33.842 E24.38530
G1 X29.185 Y31.599 E24.45166
G1 X30.328 Y29.628 E24.51802
G1 X32.031 Y28.208 E24.58263
G1 E22.58263 F2400.00000
G92 E0
G1 X35.624 Y34.142 F7800.000
G1 E2.00000 F2400.00000
G1 X55.024 Y34.142 E2.56519 F1350.000
G1 X55.024 Y53.542 E3.13039
G1 X35.624 Y53.542 E3.69558
G1 X35.624 Y34.202 E4.25903
G1 X35.970 Y34.342 F7800.000
G1 X36.159 Y34.677 F7800.000
G1 X54.488 Y34.677 E4.79301 F1350.000
G1 X54.488 Y53.006 E5.32700
G1 X36.159 Y53.006 E5.86098
G1 X36.159 Y34.737 E6.39322
G1 X36.695 Y35.213 F7800.000
G1 X53.953 Y35.213 E6.89600 F1350.000
G1 X53.953 Y52.471 E7.39877
G1 X36.695 Y52.471 E7.90155
G1 X36.695 Y35.273 E8.40258
G1 E6.40258 F2400.00000
G92 E0
G1 X37.103 Y52.102 F7800.000
G1 E2.00000 F2400.00000
G1 X37.063 Y52.062 E2.00167 F1350.000
G1 X37.063 Y51.296 E2.02427
G1 X37.870 Y52.102 E2.05789
G1 X38.636 Y52.102 E2.08049
G1 X37.063 Y50.529 E2.14608
G1 X37.063 Y49.763 E2.16868
G1 X39.403 Y52.102 E2.26624
G1 X40.169 Y52.102 E2.28884
G1 X37.063 Y48.996 E2.41835
G1 X37.063 Y48.230 E2.44095
G1 X40.936 Y52.102 E2.60242
G1 X41.703 Y52.102 E2.62502
G1 X37.063 Y47.463 E2.81846
G1 X37.063 Y46.696 E2.84106
G1 X42.469 Y52.102 E3.06645
G1 X43.236 Y52.102 E3.08905
G1 X37.063 Y45.930 E3.34641
G1 X37.063 Y45.163 E3.36901
G1 X44.002 Y52.102 E3.65833
G1 X44.769 Y52.102 E3.68093
G1 X37.063 Y44.397 E4.00221
G1 X37.063 Y43.630 E4.02481
G1 X45.535 Y52.102 E4.37805
G1 X46.302 Y52.102 E4.40065
G1 X37.063 Y42.864 E4.78586
G1 X37.063 Y42.097 E4.80846
G1 X47.068 Y52.102 E5.22562
G1 X47.835 Y52.102 E5.24822
G1 X37.063 Y41.331 E5.69735
G1 X37.063 Y40.564 E5.71995
G1 X48.602 Y52.102 E6.20104
G1 X49.368 Y52.102 E6.22364
G1 X37.063 Y39.797 E6.73669
G1 X37.063 Y39.031 E6.75929
G1 X50.135 Y52.102 E7.30430
G1 X50.901 Y52.102 E7.32690
G1 X37.063 Y38.264 E7.90387
G1 X37.063 Y37.498 E7.92647
G1 X51.668 Y52.102 E8.53540
G1 X52.434 Y52.102 E8.55800
G1 X37.063 Y36.731 E9.19890
G1 X37.063 Y35.965 E9.22150
G1 X53.201 Y52.102 E9.89436
G1 X53.584 Y51.719 E9.91034
G1 X37.447 Y35.581 E10.58320
G1 X38.213 Y35.581 E10.60580
G1 X53.584 Y50.952 E11.24669
G1 X53.584 Y50.186 E11.26929
G1 X38.980 Y35.581 E11.87823
G1 X39.746 Y35.581 E11.90083
G1 X53.584 Y49.419 E12.47780
G1 X53.584 Y48.653 E12.50040
G1 X40.513 Y35.581 E13.04541
G1 X41.279 Y35.581 E13.06801
G1 X53.584 Y47.886 E13.58106
G1 X53.584 Y47.120 E13.60366
G1 X42.046 Y35.581 E14.08475
G1 X42.812 Y35.581 E14.10735
G1 X53.584 Y46.353 E14.55648
G1 X53.584 Y45.587 E14.57908
G1 X43.579 Y35.581 E14.99625
G1 X44.346 Y35.581 E15.01885
G1 X53.584 Y44.820 E15.40405
G1 X53.584 Y44.053 E15.42665
G1 X45.112 Y35.581 E15.77990
G1 X45.879 Y35.581 E15.80250
G1 X53.584 Y43.287 E16.12378
G1 X53.584 Y42.520 E16.14638
G1 X46.645 Y35.581 E16.43570
G1 X47.412 Y35.581 E16.45830
G1 X53.584 Y41.754 E16.71566
G1 X53.584 Y40.987 E16.73826
G1 X48.178 Y35.581 E16.96366
G1 X48.945 Y35.581 E16.98626
G1 X53.584 Y40.221 E17.17969
G1 X53.584 Y39.454 E17.20229
G1 X49.711 Y35.581 E17.36377
G1 X50.478 Y35.581 E17.38637
G1 X53.584 Y38.688 E17.51588
G1 X53.584 Y37.921 E17.53848
G1 X51.245 Y35.581 E17.63603
G1 X52.011 Y35.581 E17.65863
G1 X53.584 Y37.154 E17.72422
G1 X53.584 Y36.388 E17.74683
G1 X52.778 Y35.581 E17.78045
G1 X53.544 Y35.581 E17.80305
G1 X53.584 Y35.621 E17.80472
M106 S112.2
G1 E15.80472 F2400.00000
G92 E0
G1 Z0.440 F7800.000
G1 X55.124 Y34.042 F7800.000
G1 E2.00000 F2400.00000
G1 X55.124 Y53.642 E2.35780 F1800.000
G1 X35.524 Y53.642 E2.71560
G1 X35.524 Y34.042 E3.07341
G1 X55.064 Y34.042 E3.43011
G1 X54.924 Y34.388 F7800.000
G1 X54.747 Y34.419 F7800.000
G1 X54.747 Y53.265 E3.85949 F1800.000
G1 X35.901 Y53.265 E4.28886
G1 X35.901 Y34.419 E4.71824
G1 X54.687 Y34.419 E5.14624
G1 X54.328 Y34.838 F7800.000
G1 X54.328 Y52.846 E5.55653 F1800.000
G1 X36.320 Y52.846 E5.96682
G1 X36.320 Y34.838 E6.37710
G1 X54.268 Y34.838 E6.78602
G1 X36.644 Y35.122 F7800.000
G1 X36.604 Y35.162 E6.78733 F1800.000
G1 X36.604 Y35.762 E6.80117
G1 X37.244 Y35.122 E6.82206
G1 X37.844 Y35.122 E6.83591
G1 X36.604 Y36.362 E6.87638
G1 X36.604 Y36.962 E6.89023
G1 X38.444 Y35.122 E6.95028
G1 X39.044 Y35.122 E6.96412
G1 X36.604 Y37.562 E7.04376
G1 X36.604 Y38.162 E7.05761
G1 X39.644 Y35.122 E7.15682
G1 X40.244 Y35.122 E7.17067
G1 X36.604 Y38.762 E7.28947
G1 X36.604 Y39.362 E7.30331
G1 X40.844 Y35.122 E7.44170
G1 X41.444 Y35.122 E7.45554
G1 X36.604 Y39.962 E7.61351
G1 X36.604 Y40.562 E7.62735
G1 X42.044 Y35.122 E7.80490
G1 X42.644 Y35.122 E7.81875
G1 X36.604 Y41.162 E8.01587
G1 X36.604 Y41.762 E8.02972
G1 X43.244 Y35.122 E8.24643
G1 X43.844 Y35.122 E8.26028
G1 X36.604 Y42.362 E8.49657
G1 X36.604 Y42.962 E8.51042
G1 X44.444 Y35.122 E8.76629
G1 X45.044 Y35.122 E8.78014
G1 X36.604 Y43.562 E9.05559
G1 X36.604 Y44.162 E9.06944
G1 X45.644 Y35.122 E9.36448
G1 X46.244 Y35.122 E9.37833
G1 X36.604 Y44.762 E9.69295
G1 X36.604 Y45.362 E9.70680
G1 X46.844 Y35.122 E10.04100
G1 X47.444 Y35.122 E10.05485
G1 X36.604 Y45.962 E10.40863
G1 X36.604 Y46.562 E10.42248
G1 X48.044 Y35.122 E10.79585
G1 X48.644 Y35.122 E10.80969
G1 X36.604 Y47.162 E11.20264
G1 X36.604 Y47.762 E11.21649
G1 X49.244 Y35.122 E11.62902
G1 X49.844 Y35.122 E11.64287
G1 X36.604 Y48.362 E12.07498
G1 X36.604 Y48.962 E12.08883
G1 X50.444 Y35.122 E12.54053
G1 X51.044 Y35.122 E12.55438
G1 X36.604 Y49.562 E13.02565
G1 X36.604 Y50.162 E13.03950
G1 X51.644 Y35.122 E13.53036
G1 X52.244 Y35.122 E13.54421
G1 X36.604 Y50.762 E14.05465
G1 X36.604 Y51.362 E14.06850
G1 X52.844 Y35.122 E14.59853
G1 X53.444 Y35.122 E14.61237
G1 X36.604 Y51.962 E15.16198
G1 X36.624 Y52.542 E15.17538
G1 X54.024 Y35.142 E15.74326
G1 X54.044 Y35.722 E15.75665
G1 X37.204 Y52.562 E16.30626
G1 X37.804 Y52.562 E16.32011
G1 X54.044 Y36.322 E16.85014
G1 X54.044 Y36.922 E16.86398
G1 X38.404 Y52.562 E17.37443
G1 X39.004 Y52.562 E17.38827
G1 X54.044 Y37.522 E17.87913
G1 X54.044 Y38.122 E17.89298
G1 X39.604 Y52.562 E18.36426
G1 X40.204 Y52.562 E18.37811
G1 X54.044 Y38.722 E18.82980
G1 X54.044 Y39.322 E18.84365
G1 X40.804 Y52.562 E19.27577
G1 X41.404 Y52.562 E19.28961
G1 X54.044 Y39.922 E19.70215
G1 X54.044 Y40.522 E19.71599
G1 X42.004 Y52.562 E20.10894
G1 X42.604 Y52.562 E20.12279
G1 X54.044 Y41.122 E20.49616
G1 X54.044 Y41.722 E20.51000
G1 X43.204 Y52.562 E20.86379
G1 X43.804 Y52.562 E20.87764
G1 X54.044 Y42.322 E21.21184
G1 X54.044 Y42.922 E21.22569
G1 X44.404 Y52.562 E21.54031
G1 X45.004 Y52.562 E21.55416
G1 X54.044 Y43.522 E21.84920
G1 X54.044 Y44.122 E21.86304
G1 X45.604 Y52.562 E22.13850
G1 X46.204 Y52.562 E22.15235
G1 X54.044 Y44.722 E22.40822
G1 X54.044 Y45.322 E22.42207
G1 X46.804 Y52.562 E22.65836
G1 X47.404 Y52.562 E22.67221
G1 X54.044 Y45.922 E22.88892
G1 X54.044 Y46.522 E22.90276
G1 X48.004 Y52.562 E23.09989
G1 X48.604 Y52.562 E23.11374
G1 X54.044 Y47.122 E23.29128
G1 X54.044 Y47.722 E23.30513
G1 X49.204 Y52.562 E23.46309
G1 X49.804 Y52.562 E23.47694
G1 X54.044 Y48.322 E23.61532
G1 X54.044 Y48.922 E23.62917
G1 X50.404 Y52.562 E23.74797
G1 X51.004 Y52.562 E23.76182
G1 X54.044 Y49.522 E23.86103
G1 X54.044 Y50.122 E23.87488
G1 X51.604 Y52.562 E23.95451
G1 X52.204 Y52.562 E23.96836
G1 X54.044 Y50.722 E24.02841
G1 X54.044 Y51.322 E24.04226
G1 X52.804 Y52.562 E24.08273
G1 X53.404 Y52.562 E24.09658
G1 X54.044 Y51.922 E24.11746
G1 X54.044 Y52.522 E24.13131
G1 X54.004 Y52.562 E24.13262
G1 E22.13262 F2400.00000
G92 E0
G1 Z0.740 F7800.000
G1 X55.124 Y53.642 F7800.000
G1 E2.00000 F2400.00000
G1 X35.524 Y53.642 E2.35780 F1800.000
G1 X35.524 Y34.042 E2.71560
G1 X55.124 Y34.042 E3.07341
G1 X55.124 Y53.582 E3.43011
G1 X54.777 Y53.442 F7800.000
G1 X54.747 Y53.265 F7800.000
G1 X35.901 Y53.265 E3.85949 F1800.000
G1 X35.901 Y34.419 E4.28886
G1 X54.747 Y34.419 E4.71824
G1 X54.747 Y53.205 E5.14624
G1 X54.328 Y52.846 F7800.000
G1 X36.320 Y52.846 E5.55653 F1800.000
G1 X36.320 Y34.838 E5.96682
G1 X54.328 Y34.838 E6.37710
G1 X54.328 Y52.786 E6.78602
G1 X54.044 Y35.162 F7800.000
G1 X54.004 Y35.122 E6.78733 F1800.000
G1 X53.404 Y35.122 E6.80117
G1 X54.044 Y35.762 E6.82206
G1 X54.044 Y36.362 E6.83591
G1 X52.804 Y35.122 E6.87638
G1 X52.204 Y35.122 E6.89023
G1 X54.044 Y36.962 E6.95028
G1 X54.044 Y37.562 E6.96413
G1 X51.604 Y35.122 E7.04376
G1 X51.004 Y35.122 E7.05761
G1 X54.044 Y38.162 E7.15682
G1 X54.044 Y38.762 E7.17067
G1 X50.404 Y35.122 E7.28947
G1 X49.804 Y35.122 E7.30332
G1 X54.044 Y39.362 E7.44170
G1 X54.044 Y39.962 E7.45554
G1 X49.204 Y35.122 E7.61351
G1 X48.604 Y35.122 E7.62735
G1 X54.044 Y40.562 E7.80490
G1 X54.044 Y41.162 E7.81875
G1 X48.004 Y35.122 E8.01587
G1 X47.404 Y35.122 E8.02972
G1 X54.044 Y41.762 E8.24643
G1 X54.044 Y42.362 E8.26028
G1 X46.804 Y35.122 E8.49657
G1 X46.204 Y35.122 E8.51042
G1 X54.044 Y42.962 E8.76629
G1 X54.044 Y43.562 E8.78014
G1 X45.604 Y35.122 E9.05560
G1 X45.004 Y35.122 E9.06944
G1 X54.044 Y44.162 E9.36448
G1 X54.044 Y44.762 E9.37833
G1 X44.404 Y35.122 E9.69295
G1 X43.804 Y35.122 E9.70680
G1 X54.044 Y45.362 E10.04100
G1 X54.044 Y45.962 E10.05485
G1 X43.204 Y35.122 E10.40863
G1 X42.604 Y35.122 E10.42248
G1 X54.044 Y46.562 E10.79585
G1 X54.044 Y47.162 E10.80969
G1 X42.004 Y35.122 E11.20265
G1 X41.404 Y35.122 E11.21649
G1 X54.044 Y47.762 E11.62902
G1 X54.044 Y48.362 E11.64287
G1 X40.804 Y35.122 E12.07499
G1 X40.204 Y35.122 E12.08883
G1 X54.044 Y48.962 E12.54053
G1 X54.044 Y49.562 E12.55438
G1 X39.604 Y35.122 E13.02566
G1 X39.004 Y35.122 E13.03950
G1 X54.044 Y50.162 E13.53037
G1 X54.044 Y50.762 E13.54421
G1 X38.404 Y35.122 E14.05466
G1 X37.804 Y35.122 E14.06850
G1 X54.044 Y51.362 E14.59853
G1 X54.044 Y51.962 E14.61238
G1 X37.204 Y35.122 E15.16198
G1 X36.624 Y35.142 E15.17538
G1 X54.024 Y52.542 E15.74326
G1 X53.444 Y52.562 E15.75666
G1 X36.604 Y35.722 E16.30626
G1 X36.604 Y36.322 E16.32011
G1 X52.844 Y52.562 E16.85014
G1 X52.244 Y52.562 E16.86398
G1 X36.604 Y36.922 E17.37443
G1 X36.604 Y37.522 E17.38827
G1 X51.644 Y52.562 E17.87914
G1 X51.044 Y52.562 E17.89298
G1 X36.604 Y38.122 E18.36426
G1 X36.604 Y38.722 E18.37811
G1 X50.444 Y52.562 E18.82981
G1 X49.844 Y52.562 E18.84365
G1 X36.604 Y39.322 E19.27577
G1 X36.604 Y39.922 E19.28961
G1 X49.244 Y52.562 E19.70215
G1 X48.644 Y52.562 E19.71599
G1 X36.604 Y40.522 E20.10894
G1 X36.604 Y41.122 E20.12279
G1 X48.044 Y52.562 E20.49616
G1 X47.444 Y52.562 E20.51001
G1 X36.604 Y41.722 E20.86379
G1 X36.604 Y42.322 E20.87764
G1 X46.844 Y52.562 E21.21184
G1 X46.244 Y52.562 E21.22569
G1 X36.604 Y42.922 E21.54031
G1 X36.604 Y43.522 E21.55416
G1 X45.644 Y52.562 E21.84920
G1 X45.044 Y52.562 E21.86304
G1 X36.604 Y44.122 E22.13850
G1 X36.604 Y44.722 E22.15235
G1 X44.444 Y52.562 E22.40822
G1 X43.844 Y52.562 E22.42207
G1 X36.604 Y45.322 E22.65836
G1 X36.604 Y45.922 E22.67221
G1 X43.244 Y52.562 E22.88892
G1 X42.644 Y52.562 E22.90276
G1 X36.604 Y46.522 E23.09989
G1 X36.604 Y47.122 E23.11374
G1 X42.044 Y52.562 E23.29128
G1 X41.444 Y52.562 E23.30513
G1 X36.604 Y47.722 E23.46309
G1 X36.604 Y48.322 E23.47694
G1 X40.844 Y52.562 E23.61532
G1 X40.244 Y52.562 E23.62917
G1 X36.604 Y48.922 E23.74797
G1 X36.604 Y49.522 E23.76181
G1 X39.644 Y52.562 E23.86103
G1 X39.044 Y52.562 E23.87488
G1 X36.604 Y50.122 E23.95451
G1 X36.604 Y50.722 E23.96836
G1 X38.444 Y52.562 E24.02841
G1 X37.844 Y52.562 E24.04226
G1 X36.604 Y51.322 E24.08273
G1 X36.604 Y51.922 E24.09657
G1 X37.244 Y52.562 E24.11746
G1 X36.644 Y52.562 E24.13131
G1 X36.604 Y52.522 E24.13261
M106 S124.95
G1 E22.13261 F2400.00000
G92 E0
G1 Z1.040 F7800.000
G1 X35.524 Y53.642 F7800.000
G1 E2.00000 F2400.00000
