; generated by Slic3r 1.2.1-dev on 2014-11-08 at 08:16:19

; external perimeters extrusion width = 0.40mm
; perimeters extrusion width = 0.48mm
; infill extrusion width = 0.48mm
; solid infill extrusion width = 0.48mm
; top infill extrusion width = 0.48mm

M190 S70 ; wait for bed temperature to be reached
M104 S250 T1 ; set temperature
G28 ; home all axes
M109 S250 T1 ; wait for temperature to be reached
G21 ; set units to millimeters
G90 ; use absolute coordinates
M82 ; use absolute distances for extrusion
G92 E0
T0
G92 E0
G1 E-2.00000 F2400.000
G92 E0
G1 Z0.300 F9000.000
G1 Z0.600 F9000.000
G1 X73.311 Y78.909 F9000.000
G1 Z0.300 F9000.000
G1 E2.00000 F2400.000
G1 X73.411 Y78.816 E2.00163 F2400.000
G1 X75.627 Y77.827 E2.03052
G1 X77.500 Y77.586 E2.05298
G1 X107.500 Y77.586 E2.41001
G1 X109.894 Y77.984 E2.43889
G1 X112.032 Y79.133 E2.46778 F2400.000
G1 X113.684 Y80.911 E2.49666
G1 X114.673 Y83.127 E2.52555
G1 X114.914 Y85.000 E2.54801
G1 X114.914 Y115.000 E2.90504
G1 X114.516 Y117.394 E2.93392
G1 X113.367 Y119.532 E2.96281
G1 X111.589 Y121.184 E2.99169
G1 X109.373 Y122.173 E3.02058
G1 X107.500 Y122.414 E3.04305
G1 X77.500 Y122.414 E3.40007
G1 X75.106 Y122.016 E3.42896
G1 X72.968 Y120.867 E3.45784
G1 X71.316 Y119.089 E3.48673
G1 X70.327 Y116.873 E3.51561
G1 X70.086 Y115.000 E3.53808
G1 X70.086 Y85.000 E3.89510
G1 X70.484 Y82.606 E3.92399
G1 X71.633 Y80.468 E3.95287
G1 X73.256 Y78.960 E3.97923
G1 X73.422 Y79.144 F9000.000
G1 X73.638 Y78.949 E3.98269 F2400.000
G1 X75.836 Y78.017 E4.01111
G1 X77.500 Y77.822 E4.03105
G1 X107.500 Y77.822 E4.38807
G1 X109.855 Y78.219 E4.41649
G1 X111.949 Y79.367 E4.44491 F2400.000
G1 X113.551 Y81.138 E4.47333
G1 X114.483 Y83.336 E4.50175
G1 X114.678 Y85.000 E4.52168
G1 X114.678 Y115.000 E4.87870
G1 X114.281 Y117.355 E4.90712
G1 X113.133 Y119.449 E4.93554
G1 X111.362 Y121.051 E4.96396
G1 X109.164 Y121.983 E4.99238
G1 X107.500 Y122.178 E5.01231
G1 X77.500 Y122.178 E5.36934
G1 X75.145 Y121.781 E5.39776
G1 X73.051 Y120.633 E5.42618
G1 X71.449 Y118.862 E5.45460
G1 X70.517 Y116.664 E5.48301
G1 X70.322 Y115.000 E5.50295
G1 X70.322 Y85.000 E5.85997
G1 X70.719 Y82.645 E5.88839
G1 X71.867 Y80.551 E5.91681
G1 X73.367 Y79.195 E5.94088
G1 E0.94088 F2400.000
G92 E0
G1 Z0.600 F9000.000
T1
G92 E0
G1 X73.530 Y79.380 F9000.000
G1 Z0.300 F9000.000
G1 X73.864 Y79.086 E0.00530 F2400.000
G1 X76.044 Y78.212 E0.03325
G1 X77.500 Y78.058 E0.05068
G1 X107.500 Y78.058 E0.40770
G1 X109.814 Y78.455 E0.43565
G1 X111.864 Y79.601 E0.46359 F2400.000
G1 X113.414 Y81.364 E0.49154
G1 X114.288 Y83.544 E0.51948
G1 X114.442 Y85.000 E0.53691
G1 X114.442 Y115.000 E0.89393
G1 X114.045 Y117.314 E0.92188
G1 X112.899 Y119.364 E0.94982
G1 X111.136 Y120.914 E0.97777
G1 X108.956 Y121.788 E1.00572
G1 X107.500 Y121.942 E1.02314
G1 X77.500 Y121.942 E1.38017
G1 X75.186 Y121.545 E1.40811
G1 X73.136 Y120.399 E1.43606
G1 X71.586 Y118.636 E1.46400
G1 X70.712 Y116.456 E1.49195
G1 X70.558 Y115.000 E1.50938
G1 X70.558 Y85.000 E1.86640
G1 X70.955 Y82.686 E1.89435
G1 X72.101 Y80.636 E1.92229
G1 X73.484 Y79.420 E1.94422
G1 X73.643 Y79.606 F9000.000
G1 X74.090 Y79.225 E1.95121 F2400.000
G1 X76.249 Y78.411 E1.97867
G1 X77.500 Y78.293 E1.99362
G1 X107.500 Y78.293 E2.35064
G1 X109.773 Y78.690 E2.37811
G1 X111.777 Y79.834 E2.40557 F2400.000
G1 X113.275 Y81.590 E2.43304
G1 X114.089 Y83.749 E2.46050
G1 X114.207 Y85.000 E2.47545
G1 X114.207 Y115.000 E2.83247
G1 X113.810 Y117.273 E2.85994
G1 X112.666 Y119.277 E2.88740
G1 X110.910 Y120.775 E2.91487
G1 X108.751 Y121.589 E2.94233
G1 X107.500 Y121.707 E2.95728
G1 X77.500 Y121.707 E3.31430
G1 X75.227 Y121.310 E3.34177
G1 X73.223 Y120.166 E3.36923
G1 X71.725 Y118.410 E3.39670
G1 X70.911 Y116.251 E3.42416
G1 X70.793 Y115.000 E3.43911
G1 X70.793 Y85.000 E3.79614
G1 X71.190 Y82.727 E3.82360
G1 X72.334 Y80.723 E3.85106
G1 X73.598 Y79.645 E3.87083
G1 E-1.12917 F2400.000
G92 E0
G1 Z0.600 F9000.000
T0
G92 E0
G1 X73.752 Y79.832 F9000.000
G1 Z0.300 F9000.000
G1 E5.00000 F2400.000
G1 X74.315 Y79.367 E5.00868 F2400.000
G1 X77.500 Y78.529 E5.04788
G1 X107.500 Y78.529 E5.40491
G1 X109.731 Y78.926 E5.43188
G1 X111.689 Y80.068 E5.45885 F2400.000
G1 X113.133 Y81.815 E5.48583
G1 X113.971 Y85.000 E5.52502
G1 X113.971 Y115.000 E5.88205
G1 X113.574 Y117.231 E5.90902
G1 X112.432 Y119.189 E5.93599
G1 X110.685 Y120.633 E5.96297
G1 X107.500 Y121.471 E6.00216
G1 X77.500 Y121.471 E6.35919
G1 X75.269 Y121.074 E6.38616
G1 X73.311 Y119.932 E6.41313
G1 X71.867 Y118.185 E6.44011
G1 X71.029 Y115.000 E6.47931
G1 X71.029 Y85.000 E6.83633
G1 X71.426 Y82.769 E6.86330
G1 X72.568 Y80.811 E6.89028
G1 X73.695 Y79.880 E6.90767
G1 X73.844 Y80.067 F9000.000
G1 X74.539 Y79.512 E6.91825 F2400.000
G1 X77.500 Y78.764 E6.95460
G1 X107.500 Y78.764 E7.31162
G1 X109.689 Y79.161 E7.33810
G1 X111.599 Y80.301 E7.36457 F2400.000
G1 X112.988 Y82.039 E7.39104
G1 X113.736 Y85.000 E7.42739
G1 X113.736 Y115.000 E7.78441
G1 X113.339 Y117.189 E7.81089
G1 X112.199 Y119.099 E7.83736
G1 X110.461 Y120.488 E7.86384
G1 X107.500 Y121.236 E7.90018
G1 X77.500 Y121.236 E8.25721
G1 X75.311 Y120.839 E8.28368
G1 X73.401 Y119.699 E8.31015
G1 X72.012 Y117.961 E8.33663
G1 X71.264 Y115.000 E8.37297
G1 X71.264 Y85.000 E8.73000
G1 X71.661 Y82.811 E8.75647
G1 X72.801 Y80.901 E8.78294
G1 X73.786 Y80.114 E8.79795
G1 E3.79795 F2400.000
G92 E0
G1 Z0.600 F9000.000
T1
G92 E0
G1 X77.650 Y85.150 F9000.000
G1 Z0.300 F9000.000
G1 E5.00000 F2400.000
G1 X107.350 Y85.150 E5.35345 F2400.000
G1 X107.350 Y114.850 E5.70691
G1 X77.650 Y114.850 E6.06036 F2400.000
G1 X77.650 Y85.210 E6.41310
G1 E4.41310 F2400.000
G92 E0
G1 Z0.600 F9000.000
G1 X107.550 Y114.504 F9000.000
G1 X77.886 Y85.386 F9000.000
G1 Z0.300 F9000.000
G1 E2.00000 F2400.000
G1 X107.114 Y85.386 E2.34785 F2400.000
G1 X107.114 Y114.614 E2.69569
G1 X77.946 Y114.614 E3.04283
G1 X78.121 Y114.379 F9000.000
G1 X78.121 Y85.621 E3.38506 F2400.000
G1 X106.879 Y85.621 E3.72730
G1 X106.879 Y114.379 E4.06954
G1 X78.181 Y114.379 E4.41106 F2400.000
G1 E2.41106 F2400.000
G92 E0
G1 Z0.600 F9000.000
G1 X81.500 Y89.000 F9000.000
G1 X85.313 Y85.857 F9000.000
G1 Z0.300 F9000.000
G1 E2.00000 F2400.000
G1 X106.643 Y85.857 E2.25385 F2400.000
G1 X106.643 Y114.143 E2.59048
G1 X78.357 Y114.143 E2.92711
G1 X78.357 Y85.857 E3.26374
G1 X85.253 Y85.857 E3.34581 F2400.000
G1 E1.34581 F2400.000
G92 E0
G1 Z0.600 F9000.000
G1 X85.253 Y89.850 F9000.000
G1 Z0.300 F9000.000
G1 E2.00000 F2400.000
G1 X102.650 Y89.850 E2.20704 F2400.000
G1 X102.650 Y110.150 E2.44863
G1 X82.350 Y110.150 E2.69021
G1 X82.350 Y89.850 E2.93180
G1 X85.193 Y89.850 E2.96563 F2400.000
G1 E0.96563 F2400.000
G92 E0
G1 Z0.600 F9000.000
G1 X82.350 Y89.450 F9000.000
G1 X85.193 Y89.614 F9000.000
G1 Z0.300 F9000.000
G1 E2.00000 F2400.000
G1 X102.886 Y89.614 E2.21056 F2400.000
G1 X102.886 Y110.386 E2.45775
G1 X82.114 Y110.386 E2.70495 F2400.000
G1 X82.114 Y89.614 E2.95214
G1 X85.133 Y89.614 E2.98807
G1 X85.133 Y89.379 F9000.000
G1 X103.121 Y89.379 E3.20214 F2400.000
G1 X103.121 Y110.621 E3.45494
G1 X81.879 Y110.621 E3.70775
G1 X81.879 Y89.379 E3.96055
G1 X85.073 Y89.379 E3.99856 F2400.000
G1 X85.073 Y89.143 F9000.000
G1 X103.357 Y89.143 E4.21616 F2400.000
G1 X103.357 Y110.857 E4.47457
G1 X81.643 Y110.857 E4.73298 F2400.000
G1 X81.643 Y89.143 E4.99139
G1 X85.013 Y89.143 E5.03149
G1 E3.03149 F2400.000
G92 E0
G1 Z0.600 F9000.000
G1 X78.581 Y86.081 F9000.000
G1 Z0.300 F9000.000
G1 E2.00000 F2400.000
G1 X106.419 Y86.081 E2.33130 F2400.000
G1 X106.419 Y113.919 E2.66261
G1 X78.581 Y113.919 E2.99391
G1 X78.581 Y86.141 E3.32450
G1 X78.817 Y86.317 F9000.000
G1 X106.183 Y86.317 E3.65016 F2400.000
G1 X106.183 Y113.683 E3.97583
G1 X78.817 Y113.683 E4.30150
G1 X78.817 Y86.377 E4.62645
G1 X79.054 Y86.554 F9000.000
G1 X105.946 Y86.554 E4.94648 F2400.000
G1 X105.946 Y113.446 E5.26651
G1 X79.054 Y113.446 E5.58654
G1 X79.054 Y86.614 E5.90585
G1 X79.291 Y86.791 F9000.000
G1 X105.709 Y86.791 E6.22025 F2400.000
G1 X105.709 Y113.209 E6.53464
G1 X79.291 Y113.209 E6.84903
G1 X79.291 Y86.851 E7.16271
G1 X79.528 Y87.028 F9000.000
G1 X105.472 Y87.028 E7.47147 F2400.000
G1 X105.472 Y112.972 E7.78022
G1 X79.528 Y112.972 E8.08898
G1 X79.528 Y87.088 E8.39702
G1 X79.765 Y87.265 F9000.000
G1 X105.235 Y87.265 E8.70014 F2400.000
G1 X105.235 Y112.735 E9.00326
G1 X79.765 Y112.735 E9.30638
G1 X79.765 Y87.325 E9.60878
G1 X80.235 Y87.735 F9000.000
G1 X104.765 Y87.735 E9.90071 F2400.000
G1 X104.765 Y112.265 E10.19263
G1 X80.235 Y112.265 E10.48455
G1 X80.235 Y87.795 E10.77576
G1 X80.472 Y87.972 F9000.000
G1 X104.528 Y87.972 E11.06204 F2400.000
G1 X104.528 Y112.028 E11.34833
G1 X80.472 Y112.028 E11.63461
G1 X80.472 Y88.032 E11.92018
G1 X80.709 Y88.209 F9000.000
G1 X104.291 Y88.209 E12.20083 F2400.000
G1 X104.291 Y111.791 E12.48148
G1 X80.709 Y111.791 E12.76213
G1 X80.709 Y88.269 E13.04206
G1 X80.946 Y88.446 F9000.000
G1 X104.054 Y88.446 E13.31708 F2400.000
G1 X104.054 Y111.554 E13.59209
G1 X80.946 Y111.554 E13.86710
G1 X80.946 Y88.506 E14.14140
G1 X81.183 Y88.683 F9000.000
G1 X103.817 Y88.683 E14.41077 F2400.000
G1 X103.817 Y111.317 E14.68015
G1 X81.183 Y111.317 E14.94952
G1 X81.183 Y88.743 E15.21818
G1 X81.419 Y88.919 F9000.000
G1 X103.581 Y88.919 E15.48192 F2400.000
G1 X103.581 Y111.081 E15.74566
G1 X81.419 Y111.081 E16.00940
G1 X81.419 Y88.979 E16.27242
G1 E14.27242 F2400.000
G92 E0
G1 Z0.600 F9000.000
G1 Z0.900 F9000.000
G1 X77.700 Y88.979 F9000.000
G1 Z0.600 F9000.000
G1 E2.00000 F2400.000
G1 X77.700 Y85.200 E2.06407 F2400.000
G1 X107.300 Y85.200 E2.56584
G1 X107.300 Y114.800 E3.06761
G1 X77.700 Y114.800 E3.56938 F2400.000
G1 X77.700 Y89.039 E4.00606
G1 E2.00606 F2400.000
G92 E0
G1 Z0.900 F9000.000
G1 X78.500 Y86.000 F9000.000
G1 X78.500 Y114.000 F9000.000
G1 X106.500 Y114.000 F9000.000
G1 X107.500 Y114.454 F9000.000
G1 X78.077 Y89.039 F9000.000
G1 Z0.600 F9000.000
G1 E2.00000 F2400.000
G1 X78.077 Y85.577 E2.07325 F2400.000
G1 X106.923 Y85.577 E2.68353 F2400.000
G1 X106.923 Y114.423 E3.29382
G1 X78.077 Y114.423 E3.90410
G1 X78.077 Y89.099 E4.43987
G1 X78.496 Y89.099 F9000.000
G1 X78.496 Y85.996 E4.50553 F2400.000
G1 X106.504 Y85.996 E5.09809
G1 X106.504 Y114.004 E5.69065
G1 X78.496 Y114.004 E6.28321 F2400.000
G1 X78.496 Y89.159 E6.80884
G1 E4.80884 F2400.000
G92 E0
G1 Z0.900 F9000.000
G1 X91.065 Y86.415 F9000.000
G1 Z0.600 F9000.000
G1 E2.00000 F2400.000
G1 X106.085 Y86.415 E2.31778 F2400.000
G1 X106.085 Y113.585 E2.89262
G1 X78.915 Y113.585 E3.46746
G1 X78.915 Y86.415 E4.04229
G1 X91.005 Y86.415 E4.29807 F2400.000
G1 E2.29807 F2400.000
G92 E0
G1 Z0.900 F9000.000
G1 X91.005 Y89.800 F9000.000
G1 Z0.600 F9000.000
G1 E2.00000 F2400.000
G1 X102.700 Y89.800 E2.19825 F2400.000
G1 X102.700 Y110.200 E2.54407
G1 X82.300 Y110.200 E2.88988
G1 X82.300 Y89.800 E3.23570
G1 X90.945 Y89.800 E3.38224 F2400.000
G1 E1.38224 F2400.000
G92 E0
G1 Z0.900 F9000.000
G1 X82.300 Y89.400 F9000.000
G1 X90.945 Y89.423 F9000.000
G1 Z0.600 F9000.000
G1 E2.00000 F2400.000
G1 X103.077 Y89.423 E2.25669 F2400.000
G1 X103.077 Y110.577 E2.70425
G1 X81.923 Y110.577 E3.15182 F2400.000
G1 X81.923 Y89.423 E3.59939
G1 X90.885 Y89.423 E3.78900
G1 X90.885 Y89.004 F9000.000
G1 X103.496 Y89.004 E4.05581 F2400.000
G1 X103.496 Y110.996 E4.52111
G1 X81.504 Y110.996 E4.98640
G1 X81.504 Y89.004 E5.45169
G1 X90.825 Y89.004 E5.64889 F2400.000
G1 X90.825 Y88.585 F9000.000
G1 X103.915 Y88.585 E5.92584 F2400.000
G1 X103.915 Y111.415 E6.40885
G1 X81.085 Y111.415 E6.89187 F2400.000
G1 X81.085 Y88.585 E7.37489
G1 X90.765 Y88.585 E7.57968
G1 E5.57968 F2400.000
G92 E0
G1 Z0.900 F9000.000
G1 X81.814 Y88.301 F9000.000
G1 Z0.600 F9000.000
G1 E2.00000 F2400.000
G1 X83.417 Y86.699 E2.04795 F2400.000
G1 X84.014 Y86.699 E2.06058
G1 X82.411 Y88.301 E2.10853
G1 X83.008 Y88.301 E2.12116
G1 X84.611 Y86.699 E2.16911
G1 X85.208 Y86.699 E2.18174
G1 X83.605 Y88.301 E2.22970
G1 X84.202 Y88.301 E2.24232
G1 X85.805 Y86.699 E2.29028
G1 X86.402 Y86.699 E2.30291
G1 X84.799 Y88.301 E2.35086
G1 X85.396 Y88.301 E2.36349
G1 X86.999 Y86.699 E2.41144
G1 X87.595 Y86.699 E2.42407
G1 X85.993 Y88.301 E2.47202
G1 X86.590 Y88.301 E2.48465
G1 X88.192 Y86.699 E2.53260
G1 X88.789 Y86.699 E2.54523
G1 X87.187 Y88.301 E2.59318
G1 X87.784 Y88.301 E2.60581
G1 X89.386 Y86.699 E2.65376
G1 X89.983 Y86.699 E2.66639
G1 X88.380 Y88.301 E2.71434
G1 X88.977 Y88.301 E2.72697
G1 X90.580 Y86.699 E2.77493
G1 X91.177 Y86.699 E2.78755
G1 X89.574 Y88.301 E2.83551
G1 X90.171 Y88.301 E2.84814
G1 X91.774 Y86.699 E2.89609
G1 X92.371 Y86.699 E2.90872
G1 X90.768 Y88.301 E2.95667
G1 X91.365 Y88.301 E2.96930
G1 X92.968 Y86.699 E3.01725
G1 X93.565 Y86.699 E3.02988
G1 X91.962 Y88.301 E3.07783
G1 X92.559 Y88.301 E3.09046
G1 X94.162 Y86.699 E3.13841
G1 X94.758 Y86.699 E3.15104
G1 X93.156 Y88.301 E3.19899
G1 X93.753 Y88.301 E3.21162
G1 X95.355 Y86.699 E3.25957
G1 X95.952 Y86.699 E3.27220
G1 X94.350 Y88.301 E3.32016
G1 X94.947 Y88.301 E3.33278
G1 X96.549 Y86.699 E3.38074
G1 X97.146 Y86.699 E3.39337
G1 X95.543 Y88.301 E3.44132
G1 X96.140 Y88.301 E3.45395
G1 X97.743 Y86.699 E3.50190
G1 X98.340 Y86.699 E3.51453
G1 X96.737 Y88.301 E3.56248
G1 X97.334 Y88.301 E3.57511
G1 X98.937 Y86.699 E3.62306
G1 X99.534 Y86.699 E3.63569
G1 X97.931 Y88.301 E3.68364
G1 X98.528 Y88.301 E3.69627
G1 X100.131 Y86.699 E3.74422
G1 X100.728 Y86.699 E3.75685
G1 X99.125 Y88.301 E3.80480
G1 X99.722 Y88.301 E3.81743
G1 X101.324 Y86.699 E3.86539
G1 X101.921 Y86.699 E3.87801
G1 X100.319 Y88.301 E3.92597
G1 X100.916 Y88.301 E3.93860
G1 X102.518 Y86.699 E3.98655
G1 X103.115 Y86.699 E3.99918
G1 X101.513 Y88.301 E4.04713
G1 X102.109 Y88.301 E4.05976
G1 X103.712 Y86.699 E4.10771
G1 X104.309 Y86.699 E4.12034
G1 X102.706 Y88.301 E4.16829
G1 X103.303 Y88.301 E4.18092
G1 X104.906 Y86.699 E4.22887
G1 X105.503 Y86.699 E4.24150
G1 X103.900 Y88.301 E4.28945
G1 X104.199 Y88.600 E4.29838
G1 X105.801 Y86.997 E4.34634
G1 X105.801 Y87.594 E4.35896
G1 X104.199 Y89.197 E4.40692
G1 X104.199 Y89.794 E4.41955
G1 X105.801 Y88.191 E4.46750
G1 X105.801 Y88.788 E4.48013
G1 X104.199 Y90.391 E4.52808
G1 X104.199 Y90.987 E4.54071
G1 X105.801 Y89.385 E4.58866
G1 X105.801 Y89.982 E4.60129
G1 X104.199 Y91.584 E4.64924
G1 X104.199 Y92.181 E4.66187
G1 X105.801 Y90.579 E4.70982
G1 X105.801 Y91.176 E4.72245
G1 X104.199 Y92.778 E4.77040
G1 X104.199 Y93.375 E4.78303
G1 X105.801 Y91.772 E4.83098
G1 X105.801 Y92.369 E4.84361
G1 X104.199 Y93.972 E4.89157
G1 X104.199 Y94.569 E4.90419
G1 X105.801 Y92.966 E4.95215
G1 X105.801 Y93.563 E4.96478
G1 X104.199 Y95.166 E5.01273
G1 X104.199 Y95.763 E5.02536
G1 X105.801 Y94.160 E5.07331
G1 X105.801 Y94.757 E5.08594
G1 X104.199 Y96.360 E5.13389
G1 X104.199 Y96.957 E5.14652
G1 X105.801 Y95.354 E5.19447
G1 X105.801 Y95.951 E5.20710
G1 X104.199 Y97.553 E5.25505
G1 X104.199 Y98.150 E5.26768
G1 X105.801 Y96.548 E5.31563
G1 X105.801 Y97.145 E5.32826
G1 X104.199 Y98.747 E5.37621
G1 X104.199 Y99.344 E5.38884
G1 X105.801 Y97.742 E5.43680
G1 X105.801 Y98.338 E5.44942
G1 X104.199 Y99.941 E5.49738
G1 X104.199 Y100.538 E5.51001
G1 X105.801 Y98.935 E5.55796
G1 X105.801 Y99.532 E5.57059
G1 X104.199 Y101.135 E5.61854
G1 X104.199 Y101.732 E5.63117
G1 X105.801 Y100.129 E5.67912
G1 X105.801 Y100.726 E5.69175
G1 X104.199 Y102.329 E5.73970
G1 X104.199 Y102.926 E5.75233
G1 X105.801 Y101.323 E5.80028
G1 X105.801 Y101.920 E5.81291
G1 X104.199 Y103.523 E5.86086
G1 X104.199 Y104.120 E5.87349
G1 X105.801 Y102.517 E5.92144
G1 X105.801 Y103.114 E5.93407
G1 X104.199 Y104.716 E5.98203
G1 X104.199 Y105.313 E5.99465
G1 X105.801 Y103.711 E6.04261
G1 X105.801 Y104.308 E6.05524
G1 X104.199 Y105.910 E6.10319
G1 X104.199 Y106.507 E6.11582
G1 X105.801 Y104.905 E6.16377
G1 X105.801 Y105.501 E6.17640
G1 X104.199 Y107.104 E6.22435
G1 X104.199 Y107.701 E6.23698
G1 X105.801 Y106.098 E6.28493
G1 X105.801 Y106.695 E6.29756
G1 X104.199 Y108.298 E6.34551
G1 X104.199 Y108.895 E6.35814
G1 X105.801 Y107.292 E6.40609
G1 X105.801 Y107.889 E6.41872
G1 X104.199 Y109.492 E6.46667
G1 X104.199 Y110.089 E6.47930
G1 X105.801 Y108.486 E6.52726
G1 X105.801 Y109.083 E6.53988
G1 X104.199 Y110.686 E6.58784
G1 X104.199 Y111.282 F9000.000
G1 X105.801 Y109.680 E6.63579 F2400.000
G1 X105.801 Y110.277 E6.64842
G1 X102.777 Y113.301 E6.73891
G1 X103.374 Y113.301 E6.75154
