; generated by Slic3r 1.2.1-dev on 2014-11-08 at 13:21:03

; external perimeters extrusion width = 0.40mm
; perimeters extrusion width = 0.67mm
; infill extrusion width = 0.67mm
; solid infill extrusion width = 0.67mm
; top infill extrusion width = 0.67mm

M190 S70 ; wait for bed temperature to be reached
M104 S260 T1 ; set temperature
G28 ; home all axes
M109 S260 T1 ; wait for temperature to be reached
G21 ; set units to millimeters
G90 ; use absolute coordinates
M82 ; use absolute distances for extrusion
G92 E0
T0
G92 E0
G1 E-2.00000 F2400.000
G92 E0
G1 Z0.300 F9000.000
G1 Z0.600 F9000.000
G1 X24.328 Y18.492 F9000.000
G1 Z0.300 F9000.000
G1 E2.00000 F2400.000
G1 X26.106 Y16.840 E2.02888 F1200.000
G1 X28.322 Y15.851 E2.05777
G1 X30.195 Y15.610 E2.08024
G1 X60.195 Y15.610 E2.43726
G1 X62.589 Y16.008 E2.46615
G1 X64.727 Y17.157 E2.49503 F1200.000
G1 X66.379 Y18.935 E2.52392
G1 X67.368 Y21.151 E2.55280
G1 X67.608 Y23.024 E2.57527
G1 X67.608 Y53.024 E2.93229
G1 X67.211 Y55.418 E2.96118
G1 X66.062 Y57.556 E2.99006
G1 X64.284 Y59.208 E3.01895
G1 X62.067 Y60.197 E3.04783
G1 X60.195 Y60.438 E3.07030
G1 X30.195 Y60.438 E3.42733
G1 X27.800 Y60.040 E3.45621
G1 X25.662 Y58.891 E3.48510
G1 X24.010 Y57.113 E3.51398
G1 X23.021 Y54.896 E3.54286
G1 X22.781 Y53.024 E3.56533
G1 X22.781 Y23.024 E3.92236
G1 X23.178 Y20.630 E3.95124
G1 X24.292 Y18.558 E3.97923
G1 X24.506 Y18.675 F9000.000
G1 X24.561 Y18.575 E3.98059 F1200.000
G1 X26.333 Y16.973 E4.00901
G1 X28.531 Y16.041 E4.03743
G1 X30.195 Y15.846 E4.05737
G1 X60.195 Y15.846 E4.41439
G1 X62.549 Y16.243 E4.44281
G1 X64.643 Y17.391 E4.47123 F1200.000
G1 X66.245 Y19.162 E4.49965
G1 X67.177 Y21.360 E4.52807
G1 X67.373 Y23.024 E4.54800
G1 X67.373 Y53.024 E4.90503
G1 X66.975 Y55.379 E4.93344
G1 X65.828 Y57.473 E4.96186
G1 X64.057 Y59.075 E4.99028
G1 X61.858 Y60.007 E5.01870
G1 X60.195 Y60.202 E5.03863
G1 X30.195 Y60.202 E5.39566
G1 X27.840 Y59.805 E5.42408
G1 X25.746 Y58.657 E5.45250
G1 X24.144 Y56.886 E5.48092
G1 X23.212 Y54.687 E5.50934
G1 X23.017 Y53.024 E5.52927
G1 X23.017 Y23.024 E5.88629
G1 X23.414 Y20.669 E5.91471
G1 X24.470 Y18.741 E5.94088
G1 E0.94088 F2400.000
G92 E0
G1 Z0.600 F9000.000
T1
G92 E0
G1 X24.683 Y18.860 F9000.000
G1 Z0.300 F9000.000
G1 X24.795 Y18.660 E0.00273 F1200.000
G1 X26.559 Y17.110 E0.03067
G1 X28.738 Y16.236 E0.05862
G1 X30.195 Y16.081 E0.07605
G1 X60.195 Y16.081 E0.43307
G1 X62.509 Y16.479 E0.46102
G1 X64.559 Y17.625 E0.48896 F1200.000
G1 X66.109 Y19.388 E0.51691
G1 X66.983 Y21.568 E0.54485
G1 X67.137 Y23.024 E0.56228
G1 X67.137 Y53.024 E0.91931
G1 X66.740 Y55.338 E0.94725
G1 X65.594 Y57.388 E0.97520
G1 X63.830 Y58.938 E1.00314
G1 X61.651 Y59.812 E1.03109
G1 X60.195 Y59.966 E1.04851
G1 X30.195 Y59.966 E1.40554
G1 X27.880 Y59.569 E1.43348
G1 X25.831 Y58.423 E1.46143
G1 X24.280 Y56.660 E1.48938
G1 X23.407 Y54.480 E1.51732
G1 X23.252 Y53.024 E1.53475
G1 X23.252 Y23.024 E1.89177
G1 X23.649 Y20.710 E1.91972
G1 X24.654 Y18.913 E1.94422
G1 X24.865 Y19.033 F9000.000
G1 X25.029 Y18.747 E1.94815 F1200.000
G1 X26.784 Y17.249 E1.97561
G1 X28.944 Y16.435 E2.00308
G1 X30.195 Y16.317 E2.01803
G1 X60.195 Y16.317 E2.37505
G1 X62.468 Y16.714 E2.40251
G1 X64.472 Y17.858 E2.42998 F1200.000
G1 X65.970 Y19.614 E2.45744
G1 X66.784 Y21.773 E2.48491
G1 X66.901 Y23.024 E2.49986
G1 X66.901 Y53.024 E2.85688
G1 X66.504 Y55.297 E2.88434
G1 X65.360 Y57.301 E2.91181
G1 X63.605 Y58.799 E2.93927
G1 X61.445 Y59.613 E2.96674
G1 X60.195 Y59.731 E2.98169
G1 X30.195 Y59.731 E3.33871
G1 X27.921 Y59.334 E3.36617
G1 X25.917 Y58.190 E3.39364
G1 X24.419 Y56.434 E3.42110
G1 X23.605 Y54.275 E3.44857
G1 X23.488 Y53.024 E3.46352
G1 X23.488 Y23.024 E3.82054
G1 X23.885 Y20.751 E3.84800
G1 X24.835 Y19.085 E3.87083
G1 E-1.12917 F2400.000
G92 E0
G1 Z0.600 F9000.000
T0
G92 E0
G1 X25.045 Y19.207 F9000.000
G1 Z0.300 F9000.000
G1 E5.00000 F2400.000
G1 X25.262 Y18.835 E5.00513 F1200.000
G1 X27.009 Y17.391 E5.03211
G1 X30.195 Y16.553 E5.07130
G1 X60.195 Y16.553 E5.42833
G1 X62.426 Y16.950 E5.45530
G1 X64.384 Y18.092 E5.48228 F1200.000
G1 X65.828 Y19.839 E5.50925
G1 X66.666 Y23.024 E5.54845
G1 X66.666 Y53.024 E5.90547
G1 X66.269 Y55.255 E5.93244
G1 X65.127 Y57.213 E5.95942
G1 X63.380 Y58.657 E5.98639
G1 X60.195 Y59.495 E6.02559
G1 X30.195 Y59.495 E6.38261
G1 X27.963 Y59.098 E6.40959
G1 X26.005 Y57.956 E6.43656
G1 X24.562 Y56.209 E6.46353
G1 X23.723 Y53.024 E6.50273
G1 X23.723 Y23.024 E6.85975
G1 X24.120 Y20.792 E6.88673
G1 X25.007 Y19.272 E6.90767
G1 X25.215 Y19.396 F9000.000
G1 X25.496 Y18.925 E6.91420 F1200.000
G1 X27.234 Y17.536 E6.94068
G1 X30.195 Y16.788 E6.97702
G1 X60.195 Y16.788 E7.33405
G1 X62.383 Y17.185 E7.36052
G1 X64.294 Y18.325 E7.38699 F1200.000
G1 X65.682 Y20.063 E7.41347
G1 X66.430 Y23.024 E7.44981
G1 X66.430 Y53.024 E7.80684
G1 X66.033 Y55.213 E7.83331
G1 X64.894 Y57.123 E7.85978
G1 X63.156 Y58.512 E7.88626
G1 X60.195 Y59.260 E7.92260
G1 X30.195 Y59.260 E8.27963
G1 X28.006 Y58.863 E8.30610
G1 X26.095 Y57.723 E8.33258
G1 X24.707 Y55.985 E8.35905
G1 X23.959 Y53.024 E8.39540
G1 X23.959 Y23.024 E8.75242
G1 X24.356 Y20.835 E8.77889
G1 X25.176 Y19.460 E8.79795
G1 E3.79795 F2400.000
G92 E0
G1 Z0.600 F9000.000
T1
G92 E0
G1 X30.345 Y23.174 F9000.000
G1 Z0.300 F9000.000
G1 E5.00000 F2400.000
G1 X60.045 Y23.174 E5.35345 F1200.000
G1 X60.045 Y52.874 E5.70691
G1 X30.345 Y52.874 E6.06036 F1200.000
G1 X30.345 Y23.234 E6.41310
G1 E4.41310 F2400.000
G92 E0
G1 Z0.600 F9000.000
G1 X60.245 Y52.528 F9000.000
G1 X30.580 Y23.410 F9000.000
G1 Z0.300 F9000.000
G1 E2.00000 F2400.000
G1 X59.809 Y23.410 E2.34785 F1200.000
G1 X59.809 Y52.638 E2.69569
G1 X30.640 Y52.638 E3.04283
G1 X30.816 Y52.403 F9000.000
G1 X30.816 Y23.645 E3.38506 F1200.000
G1 X59.573 Y23.645 E3.72730
G1 X59.573 Y52.403 E4.06954
G1 X30.876 Y52.403 E4.41106 F1200.000
G1 E2.41106 F2400.000
G92 E0
G1 Z0.600 F9000.000
G1 X54.055 Y23.881 F9000.000
G1 Z0.300 F9000.000
G1 E2.00000 F2400.000
G1 X59.338 Y23.881 E2.06286 F1200.000
G1 X59.338 Y52.167 E2.39950
G1 X31.051 Y52.167 E2.73613
G1 X31.051 Y23.881 E3.07276
G1 X53.995 Y23.881 E3.34581 F1200.000
G1 E1.34581 F2400.000
G92 E0
G1 Z0.600 F9000.000
G1 X31.275 Y24.105 F9000.000
G1 Z0.300 F9000.000
G1 E2.00000 F2400.000
G1 X59.114 Y24.105 E2.33130 F1200.000
G1 X59.114 Y51.943 E2.66261
G1 X31.275 Y51.943 E2.99391
G1 X31.275 Y24.165 E3.32450
G1 X31.512 Y24.341 F9000.000
G1 X58.877 Y24.341 E3.65016 F1200.000
G1 X58.877 Y51.706 E3.97583
G1 X31.512 Y51.706 E4.30150
G1 X31.512 Y24.401 E4.62645
G1 X31.749 Y24.578 F9000.000
G1 X58.640 Y24.578 E4.94648 F1200.000
G1 X58.640 Y51.470 E5.26651
G1 X31.749 Y51.470 E5.58654
G1 X31.749 Y24.638 E5.90585
G1 X31.986 Y24.815 F9000.000
G1 X58.403 Y24.815 E6.22025 F1200.000
G1 X58.403 Y51.233 E6.53464
G1 X31.986 Y51.233 E6.84903
G1 X31.986 Y24.875 E7.16271
G1 X32.223 Y25.052 F9000.000
G1 X58.167 Y25.052 E7.47147 F1200.000
G1 X58.167 Y50.996 E7.78022
G1 X32.223 Y50.996 E8.08898
G1 X32.223 Y25.112 E8.39702
G1 X32.459 Y25.289 F9000.000
G1 X57.930 Y25.289 E8.70014 F1200.000
G1 X57.930 Y50.759 E9.00326
G1 X32.459 Y50.759 E9.30638
G1 X32.459 Y25.349 E9.60878
G1 X32.696 Y25.526 F9000.000
G1 X57.693 Y25.526 E9.90627 F1200.000
G1 X57.693 Y50.522 E10.20375
G1 X32.696 Y50.522 E10.50123
G1 X32.696 Y25.586 E10.79800
G1 X32.933 Y25.762 F9000.000
G1 X57.456 Y25.762 E11.08985 F1200.000
G1 X57.456 Y50.286 E11.38169
G1 X32.933 Y50.286 E11.67354
G1 X32.933 Y25.822 E11.96467
G1 X33.170 Y25.999 F9000.000
G1 X57.219 Y25.999 E12.25088 F1200.000
G1 X57.219 Y50.049 E12.53709
G1 X33.170 Y50.049 E12.82330
G1 X33.170 Y26.059 E13.10880
G1 X33.407 Y26.236 F9000.000
G1 X56.983 Y26.236 E13.38937 F1200.000
G1 X56.983 Y49.812 E13.66994
G1 X33.407 Y49.812 E13.95051
G1 X33.407 Y26.296 E14.23037
G1 X33.643 Y26.473 F9000.000
G1 X56.746 Y26.473 E14.50531 F1200.000
G1 X56.746 Y49.575 E14.78024
G1 X33.643 Y49.575 E15.05518
G1 X33.643 Y26.533 E15.32940
G1 X33.880 Y26.710 F9000.000
G1 X56.509 Y26.710 E15.59870 F1200.000
G1 X56.509 Y49.338 E15.86800
G1 X33.880 Y49.338 E16.13730
G1 X33.880 Y26.770 E16.40589
G1 X34.117 Y26.946 F9000.000
G1 X56.272 Y26.946 E16.66955 F1200.000
G1 X56.272 Y49.101 E16.93321
G1 X34.117 Y49.101 E17.19687
G1 X34.117 Y27.006 E17.45982
G1 X34.354 Y27.183 F9000.000
G1 X56.035 Y27.183 E17.71785 F1200.000
G1 X56.035 Y48.865 E17.97587
G1 X34.354 Y48.865 E18.23390
G1 X34.354 Y27.243 E18.49121
G1 X34.591 Y27.420 F9000.000
G1 X55.798 Y27.420 E18.74360 F1200.000
G1 X55.798 Y48.628 E18.99599
G1 X34.591 Y48.628 E19.24838
G1 X34.591 Y27.480 E19.50005
G1 X34.828 Y27.657 F9000.000
G1 X55.562 Y27.657 E19.74681 F1200.000
G1 X55.562 Y48.391 E19.99356
G1 X34.828 Y48.391 E20.24031
G1 X34.828 Y27.717 E20.48635
G1 X35.064 Y27.894 F9000.000
G1 X55.325 Y27.894 E20.72747 F1200.000
G1 X55.325 Y48.154 E20.96858
G1 X35.064 Y48.154 E21.20970
G1 X35.064 Y27.954 E21.45010
G1 X35.301 Y28.131 F9000.000
G1 X55.088 Y28.131 E21.68558 F1200.000
G1 X55.088 Y47.917 E21.92106
G1 X35.301 Y47.917 E22.15654
G1 X35.301 Y28.191 E22.39130
G1 X35.538 Y28.367 F9000.000
G1 X54.851 Y28.367 E22.62114 F1200.000
G1 X54.851 Y47.681 E22.85099
G1 X35.538 Y47.681 E23.08083
G1 X35.538 Y28.427 E23.30996
G1 X35.775 Y28.604 F9000.000
G1 X54.614 Y28.604 E23.53416 F1200.000
G1 X54.614 Y47.444 E23.75837
G1 X35.775 Y47.444 E23.98257
G1 X35.775 Y28.664 E24.20607
G1 X36.012 Y28.841 F9000.000
G1 X54.378 Y28.841 E24.42464 F1200.000
G1 X54.378 Y47.207 E24.64320
G1 X36.012 Y47.207 E24.86177
G1 X36.012 Y28.901 E25.07963
G1 X36.248 Y29.078 F9000.000
G1 X54.141 Y29.078 E25.29256 F1200.000
G1 X54.141 Y46.970 E25.50549
G1 X36.248 Y46.970 E25.71843
G1 X36.248 Y29.138 E25.93064
G1 X36.485 Y29.315 F9000.000
G1 X53.904 Y29.315 E26.13794 F1200.000
G1 X53.904 Y46.733 E26.34524
G1 X36.485 Y46.733 E26.55253
G1 X36.485 Y29.375 E26.75911
G1 X36.722 Y29.551 F9000.000
G1 X53.667 Y29.551 E26.96077 F1200.000
G1 X53.667 Y46.496 E27.16243
G1 X36.722 Y46.496 E27.36409
G1 X36.722 Y29.611 E27.56503
G1 X36.959 Y29.788 F9000.000
G1 X53.430 Y29.788 E27.76106 F1200.000
G1 X53.430 Y46.260 E27.95708
G1 X36.959 Y46.260 E28.15310
G1 X36.959 Y29.848 E28.34841
G1 X37.196 Y30.025 F9000.000
G1 X53.193 Y30.025 E28.53879 F1200.000
G1 X53.193 Y46.023 E28.72918
G1 X37.196 Y46.023 E28.91957
G1 X37.196 Y30.085 E29.10924
G1 X37.433 Y30.262 F9000.000
G1 X52.957 Y30.262 E29.29399 F1200.000
G1 X52.957 Y45.786 E29.47874
G1 X37.433 Y45.786 E29.66348
G1 X37.433 Y30.322 E29.84752
G1 X37.669 Y30.499 F9000.000
G1 X52.720 Y30.499 E30.02663 F1200.000
G1 X52.720 Y45.549 E30.20574
G1 X37.669 Y45.549 E30.38486
G1 X37.669 Y30.559 E30.56325
G1 X37.906 Y30.736 F9000.000
G1 X52.483 Y30.736 E30.73673 F1200.000
G1 X52.483 Y45.312 E30.91020
G1 X37.906 Y45.312 E31.08368
G1 X37.906 Y30.796 E31.25644
G1 X38.143 Y30.972 F9000.000
G1 X52.246 Y30.972 E31.42428 F1200.000
G1 X52.246 Y45.075 E31.59212
G1 X38.143 Y45.075 E31.75996
G1 X38.143 Y31.032 E31.92708
G1 X38.380 Y31.209 F9000.000
G1 X52.009 Y31.209 E32.08928 F1200.000
G1 X52.009 Y44.839 E32.25149
G1 X38.380 Y44.839 E32.41369
G1 X38.380 Y31.269 E32.57518
G1 X38.617 Y31.446 F9000.000
G1 X51.773 Y31.446 E32.73174 F1200.000
G1 X51.773 Y44.602 E32.88831
G1 X38.617 Y44.602 E33.04487
G1 X38.617 Y31.506 E33.20072
G1 X38.853 Y31.683 F9000.000
G1 X51.536 Y31.683 E33.35165 F1200.000
G1 X51.536 Y44.365 E33.50258
G1 X38.853 Y44.365 E33.65351
G1 X38.853 Y31.743 E33.80373
G1 X39.090 Y31.920 F9000.000
G1 X51.299 Y31.920 E33.94902 F1200.000
G1 X51.299 Y44.128 E34.09431
G1 X39.090 Y44.128 E34.23960
G1 X39.090 Y31.980 E34.38418
G1 X39.327 Y32.156 F9000.000
G1 X51.062 Y32.156 E34.52383 F1200.000
G1 X51.062 Y43.891 E34.66349
G1 X39.327 Y43.891 E34.80314
G1 X39.327 Y32.216 E34.94209
G1 X39.564 Y32.393 F9000.000
G1 X50.825 Y32.393 E35.07610 F1200.000
G1 X50.825 Y43.655 E35.21012
G1 X39.564 Y43.655 E35.34414
G1 X39.564 Y32.453 E35.47745
G1 X39.801 Y32.630 F9000.000
G1 X50.588 Y32.630 E35.60583 F1200.000
G1 X50.588 Y43.418 E35.73421
G1 X39.801 Y43.418 E35.86259
G1 X39.801 Y32.690 E35.99026
G1 X40.038 Y32.867 F9000.000
G1 X50.352 Y32.867 E36.11301 F1200.000
G1 X50.352 Y43.181 E36.23575
G1 X40.038 Y43.181 E36.35850
G1 X40.038 Y32.927 E36.48053
G1 X40.274 Y33.104 F9000.000
G1 X50.115 Y33.104 E36.59764 F1200.000
G1 X50.115 Y42.944 E36.71474
G1 X40.274 Y42.944 E36.83185
G1 X40.274 Y33.164 E36.94825
G1 X40.511 Y33.341 F9000.000
G1 X49.878 Y33.341 E37.05972 F1200.000
G1 X49.878 Y42.707 E37.17119
G1 X40.511 Y42.707 E37.28266
G1 X40.511 Y33.401 E37.39342
G1 X40.748 Y33.577 F9000.000
G1 X49.641 Y33.577 E37.49926 F1200.000
G1 X49.641 Y42.470 E37.60509
G1 X40.748 Y42.470 E37.71093
G1 X40.748 Y33.637 E37.81605
G1 X40.985 Y33.814 F9000.000
G1 X49.404 Y33.814 E37.91624 F1200.000
G1 X49.404 Y42.234 E38.01644
G1 X40.985 Y42.234 E38.11664
G1 X40.985 Y33.874 E38.21613
G1 X41.222 Y34.051 F9000.000
G1 X49.167 Y34.051 E38.31069 F1200.000
G1 X49.167 Y41.997 E38.40525
G1 X41.222 Y41.997 E38.49981
G1 X41.222 Y34.111 E38.59366
G1 X41.459 Y34.288 F9000.000
G1 X48.931 Y34.288 E38.68258 F1200.000
G1 X48.931 Y41.760 E38.77151
G1 X41.459 Y41.760 E38.86043
G1 X41.459 Y34.348 E38.94865
G1 X41.695 Y34.525 F9000.000
G1 X48.694 Y34.525 E39.03193 F1200.000
G1 X48.694 Y41.523 E39.11522
G1 X41.695 Y41.523 E39.19851
G1 X41.695 Y34.585 E39.28108
G1 X41.932 Y34.761 F9000.000
G1 X48.457 Y34.761 E39.35874 F1200.000
G1 X48.457 Y41.286 E39.43639
G1 X41.932 Y41.286 E39.51404
G1 X41.932 Y34.821 E39.59098
G1 X42.169 Y34.998 F9000.000
G1 X48.220 Y34.998 E39.66299 F1200.000
G1 X48.220 Y41.050 E39.73501
G1 X42.169 Y41.050 E39.80702
G1 X42.169 Y35.058 E39.87832
G1 X42.406 Y35.235 F9000.000
G1 X47.983 Y35.235 E39.94470 F1200.000
G1 X47.983 Y40.813 E40.01108
G1 X42.406 Y40.813 E40.07746
G1 X42.406 Y35.295 E40.14312
G1 X42.643 Y35.472 F9000.000
G1 X47.747 Y35.472 E40.20386 F1200.000
G1 X47.747 Y40.576 E40.26460
G1 X42.643 Y40.576 E40.32535
G1 X42.643 Y35.532 E40.38537
G1 X42.879 Y35.709 F9000.000
G1 X47.510 Y35.709 E40.44048 F1200.000
G1 X47.510 Y40.339 E40.49558
G1 X42.879 Y40.339 E40.55069
G1 X42.879 Y35.769 E40.60508
G1 X43.116 Y35.946 F9000.000
G1 X47.273 Y35.946 E40.65455 F1200.000
G1 X47.273 Y40.102 E40.70402
G1 X43.116 Y40.102 E40.75348
G1 X43.116 Y36.006 E40.80224
G1 X43.353 Y36.182 F9000.000
G1 X47.036 Y36.182 E40.84607 F1200.000
G1 X47.036 Y39.865 E40.88990
G1 X43.353 Y39.865 E40.93373
G1 X43.353 Y36.242 E40.97685
G1 X43.590 Y36.419 F9000.000
G1 X46.799 Y36.419 E41.01504 F1200.000
G1 X46.799 Y39.629 E41.05324
G1 X43.590 Y39.629 E41.09143
G1 X43.590 Y36.479 E41.12891
G1 X43.827 Y36.656 F9000.000
G1 X46.562 Y36.656 E41.16147 F1200.000
G1 X46.562 Y39.392 E41.19403
G1 X43.827 Y39.392 E41.22659
G1 X43.827 Y36.716 E41.25843
G1 X44.064 Y36.893 F9000.000
G1 X46.326 Y36.893 E41.28535 F1200.000
G1 X46.326 Y39.155 E41.31228
G1 X44.064 Y39.155 E41.33920
G1 X44.064 Y36.953 E41.36540
G1 X44.300 Y37.130 F9000.000
G1 X46.089 Y37.130 E41.38669 F1200.000
G1 X46.089 Y38.918 E41.40797
G1 X44.300 Y38.918 E41.42926
G1 X44.300 Y37.190 E41.44983
G1 X44.537 Y37.366 F9000.000
G1 X45.852 Y37.366 E41.46548 F1200.000
G1 X45.852 Y38.681 E41.48113
G1 X44.537 Y38.681 E41.49677
G1 X44.537 Y37.426 E41.51171
G1 X44.774 Y37.603 F9000.000
G1 X45.615 Y37.603 E41.52172 F1200.000
G1 X45.615 Y38.445 E41.53173
G1 X44.774 Y38.445 E41.54174
G1 X44.774 Y37.663 E41.55104
G1 X45.011 Y37.840 F9000.000
G1 X45.378 Y37.840 E41.55541 F1200.000
G1 X45.378 Y38.208 E41.55979
G1 X45.011 Y38.208 E41.56416
G1 X45.011 Y37.900 E41.56782
G1 E39.56782 F2400.000
G92 E0
G1 Z0.600 F9000.000
G1 X30.395 Y37.900 F9000.000
G1 Z0.500 F9000.000
G1 E2.00000 F2400.000
G1 X30.395 Y23.224 E2.17646 F2400.000
G1 X59.995 Y23.224 E2.53237
G1 X59.995 Y52.824 E2.88827
G1 X30.395 Y52.824 E3.24417 F2400.000
G1 X30.395 Y37.960 E3.42289
G1 E1.42289 F2400.000
G92 E0
G1 Z0.800 F9000.000
G1 X60.195 Y52.478 F9000.000
G1 X30.887 Y37.960 F9000.000
G1 Z0.500 F9000.000
G1 E2.00000 F2400.000
G1 X30.887 Y23.717 E2.30135 F2400.000
G1 X59.502 Y23.717 E2.90675 F2400.000
G1 X59.502 Y52.331 E3.51215
G1 X30.887 Y52.331 E4.11755
G1 X30.887 Y38.020 E4.42033
G1 X31.516 Y38.020 F9000.000
G1 X31.516 Y24.345 E4.70966 F2400.000
G1 X58.874 Y24.345 E5.28847
G1 X58.874 Y51.703 E5.86728
G1 X31.516 Y51.703 E6.44610 F2400.000
