; generated by Slic3r 1.2.2 on 2015-01-04 at 13:47:13

; external perimeters extrusion width = 0.40mm
; perimeters extrusion width = 0.48mm
; infill extrusion width = 0.72mm
; solid infill extrusion width = 0.72mm
; top infill extrusion width = 0.72mm

M190 S55 ; set bed temperature
M104 S255 T0 ; set temperature
M104 S180 T1 ; set temperature
G28 ; home all axes
M109 S255 T0 ; wait for temperature to be reached
M109 S180 T1 ; wait for temperature to be reached
G21 ; set units to millimeters
G90 ; use absolute coordinates
M82 ; use absolute distances for extrusion
G92 E0
T0
G92 E0
M106 S89.25
G1 E-3.00000 F2400.00000
G92 E0
G1 Z0.440 F9000.000
G1 X73.970 Y52.483 F9000.000
G1 Z0.140 F9000.000
G1 E3.00000 F2400.00000
G1 X75.801 Y50.367 E3.04501 F1800.000
G1 X78.154 Y48.851 E3.09001
G1 X80.839 Y48.059 E3.13502
G1 X82.253 Y47.957 E3.15781
G1 X102.253 Y47.957 E3.47940
G1 X105.024 Y48.355 E3.52441
G1 X107.570 Y49.517 E3.56942 F1800.000
G1 X109.687 Y51.349 E3.61442
G1 X111.202 Y53.702 E3.65943
G1 X111.994 Y56.387 E3.70444
G1 X112.096 Y57.800 E3.72723
G1 X112.096 Y77.800 E4.04882
G1 X111.698 Y80.571 E4.09383
G1 X110.536 Y83.118 E4.13883
G1 X108.705 Y85.234 E4.18384
G1 X106.352 Y86.750 E4.22885
G1 X103.667 Y87.541 E4.27385
G1 X102.253 Y87.643 E4.29665
G1 X82.253 Y87.643 E4.61824
G1 X79.482 Y87.245 E4.66325
G1 X76.936 Y86.084 E4.70825
G1 X74.819 Y84.252 E4.75326
G1 X73.304 Y81.899 E4.79827
G1 X72.512 Y79.214 E4.84327
G1 X72.410 Y77.800 E4.86607
G1 X72.410 Y57.800 E5.18766
G1 X72.808 Y55.030 E5.23266
G1 X73.945 Y52.538 E5.27670
G1 X74.221 Y52.666 F9000.000
G1 X74.264 Y52.573 E5.27836 F1800.000
G1 X76.090 Y50.508 E5.32268
G1 X78.431 Y49.052 E5.36700
G1 X82.253 Y48.253 E5.42979
G1 X102.253 Y48.253 E5.75138
G1 X104.981 Y48.651 E5.79571
G1 X107.481 Y49.811 E5.84003 F1800.000
G1 X109.545 Y51.638 E5.88435
G1 X111.002 Y53.978 E5.92867
G1 X111.800 Y57.800 E5.99146
G1 X111.800 Y77.800 E6.31305
G1 X111.403 Y80.528 E6.35737
G1 X110.242 Y83.028 E6.40170
G1 X108.416 Y85.093 E6.44602
G1 X106.075 Y86.549 E6.49034
G1 X102.253 Y87.348 E6.55313
G1 X82.253 Y87.348 E6.87472
G1 X79.525 Y86.950 E6.91904
G1 X77.025 Y85.789 E6.96336
G1 X74.961 Y83.963 E7.00769
G1 X73.504 Y81.623 E7.05201
G1 X72.706 Y77.800 E7.11480
G1 X72.706 Y57.800 E7.43639
G1 X73.103 Y55.073 E7.48071
G1 X74.195 Y52.720 E7.52241
G1 E-2.47759 F2400.00000
G92 E0
G1 Z0.740 F9000.000
T1
G92 E0
G1 X74.470 Y52.850 F9000.000
G1 Z0.140 F9000.000
G1 X74.558 Y52.663 E0.00259 F1800.000
G1 X76.379 Y50.652 E0.03663
G1 X78.706 Y49.256 E0.07067
G1 X82.253 Y48.549 E0.11606
G1 X102.253 Y48.549 E0.36699
G1 X104.937 Y48.946 E0.40103
G1 X107.390 Y50.106 E0.43507 F1800.000
G1 X109.401 Y51.927 E0.46911
G1 X110.798 Y54.253 E0.50315
G1 X111.505 Y57.800 E0.54853
G1 X111.505 Y77.800 E0.79946
G1 X111.107 Y80.484 E0.83350
G1 X109.948 Y82.937 E0.86755
G1 X108.127 Y84.949 E0.90159
G1 X105.800 Y86.345 E0.93563
G1 X102.253 Y87.052 E0.98101
G1 X82.253 Y87.052 E1.23194
G1 X79.569 Y86.654 E1.26598
G1 X77.116 Y85.495 E1.30002
G1 X75.105 Y83.674 E1.33406
G1 X73.708 Y81.348 E1.36810
G1 X73.001 Y77.800 E1.41349
G1 X73.001 Y57.800 E1.66442
G1 X73.399 Y55.117 E1.69846
G1 X74.438 Y52.918 E1.72897
G1 X74.711 Y53.050 F9000.000
G1 X74.853 Y52.756 E1.73306 F1800.000
G1 X76.668 Y50.799 E1.76655
G1 X78.979 Y49.464 E1.80004
G1 X82.253 Y48.844 E1.84184
G1 X102.253 Y48.844 E2.09277
G1 X104.892 Y49.242 E2.12626
G1 X107.297 Y50.400 E2.15975 F1800.000
G1 X109.254 Y52.215 E2.19324
G1 X110.589 Y54.527 E2.22673
G1 X111.209 Y57.800 E2.26853
G1 X111.209 Y77.800 E2.51946
G1 X110.811 Y80.440 E2.55295
G1 X109.653 Y82.845 E2.58644
G1 X107.838 Y84.802 E2.61993
G1 X105.527 Y86.137 E2.65342
G1 X102.253 Y86.757 E2.69522
G1 X82.253 Y86.757 E2.94615
G1 X79.614 Y86.359 E2.97964
G1 X77.209 Y85.201 E3.01313
G1 X75.252 Y83.386 E3.04662
G1 X73.917 Y81.074 E3.08011
G1 X73.297 Y77.800 E3.12192
G1 X73.297 Y57.800 E3.37285
G1 X73.695 Y55.161 E3.40634
G1 X74.679 Y53.117 E3.43480
G1 E-6.56520 F3600.00000
G92 E0
G1 Z0.740 F9000.000
T0
G92 E0
G1 X74.950 Y53.250 F9000.000
G1 Z0.140 F9000.000
G1 E10.00000 F2400.00000
G1 X75.147 Y52.850 E10.00717 F1800.000
G1 X76.956 Y50.949 E10.04937
G1 X79.252 Y49.677 E10.09157
G1 X82.253 Y49.140 E10.14060
G1 X102.253 Y49.140 E10.46219
G1 X104.847 Y49.538 E10.50439
G1 X107.203 Y50.694 E10.54660 F1800.000
G1 X109.105 Y52.503 E10.58880
G1 X110.377 Y54.799 E10.63100
G1 X110.914 Y57.800 E10.68003
G1 X110.914 Y77.800 E11.00162
G1 X110.516 Y80.395 E11.04382
G1 X109.359 Y82.751 E11.08602
G1 X107.550 Y84.652 E11.12822
G1 X105.254 Y85.924 E11.17043
G1 X102.253 Y86.461 E11.21945
G1 X82.253 Y86.461 E11.54104
G1 X79.659 Y86.063 E11.58325
G1 X77.303 Y84.907 E11.62545
G1 X75.401 Y83.098 E11.66765
G1 X74.129 Y80.802 E11.70985
G1 X73.592 Y77.800 E11.75888
G1 X73.592 Y57.800 E12.08047
G1 X73.990 Y55.206 E12.12267
G1 X74.924 Y53.304 E12.15674
G1 X75.194 Y53.439 F9000.000
G1 X75.441 Y52.946 E12.16561 F1800.000
G1 X77.243 Y51.101 E12.20708
G1 X79.522 Y49.894 E12.24855
G1 X82.253 Y49.435 E12.29308
G1 X102.253 Y49.435 E12.61467
G1 X104.801 Y49.833 E12.65614
G1 X107.107 Y50.988 E12.69761 F1800.000
G1 X108.952 Y52.791 E12.73908
G1 X110.160 Y55.070 E12.78055
G1 X110.618 Y57.800 E12.82508
G1 X110.618 Y77.800 E13.14667
G1 X110.220 Y80.349 E13.18814
G1 X109.065 Y82.655 E13.22961
G1 X107.263 Y84.499 E13.27108
G1 X104.984 Y85.707 E13.31255
G1 X102.253 Y86.165 E13.35708
G1 X82.253 Y86.165 E13.67867
G1 X79.705 Y85.768 E13.72014
G1 X77.399 Y84.613 E13.76161
G1 X75.554 Y82.810 E13.80308
G1 X74.346 Y80.531 E13.84455
G1 X73.888 Y77.800 E13.88908
G1 X73.888 Y57.800 E14.21067
G1 X74.286 Y55.252 E14.25214
G1 X75.167 Y53.493 E14.28377
G1 E4.28377 F2400.00000
G92 E0
G1 Z0.740 F9000.000
T1
G92 E0
G1 X75.435 Y53.630 F9000.000
G1 Z0.140 F9000.000
G1 E10.00000 F3600.00000
G1 X75.735 Y53.044 E10.00826 F1800.000
G1 X77.530 Y51.258 E10.04004
G1 X79.791 Y50.116 E10.07182
G1 X82.253 Y49.731 E10.10308
G1 X102.253 Y49.731 E10.35401
G1 X104.754 Y50.129 E10.38579
G1 X107.010 Y51.282 E10.41757 F1800.000
G1 X108.796 Y53.078 E10.44935
G1 X109.938 Y55.339 E10.48113
G1 X110.322 Y57.800 E10.51239
G1 X110.322 Y77.800 E10.76332
G1 X109.925 Y80.302 E10.79510
G1 X108.771 Y82.557 E10.82687
G1 X106.976 Y84.343 E10.85865
G1 X104.715 Y85.485 E10.89043
G1 X102.253 Y85.870 E10.92169
G1 X82.253 Y85.870 E11.17262
G1 X79.752 Y85.472 E11.20440
G1 X77.496 Y84.319 E11.23618
G1 X75.710 Y82.523 E11.26796
G1 X74.568 Y80.262 E11.29974
G1 X74.184 Y77.800 E11.33100
G1 X74.184 Y57.800 E11.58193
G1 X74.581 Y55.299 E11.61371
G1 X75.401 Y53.697 E11.63629
G1 X75.666 Y53.836 F9000.000
G1 X76.028 Y53.144 E11.64608 F1800.000
G1 X77.816 Y51.417 E11.67727
G1 X80.058 Y50.343 E11.70846
G1 X82.253 Y50.027 E11.73628
G1 X102.253 Y50.027 E11.98721
G1 X104.707 Y50.424 E12.01840
G1 X106.910 Y51.576 E12.04959 F1800.000
G1 X108.636 Y53.364 E12.08077
G1 X109.710 Y55.606 E12.11196
G1 X110.027 Y57.800 E12.13978
G1 X110.027 Y77.800 E12.39071
G1 X109.629 Y80.254 E12.42190
G1 X108.478 Y82.457 E12.45309
G1 X106.690 Y84.184 E12.48427
G1 X104.448 Y85.258 E12.51546
G1 X102.253 Y85.574 E12.54328
G1 X82.253 Y85.574 E12.79421
G1 X79.799 Y85.177 E12.82540
G1 X77.596 Y84.025 E12.85659
G1 X75.870 Y82.237 E12.88777
G1 X74.796 Y79.995 E12.91896
G1 X74.479 Y77.800 E12.94678
G1 X74.479 Y57.800 E13.19771
G1 X74.877 Y55.347 E13.22890
G1 X75.632 Y53.902 E13.24935
G1 E3.24935 F3600.00000
G92 E0
G1 Z0.740 F9000.000
T0
G92 E0
G1 X75.895 Y54.043 F9000.000
G1 Z0.140 F9000.000
G1 E10.00000 F2400.00000
G1 X76.322 Y53.246 E10.01455 F1800.000
G1 X78.102 Y51.580 E10.05374
G1 X80.323 Y50.576 E10.09294
G1 X82.253 Y50.322 E10.12424
G1 X102.253 Y50.322 E10.44583
G1 X104.658 Y50.720 E10.48503
G1 X106.808 Y51.869 E10.52422 F1800.000
G1 X108.473 Y53.649 E10.56342
G1 X109.478 Y55.871 E10.60262
G1 X109.731 Y57.800 E10.63392
G1 X109.731 Y77.800 E10.95551
G1 X109.334 Y80.206 E10.99470
G1 X108.184 Y82.355 E11.03390
G1 X106.404 Y84.021 E11.07310
G1 X104.183 Y85.025 E11.11229
G1 X102.253 Y85.278 E11.14359
G1 X82.253 Y85.278 E11.46518
G1 X79.848 Y84.881 E11.50438
G1 X77.698 Y83.731 E11.54358
G1 X76.033 Y81.951 E11.58277
G1 X75.028 Y79.730 E11.62197
G1 X74.775 Y77.800 E11.65327
G1 X74.775 Y57.800 E11.97486
G1 X75.172 Y55.395 E12.01406
G1 X75.867 Y54.096 E12.03774
G1 X76.128 Y54.239 F9000.000
G1 X76.615 Y53.350 E12.05405 F1800.000
G1 X78.387 Y51.747 E12.09246
G1 X80.586 Y50.814 E12.13087
G1 X82.253 Y50.618 E12.15787
G1 X102.253 Y50.618 E12.47946
G1 X104.608 Y51.015 E12.51787
G1 X106.703 Y52.163 E12.55627 F1800.000
G1 X108.306 Y53.934 E12.59468
G1 X109.239 Y56.133 E12.63309
G1 X109.435 Y57.800 E12.66009
G1 X109.435 Y77.800 E12.98168
G1 X109.038 Y80.156 E13.02009
G1 X107.891 Y82.251 E13.05850
G1 X106.119 Y83.853 E13.09691
G1 X103.920 Y84.787 E13.13532
G1 X102.253 Y84.983 E13.16231
G1 X82.253 Y84.983 E13.48390
G1 X79.898 Y84.586 E13.52231
G1 X77.803 Y83.438 E13.56072
G1 X76.200 Y81.667 E13.59913
G1 X75.267 Y79.468 E13.63754
G1 X75.071 Y77.800 E13.66454
G1 X75.071 Y57.800 E13.98613
G1 X75.468 Y55.445 E14.02454
G1 X76.099 Y54.292 E14.04567
G1 E4.04567 F2400.00000
G92 E0
G1 Z0.740 F9000.000
T1
G92 E0
G1 X76.358 Y54.437 F9000.000
G1 Z0.140 F9000.000
G1 E10.00000 F3600.00000
G1 X76.909 Y53.457 E10.01411 F1800.000
G1 X78.671 Y51.919 E10.04345
G1 X80.845 Y51.059 E10.07280
G1 X82.253 Y50.914 E10.09055
G1 X102.253 Y50.914 E10.34148
G1 X104.558 Y51.311 E10.37082
G1 X106.597 Y52.456 E10.40016 F1800.000
G1 X108.135 Y54.218 E10.42951
G1 X108.994 Y56.393 E10.45885
G1 X109.140 Y57.800 E10.47660
G1 X109.140 Y77.800 E10.72753
G1 X108.743 Y80.105 E10.75687
G1 X107.597 Y82.144 E10.78622
G1 X105.835 Y83.682 E10.81556
G1 X103.661 Y84.542 E10.84490
G1 X102.253 Y84.687 E10.86265
G1 X82.253 Y84.687 E11.11358
G1 X79.948 Y84.290 E11.14293
G1 X77.909 Y83.145 E11.17227
G1 X76.371 Y81.383 E11.20161
G1 X75.512 Y79.208 E11.23095
G1 X75.366 Y77.800 E11.24871
G1 X75.366 Y57.800 E11.49964
G1 X75.763 Y55.496 E11.52898
G1 X76.321 Y54.503 E11.54327
G1 X76.577 Y54.650 F9000.000
G1 X77.202 Y53.566 E11.55897 F1800.000
G1 X78.953 Y52.095 E11.58767
G1 X81.102 Y51.310 E11.61637
G1 X82.253 Y51.209 E11.63087
G1 X102.253 Y51.209 E11.88179
G1 X104.506 Y51.606 E11.91050
G1 X106.487 Y52.749 E11.93920 F1800.000
G1 X107.959 Y54.501 E11.96790
G1 X108.743 Y56.650 E11.99660
G1 X108.844 Y57.800 E12.01109
G1 X108.844 Y77.800 E12.26202
G1 X108.447 Y80.053 E12.29072
G1 X107.304 Y82.035 E12.31942
G1 X105.553 Y83.506 E12.34812
G1 X103.404 Y84.290 E12.37683
G1 X102.253 Y84.392 E12.39132
G1 X82.253 Y84.392 E12.64225
G1 X80.000 Y83.995 E12.67095
G1 X78.019 Y82.852 E12.69965
G1 X76.547 Y81.100 E12.72835
G1 X75.763 Y78.951 E12.75705
G1 X75.662 Y77.800 E12.77155
G1 X75.662 Y57.800 E13.02248
G1 X76.059 Y55.548 E13.05118
G1 X76.539 Y54.715 E13.06324
G1 E3.06324 F3600.00000
G92 E0
G1 Z0.740 F9000.000
T0
G92 E0
G1 X76.791 Y54.864 F9000.000
G1 Z0.140 F9000.000
G1 E10.00000 F2400.00000
G1 X77.495 Y53.678 E10.02218 F1800.000
G1 X79.235 Y52.275 E10.05812
G1 X82.253 Y51.505 E10.10820
G1 X102.253 Y51.505 E10.42979
G1 X104.453 Y51.902 E10.46574
G1 X106.375 Y53.042 E10.50168 F1800.000
G1 X107.778 Y54.782 E10.53762
G1 X108.549 Y57.800 E10.58771
G1 X108.549 Y77.800 E10.90930
G1 X108.152 Y80.000 E10.94524
G1 X107.011 Y81.923 E10.98118
G1 X105.271 Y83.325 E11.01712
G1 X102.253 Y84.096 E11.06721
G1 X82.253 Y84.096 E11.38880
G1 X80.053 Y83.699 E11.42474
G1 X78.131 Y82.559 E11.46068
G1 X76.728 Y80.818 E11.49663
G1 X75.957 Y77.800 E11.54671
G1 X75.957 Y57.800 E11.86830
G1 X76.354 Y55.601 E11.90424
G1 X76.760 Y54.916 E11.91705
G1 E8.91705 F2400.00000
G92 E0
G1 Z0.740 F9000.000
G1 X82.433 Y57.980 F9000.000
G1 Z0.140 F9000.000
G1 E3.00000 F2400.00000
G1 X102.073 Y57.980 E3.31580 F1800.000
G1 X102.073 Y77.620 E3.63160
G1 X82.433 Y77.620 E3.94740 F1800.000
G1 X82.433 Y58.040 E4.26224
G1 X82.233 Y58.327 F9000.000
G1 X82.729 Y58.276 F9000.000
G1 X101.777 Y58.276 E4.56854 F1800.000
G1 X101.777 Y77.325 E4.87483
G1 X82.789 Y77.325 E5.18016
G1 E2.18016 F2400.00000
G92 E0
G1 Z0.740 F9000.000
G1 X83.024 Y73.433 F9000.000
G1 Z0.140 F9000.000
G1 E3.00000 F2400.00000
G1 X83.024 Y58.572 E3.23897 F1800.000
G1 X101.482 Y58.572 E3.53576
G1 X101.482 Y77.029 E3.83255
G1 X83.024 Y77.029 E4.12933 F1800.000
G1 X83.024 Y73.493 E4.18619
G1 E-5.81381 F2400.00000
G92 E0
G1 Z0.740 F9000.000
T1
G92 E0
G1 X90.517 Y66.139 F9000.000
G1 Z0.140 F9000.000
G1 E10.00000 F3600.00000
G1 X90.517 Y69.537 E10.04333 F1800.000
G1 X93.989 Y69.537 E10.08762
G1 X93.989 Y66.064 E10.13191
G1 X90.517 Y66.064 E10.17619
G1 X90.216 Y65.839 F9000.000
G1 X90.216 Y69.837 E10.22719 F1800.000
G1 X94.290 Y69.837 E10.27914
G1 X94.290 Y65.764 E10.33109
G1 X90.216 Y65.764 E10.38304
G1 X89.916 Y65.538 F9000.000
G1 X89.916 Y70.138 E10.44170 F1800.000
G1 X94.590 Y70.138 E10.50131
G1 X94.590 Y65.463 E10.56093
G1 X89.916 Y65.463 E10.62055
G1 X89.615 Y65.238 F9000.000
G1 X89.615 Y70.438 E10.68687 F1800.000
G1 X94.891 Y70.438 E10.75415
G1 X94.891 Y65.163 E10.82143
G1 X89.615 Y65.163 E10.88871
G1 X89.315 Y64.937 F9000.000
G1 X89.315 Y70.739 E10.96269 F1800.000
G1 X95.191 Y70.739 E11.03764
G1 X95.191 Y64.862 E11.11258
G1 X89.315 Y64.862 E11.18752
G1 X89.014 Y64.637 F9000.000
G1 X89.014 Y71.039 E11.26917 F1800.000
G1 X95.492 Y71.039 E11.35178
G1 X95.492 Y64.562 E11.43439
G1 X89.014 Y64.562 E11.51700
G1 X88.714 Y64.336 F9000.000
G1 X88.714 Y71.340 E11.60631 F1800.000
G1 X95.792 Y71.340 E11.69658
G1 X95.792 Y64.261 E11.78685
G1 X88.714 Y64.261 E11.87713
G1 X88.413 Y64.036 F9000.000
G1 X88.413 Y71.640 E11.97410 F1800.000
G1 X96.093 Y71.640 E12.07204
G1 X96.093 Y63.961 E12.16997
G1 X88.413 Y63.961 E12.26791
G1 X88.113 Y63.735 F9000.000
G1 X88.113 Y71.941 E12.37255 F1800.000
G1 X96.393 Y71.941 E12.47815
G1 X96.393 Y63.660 E12.58375
G1 X88.113 Y63.660 E12.68935
G1 X87.812 Y63.435 F9000.000
G1 X87.812 Y72.241 E12.80166 F1800.000
G1 X96.694 Y72.241 E12.91492
G1 X96.694 Y63.360 E13.02819
G1 X87.812 Y63.360 E13.14145
G1 X87.512 Y63.134 F9000.000
G1 X87.512 Y72.542 E13.26142 F1800.000
G1 X96.994 Y72.542 E13.38235
G1 X96.994 Y63.059 E13.50327
G1 X87.512 Y63.059 E13.62420
G1 X87.211 Y62.834 F9000.000
G1 X87.211 Y72.842 E13.75184 F1800.000
G1 X97.295 Y72.842 E13.88043
G1 X97.295 Y62.759 E14.00902
G1 X87.211 Y62.759 E14.13761
G1 X86.911 Y62.533 F9000.000
G1 X86.911 Y73.143 E14.27291 F1800.000
G1 X97.595 Y73.143 E14.40917
G1 X97.595 Y62.458 E14.54542
G1 X86.911 Y62.458 E14.68168
G1 X86.610 Y62.233 F9000.000
G1 X86.610 Y73.443 E14.82464 F1800.000
G1 X97.896 Y73.443 E14.96856
G1 X97.896 Y62.158 E15.11248
G1 X86.610 Y62.158 E15.25640
G1 X86.310 Y61.932 F9000.000
G1 X86.310 Y73.744 E15.40703 F1800.000
G1 X98.196 Y73.744 E15.55861
G1 X98.196 Y61.857 E15.71019
G1 X86.310 Y61.857 E15.86178
G1 X86.009 Y61.632 F9000.000
G1 X86.009 Y74.044 E16.02007 F1800.000
G1 X98.497 Y74.044 E16.17932
G1 X98.497 Y61.557 E16.33856
G1 X86.009 Y61.557 E16.49781
G1 X85.709 Y61.331 F9000.000
G1 X85.709 Y74.344 E16.66377 F1800.000
G1 X98.797 Y74.344 E16.83068
G1 X98.797 Y61.256 E16.99759
G1 X85.709 Y61.256 E17.16450
G1 X85.408 Y61.031 F9000.000
G1 X85.408 Y74.645 E17.33812 F1800.000
G1 X99.098 Y74.645 E17.51270
G1 X99.098 Y60.956 E17.68727
G1 X85.408 Y60.956 E17.86185
G1 X85.108 Y60.730 F9000.000
G1 X85.108 Y74.945 E18.04313 F1800.000
G1 X99.398 Y74.945 E18.22537
G1 X99.398 Y60.655 E18.40761
G1 X85.108 Y60.655 E18.58985
G1 X84.807 Y60.430 F9000.000
G1 X84.807 Y75.246 E18.77880 F1800.000
G1 X99.699 Y75.246 E18.96870
G1 X99.699 Y60.355 E19.15861
G1 X84.807 Y60.355 E19.34851
G1 X84.507 Y60.129 F9000.000
G1 X84.507 Y75.546 E19.54512 F1800.000
G1 X99.999 Y75.546 E19.74269
G1 X99.999 Y60.054 E19.94026
G1 X84.507 Y60.054 E20.13782
G1 X84.207 Y59.829 F9000.000
G1 X84.207 Y75.847 E20.34210 F1800.000
G1 X100.299 Y75.847 E20.54733
G1 X100.299 Y59.754 E20.75256
G1 X84.207 Y59.754 E20.95779
G1 X83.906 Y59.528 F9000.000
G1 X83.906 Y76.147 E21.16973 F1800.000
G1 X100.600 Y76.147 E21.38263
G1 X100.600 Y59.453 E21.59553
G1 X83.906 Y59.453 E21.80842
G1 X83.606 Y59.228 F9000.000
G1 X83.606 Y76.448 E22.02802 F1800.000
G1 X100.900 Y76.448 E22.24858
G1 X100.900 Y59.153 E22.46914
G1 X83.606 Y59.153 E22.68970
G1 X83.305 Y58.927 F9000.000
G1 X83.305 Y76.748 E22.91697 F1800.000
