; generated by Slic3r 1.2.1-dev on 2014-11-08 at 13:29:06

; external perimeters extrusion width = 0.40mm
; perimeters extrusion width = 0.67mm
; infill extrusion width = 0.67mm
; solid infill extrusion width = 0.67mm
; top infill extrusion width = 0.67mm

M190 S70 ; wait for bed temperature to be reached
M104 S260 T1 ; set temperature
G28 ; home all axes
M109 S260 T1 ; wait for temperature to be reached
G21 ; set units to millimeters
G90 ; use absolute coordinates
M82 ; use absolute distances for extrusion
G92 E0
T0
G92 E0
G1 E-2.00000 F2400.000
G92 E0
G1 Z0.300 F9000.000
G1 Z0.600 F9000.000
G1 X125.476 Y19.731 F9000.000
G1 Z0.300 F9000.000
G1 E2.00000 F2400.000
G1 X125.873 Y17.336 E2.02888 F1200.000
G1 X127.022 Y15.198 E2.05777
G1 X128.800 Y13.546 E2.08665
G1 X131.017 Y12.557 E2.11554
G1 X132.889 Y12.317 E2.13801
G1 X162.889 Y12.317 E2.49503
G1 X165.284 Y12.714 E2.52392
G1 X167.421 Y13.863 E2.55280 F1200.000
G1 X169.073 Y15.642 E2.58169
G1 X170.063 Y17.858 E2.61057
G1 X170.303 Y19.731 E2.63304
G1 X170.303 Y49.731 E2.99006
G1 X169.906 Y52.125 E3.01895
G1 X168.756 Y54.263 E3.04783
G1 X166.978 Y55.915 E3.07672
G1 X164.762 Y56.904 E3.10560
G1 X162.889 Y57.144 E3.12807
G1 X132.889 Y57.144 E3.48510
G1 X130.495 Y56.747 E3.51398
G1 X128.357 Y55.598 E3.54286
G1 X126.705 Y53.819 E3.57175
G1 X125.716 Y51.603 E3.60063
G1 X125.476 Y49.731 E3.62310
G1 X125.476 Y19.806 E3.97923
G1 X125.711 Y19.806 F9000.000
G1 X126.108 Y17.376 E4.00853 F1200.000
G1 X127.256 Y15.282 E4.03695
G1 X129.027 Y13.680 E4.06537
G1 X131.226 Y12.748 E4.09379
G1 X132.889 Y12.552 E4.11372
G1 X162.889 Y12.552 E4.47075
G1 X165.244 Y12.950 E4.49917
G1 X167.338 Y14.097 E4.52759 F1200.000
G1 X168.940 Y15.868 E4.55601
G1 X169.872 Y18.067 E4.58442
G1 X170.067 Y19.731 E4.60436
G1 X170.067 Y49.731 E4.96138
G1 X169.670 Y52.085 E4.98980
G1 X168.522 Y54.179 E5.01822
G1 X166.751 Y55.781 E5.04664
G1 X164.553 Y56.713 E5.07506
G1 X162.889 Y56.909 E5.09499
G1 X132.889 Y56.909 E5.45202
G1 X130.535 Y56.511 E5.48044
G1 X128.440 Y55.364 E5.50886
G1 X126.839 Y53.593 E5.53727
G1 X125.907 Y51.394 E5.56569
G1 X125.711 Y49.731 E5.58563
G1 X125.711 Y19.881 E5.94087
G1 E0.94087 F2400.000
G92 E0
G1 Z0.600 F9000.000
T1
G92 E0
G1 X125.947 Y19.881 F9000.000
G1 Z0.300 F9000.000
G1 X125.947 Y19.731 E0.00179 F1200.000
G1 X126.344 Y17.416 E0.02973
G1 X127.490 Y15.367 E0.05768
G1 X129.253 Y13.816 E0.08562
G1 X131.433 Y12.943 E0.11357
G1 X132.889 Y12.788 E0.13099
G1 X162.889 Y12.788 E0.48802
G1 X165.204 Y13.185 E0.51596
G1 X167.253 Y14.331 E0.54391 F1200.000
G1 X168.804 Y16.095 E0.57185
G1 X169.677 Y18.274 E0.59980
G1 X169.832 Y19.731 E0.61723
G1 X169.832 Y49.731 E0.97425
G1 X169.435 Y52.045 E1.00220
G1 X168.289 Y54.094 E1.03014
G1 X166.525 Y55.645 E1.05809
G1 X164.345 Y56.519 E1.08603
G1 X162.889 Y56.673 E1.10346
G1 X132.889 Y56.673 E1.46049
G1 X130.575 Y56.276 E1.48843
G1 X128.525 Y55.130 E1.51638
G1 X126.975 Y53.366 E1.54432
G1 X126.101 Y51.187 E1.57227
G1 X125.947 Y49.731 E1.58969
G1 X125.947 Y19.941 E1.94422
G1 X126.182 Y19.941 F9000.000
G1 X126.182 Y19.731 E1.94672 F1200.000
G1 X126.579 Y17.457 E1.97418
G1 X127.723 Y15.453 E2.00165
G1 X129.479 Y13.955 E2.02911
G1 X131.638 Y13.141 E2.05657
G1 X132.889 Y13.024 E2.07153
G1 X162.889 Y13.024 E2.42855
G1 X165.163 Y13.421 E2.45601
G1 X167.167 Y14.565 E2.48348 F1200.000
G1 X168.664 Y16.320 E2.51094
G1 X169.478 Y18.480 E2.53840
G1 X169.596 Y19.731 E2.55336
G1 X169.596 Y49.731 E2.91038
G1 X169.199 Y52.004 E2.93784
G1 X168.055 Y54.008 E2.96531
G1 X166.299 Y55.506 E2.99277
G1 X164.140 Y56.320 E3.02023
G1 X162.889 Y56.437 E3.03519
G1 X132.889 Y56.437 E3.39221
G1 X130.616 Y56.040 E3.41967
G1 X128.612 Y54.896 E3.44714
G1 X127.114 Y53.141 E3.47460
G1 X126.300 Y50.981 E3.50206
G1 X126.182 Y49.731 E3.51702
G1 X126.182 Y20.001 E3.87083
G1 E-1.12917 F2400.000
G92 E0
G1 Z0.600 F9000.000
T0
G92 E0
G1 X126.418 Y20.001 F9000.000
G1 Z0.300 F9000.000
G1 E5.00000 F2400.000
G1 X126.418 Y19.731 E5.00321 F1200.000
G1 X126.815 Y17.499 E5.03019
G1 X127.957 Y15.541 E5.05716
G1 X129.704 Y14.097 E5.08413
G1 X132.889 Y13.259 E5.12333
G1 X162.889 Y13.259 E5.48035
G1 X165.121 Y13.656 E5.50733
G1 X167.078 Y14.798 E5.53430 F1200.000
G1 X168.522 Y16.545 E5.56127
G1 X169.360 Y19.731 E5.60047
G1 X169.360 Y49.731 E5.95750
G1 X168.964 Y51.962 E5.98447
G1 X167.822 Y53.920 E6.01144
G1 X166.074 Y55.364 E6.03842
G1 X162.889 Y56.202 E6.07761
G1 X132.889 Y56.202 E6.43464
G1 X130.658 Y55.805 E6.46161
G1 X128.700 Y54.663 E6.48858
G1 X127.256 Y52.916 E6.51556
G1 X126.418 Y49.731 E6.55475
G1 X126.418 Y20.076 E6.90767
G1 X126.654 Y20.076 F9000.000
G1 X126.654 Y19.731 E6.91178 F1200.000
G1 X127.050 Y17.542 E6.93825
G1 X128.190 Y15.631 E6.96473
G1 X129.928 Y14.243 E6.99120
G1 X132.889 Y13.495 E7.02755
G1 X162.889 Y13.495 E7.38457
G1 X165.078 Y13.892 E7.41104
G1 X166.988 Y15.032 E7.43752 F1200.000
G1 X168.377 Y16.769 E7.46399
G1 X169.125 Y19.731 E7.50034
G1 X169.125 Y49.731 E7.85736
G1 X168.728 Y51.919 E7.88384
G1 X167.588 Y53.830 E7.91031
G1 X165.850 Y55.218 E7.93678
G1 X162.889 Y55.966 E7.97313
G1 X132.889 Y55.966 E8.33015
G1 X130.700 Y55.569 E8.35663
G1 X128.790 Y54.429 E8.38310
G1 X127.401 Y52.692 E8.40957
G1 X126.654 Y49.731 E8.44592
G1 X126.654 Y20.151 E8.79795
G1 E3.79795 F2400.000
G92 E0
G1 Z0.600 F9000.000
T1
G92 E0
G1 X133.039 Y20.151 F9000.000
G1 Z0.300 F9000.000
G1 E5.00000 F2400.000
G1 X133.039 Y19.881 E5.00321 F1200.000
G1 X162.739 Y19.881 E5.35667
G1 X162.739 Y49.581 E5.71012
G1 X133.039 Y49.581 E6.06358 F1200.000
G1 X133.039 Y20.211 E6.41310
G1 E4.41310 F2400.000
G92 E0
G1 Z0.600 F9000.000
G1 X162.939 Y49.234 F9000.000
G1 X133.275 Y20.211 F9000.000
G1 Z0.300 F9000.000
G1 E2.00000 F2400.000
G1 X133.275 Y20.116 E2.00112 F1200.000
G1 X162.504 Y20.116 E2.34897 F1200.000
G1 X162.504 Y49.345 E2.69682
G1 X133.275 Y49.345 E3.04466
G1 X133.275 Y20.271 E3.39067
G1 X133.510 Y20.352 F9000.000
G1 X162.268 Y20.352 E3.73291 F1200.000
G1 X162.268 Y49.109 E4.07515
G1 X133.510 Y49.109 E4.41739 F1200.000
G1 X133.510 Y20.412 E4.75891
G1 E2.75891 F2400.000
G92 E0
G1 Z0.600 F9000.000
G1 X141.832 Y48.874 F9000.000
G1 Z0.300 F9000.000
G1 E2.00000 F2400.000
G1 X133.746 Y48.874 E2.09623 F1200.000
G1 X133.746 Y20.587 E2.43286
G1 X162.032 Y20.587 E2.76949 F1200.000
G1 X162.032 Y48.874 E3.10613
G1 X141.892 Y48.874 E3.34581
G1 E1.34581 F2400.000
G92 E0
G1 Z0.600 F9000.000
G1 X133.970 Y20.811 F9000.000
G1 Z0.300 F9000.000
G1 E2.00000 F2400.000
G1 X161.809 Y20.811 E2.33130 F1200.000
G1 X161.809 Y48.650 E2.66261
G1 X133.970 Y48.650 E2.99391
G1 X133.970 Y20.871 E3.32450
G1 X134.207 Y21.048 F9000.000
G1 X161.572 Y21.048 E3.65016 F1200.000
G1 X161.572 Y48.413 E3.97583
G1 X134.207 Y48.413 E4.30150
G1 X134.207 Y21.108 E4.62645
G1 X134.444 Y21.285 F9000.000
G1 X161.335 Y21.285 E4.94648 F1200.000
G1 X161.335 Y48.176 E5.26651
G1 X134.444 Y48.176 E5.58654
G1 X134.444 Y21.345 E5.90585
G1 X134.680 Y21.522 F9000.000
G1 X161.098 Y21.522 E6.22025 F1200.000
G1 X161.098 Y47.939 E6.53464
G1 X134.680 Y47.939 E6.84903
G1 X134.680 Y21.582 E7.16271
G1 X134.917 Y21.758 F9000.000
G1 X160.861 Y21.758 E7.47147 F1200.000
G1 X160.861 Y47.703 E7.78022
G1 X134.917 Y47.703 E8.08898
G1 X134.917 Y21.818 E8.39702
G1 X135.154 Y21.995 F9000.000
G1 X160.624 Y21.995 E8.70014 F1200.000
G1 X160.624 Y47.466 E9.00326
G1 X135.154 Y47.466 E9.30638
G1 X135.154 Y22.055 E9.60878
G1 X135.391 Y22.232 F9000.000
G1 X160.388 Y22.232 E9.90627 F1200.000
G1 X160.388 Y47.229 E10.20375
G1 X135.391 Y47.229 E10.50123
G1 X135.391 Y22.292 E10.79800
G1 X135.628 Y22.469 F9000.000
G1 X160.151 Y22.469 E11.08985 F1200.000
G1 X160.151 Y46.992 E11.38169
G1 X135.628 Y46.992 E11.67354
G1 X135.628 Y22.529 E11.96467
G1 X135.864 Y22.706 F9000.000
G1 X159.914 Y22.706 E12.25088 F1200.000
G1 X159.914 Y46.755 E12.53709
G1 X135.864 Y46.755 E12.82330
G1 X135.864 Y22.766 E13.10880
G1 X136.101 Y22.943 F9000.000
G1 X159.677 Y22.943 E13.38937 F1200.000
G1 X159.677 Y46.518 E13.66994
G1 X136.101 Y46.518 E13.95051
G1 X136.101 Y23.003 E14.23037
G1 X136.338 Y23.179 F9000.000
G1 X159.440 Y23.179 E14.50531 F1200.000
G1 X159.440 Y46.282 E14.78024
G1 X136.338 Y46.282 E15.05518
G1 X136.338 Y23.239 E15.32940
G1 X136.575 Y23.416 F9000.000
G1 X159.204 Y23.416 E15.59870 F1200.000
G1 X159.204 Y46.045 E15.86800
G1 X136.575 Y46.045 E16.13730
G1 X136.575 Y23.476 E16.40589
G1 X136.812 Y23.653 F9000.000
G1 X158.967 Y23.653 E16.66955 F1200.000
G1 X158.967 Y45.808 E16.93321
G1 X136.812 Y45.808 E17.19687
G1 X136.812 Y23.713 E17.45982
G1 X137.049 Y23.890 F9000.000
G1 X158.730 Y23.890 E17.71785 F1200.000
G1 X158.730 Y45.571 E17.97587
G1 X137.049 Y45.571 E18.23390
G1 X137.049 Y23.950 E18.49121
G1 X137.285 Y24.127 F9000.000
G1 X158.493 Y24.127 E18.74360 F1200.000
G1 X158.493 Y45.334 E18.99599
G1 X137.285 Y45.334 E19.24838
G1 X137.285 Y24.187 E19.50005
G1 X137.522 Y24.363 F9000.000
G1 X158.256 Y24.363 E19.74681 F1200.000
G1 X158.256 Y45.098 E19.99356
G1 X137.522 Y45.098 E20.24031
G1 X137.522 Y24.423 E20.48635
G1 X137.759 Y24.600 F9000.000
G1 X158.019 Y24.600 E20.72747 F1200.000
G1 X158.019 Y44.861 E20.96858
G1 X137.759 Y44.861 E21.20970
G1 X137.759 Y24.660 E21.45010
G1 X137.996 Y24.837 F9000.000
G1 X157.783 Y24.837 E21.68558 F1200.000
G1 X157.783 Y44.624 E21.92106
G1 X137.996 Y44.624 E22.15654
G1 X137.996 Y24.897 E22.39130
G1 X138.233 Y25.074 F9000.000
G1 X157.546 Y25.074 E22.62114 F1200.000
G1 X157.546 Y44.387 E22.85099
G1 X138.233 Y44.387 E23.08083
G1 X138.233 Y25.134 E23.30996
G1 X138.469 Y25.311 F9000.000
G1 X157.309 Y25.311 E23.53416 F1200.000
G1 X157.309 Y44.150 E23.75837
G1 X138.469 Y44.150 E23.98257
G1 X138.469 Y25.371 E24.20607
G1 X138.706 Y25.548 F9000.000
G1 X157.072 Y25.548 E24.42464 F1200.000
G1 X157.072 Y43.913 E24.64320
G1 X138.706 Y43.913 E24.86177
G1 X138.706 Y25.608 E25.07963
G1 X138.943 Y25.784 F9000.000
G1 X156.835 Y25.784 E25.29256 F1200.000
G1 X156.835 Y43.677 E25.50549
G1 X138.943 Y43.677 E25.71843
G1 X138.943 Y25.844 E25.93064
G1 X139.180 Y26.021 F9000.000
G1 X156.599 Y26.021 E26.13794 F1200.000
G1 X156.599 Y43.440 E26.34524
G1 X139.180 Y43.440 E26.55253
G1 X139.180 Y26.081 E26.75911
G1 X139.417 Y26.258 F9000.000
G1 X156.362 Y26.258 E26.96077 F1200.000
G1 X156.362 Y43.203 E27.16243
G1 X139.417 Y43.203 E27.36409
G1 X139.417 Y26.318 E27.56503
G1 X139.654 Y26.495 F9000.000
G1 X156.125 Y26.495 E27.76106 F1200.000
G1 X156.125 Y42.966 E27.95708
G1 X139.654 Y42.966 E28.15310
G1 X139.654 Y26.555 E28.34841
G1 X139.890 Y26.732 F9000.000
G1 X155.888 Y26.732 E28.53879 F1200.000
G1 X155.888 Y42.729 E28.72918
G1 X139.890 Y42.729 E28.91957
G1 X139.890 Y26.792 E29.10924
G1 X140.127 Y26.969 F9000.000
G1 X155.651 Y26.969 E29.29399 F1200.000
G1 X155.651 Y42.493 E29.47874
G1 X140.127 Y42.493 E29.66348
G1 X140.127 Y27.029 E29.84752
G1 X140.364 Y27.205 F9000.000
G1 X155.414 Y27.205 E30.02663 F1200.000
G1 X155.414 Y42.256 E30.20574
G1 X140.364 Y42.256 E30.38486
G1 X140.364 Y27.265 E30.56325
G1 X140.601 Y27.442 F9000.000
G1 X155.178 Y27.442 E30.73673 F1200.000
G1 X155.178 Y42.019 E30.91020
G1 X140.601 Y42.019 E31.08368
G1 X140.601 Y27.502 E31.25644
G1 X140.838 Y27.679 F9000.000
G1 X154.941 Y27.679 E31.42428 F1200.000
G1 X154.941 Y41.782 E31.59212
G1 X140.838 Y41.782 E31.75996
G1 X140.838 Y27.739 E31.92708
G1 X141.074 Y27.916 F9000.000
G1 X154.704 Y27.916 E32.08928 F1200.000
G1 X154.704 Y41.545 E32.25149
G1 X141.074 Y41.545 E32.41369
G1 X141.074 Y27.976 E32.57518
G1 X141.311 Y28.153 F9000.000
G1 X154.467 Y28.153 E32.73174 F1200.000
G1 X154.467 Y41.308 E32.88831
G1 X141.311 Y41.308 E33.04487
G1 X141.311 Y28.213 E33.20072
G1 X141.548 Y28.389 F9000.000
G1 X154.230 Y28.389 E33.35165 F1200.000
G1 X154.230 Y41.072 E33.50258
G1 X141.548 Y41.072 E33.65351
G1 X141.548 Y28.449 E33.80373
G1 X141.785 Y28.626 F9000.000
G1 X153.993 Y28.626 E33.94902 F1200.000
G1 X153.993 Y40.835 E34.09431
G1 X141.785 Y40.835 E34.23960
G1 X141.785 Y28.686 E34.38418
G1 X142.022 Y28.863 F9000.000
G1 X153.757 Y28.863 E34.52383 F1200.000
G1 X153.757 Y40.598 E34.66349
G1 X142.022 Y40.598 E34.80314
G1 X142.022 Y28.923 E34.94209
G1 X142.259 Y29.100 F9000.000
G1 X153.520 Y29.100 E35.07610 F1200.000
G1 X153.520 Y40.361 E35.21012
G1 X142.259 Y40.361 E35.34414
G1 X142.259 Y29.160 E35.47745
G1 X142.495 Y29.337 F9000.000
G1 X153.283 Y29.337 E35.60583 F1200.000
G1 X153.283 Y40.124 E35.73421
G1 X142.495 Y40.124 E35.86259
G1 X142.495 Y29.397 E35.99026
G1 X142.732 Y29.574 F9000.000
G1 X153.046 Y29.574 E36.11301 F1200.000
G1 X153.046 Y39.888 E36.23575
G1 X142.732 Y39.888 E36.35850
G1 X142.732 Y29.634 E36.48053
G1 X142.969 Y29.810 F9000.000
G1 X152.809 Y29.810 E36.59764 F1200.000
G1 X152.809 Y39.651 E36.71474
G1 X142.969 Y39.651 E36.83185
G1 X142.969 Y29.870 E36.94825
G1 X143.206 Y30.047 F9000.000
G1 X152.573 Y30.047 E37.05972 F1200.000
G1 X152.573 Y39.414 E37.17119
G1 X143.206 Y39.414 E37.28266
G1 X143.206 Y30.107 E37.39342
G1 X143.443 Y30.284 F9000.000
G1 X152.336 Y30.284 E37.49926 F1200.000
G1 X152.336 Y39.177 E37.60509
G1 X143.443 Y39.177 E37.71093
G1 X143.443 Y30.344 E37.81605
G1 X143.679 Y30.521 F9000.000
G1 X152.099 Y30.521 E37.91624 F1200.000
G1 X152.099 Y38.940 E38.01644
G1 X143.679 Y38.940 E38.11664
G1 X143.679 Y30.581 E38.21613
G1 X143.916 Y30.758 F9000.000
G1 X151.862 Y30.758 E38.31069 F1200.000
G1 X151.862 Y38.703 E38.40525
G1 X143.916 Y38.703 E38.49981
G1 X143.916 Y30.818 E38.59366
G1 X144.153 Y30.994 F9000.000
G1 X151.625 Y30.994 E38.68258 F1200.000
G1 X151.625 Y38.467 E38.77151
G1 X144.153 Y38.467 E38.86043
G1 X144.153 Y31.054 E38.94865
G1 X144.390 Y31.231 F9000.000
G1 X151.388 Y31.231 E39.03193 F1200.000
G1 X151.388 Y38.230 E39.11522
G1 X144.390 Y38.230 E39.19851
G1 X144.390 Y31.291 E39.28108
G1 X144.627 Y31.468 F9000.000
G1 X151.152 Y31.468 E39.35874 F1200.000
G1 X151.152 Y37.993 E39.43639
G1 X144.627 Y37.993 E39.51404
G1 X144.627 Y31.528 E39.59098
G1 X144.864 Y31.705 F9000.000
G1 X150.915 Y31.705 E39.66299 F1200.000
G1 X150.915 Y37.756 E39.73501
G1 X144.864 Y37.756 E39.80702
G1 X144.864 Y31.765 E39.87832
G1 X145.100 Y31.942 F9000.000
G1 X150.678 Y31.942 E39.94470 F1200.000
G1 X150.678 Y37.519 E40.01108
G1 X145.100 Y37.519 E40.07746
G1 X145.100 Y32.002 E40.14312
G1 X145.337 Y32.179 F9000.000
G1 X150.441 Y32.179 E40.20386 F1200.000
G1 X150.441 Y37.283 E40.26460
G1 X145.337 Y37.283 E40.32535
G1 X145.337 Y32.239 E40.38537
G1 X145.574 Y32.415 F9000.000
G1 X150.204 Y32.415 E40.44048 F1200.000
G1 X150.204 Y37.046 E40.49558
G1 X145.574 Y37.046 E40.55069
G1 X145.574 Y32.475 E40.60508
G1 X145.811 Y32.652 F9000.000
G1 X149.968 Y32.652 E40.65455 F1200.000
G1 X149.968 Y36.809 E40.70402
G1 X145.811 Y36.809 E40.75348
G1 X145.811 Y32.712 E40.80224
G1 X146.048 Y32.889 F9000.000
G1 X149.731 Y32.889 E40.84607 F1200.000
G1 X149.731 Y36.572 E40.88990
G1 X146.048 Y36.572 E40.93373
G1 X146.048 Y32.949 E40.97685
G1 X146.284 Y33.126 F9000.000
G1 X149.494 Y33.126 E41.01504 F1200.000
G1 X149.494 Y36.335 E41.05324
G1 X146.284 Y36.335 E41.09143
G1 X146.284 Y33.186 E41.12891
G1 X146.521 Y33.363 F9000.000
G1 X149.257 Y33.363 E41.16147 F1200.000
G1 X149.257 Y36.098 E41.19403
G1 X146.521 Y36.098 E41.22659
G1 X146.521 Y33.423 E41.25843
G1 X146.758 Y33.599 F9000.000
G1 X149.020 Y33.599 E41.28535 F1200.000
G1 X149.020 Y35.862 E41.31228
G1 X146.758 Y35.862 E41.33920
G1 X146.758 Y33.659 E41.36540
G1 X146.995 Y33.836 F9000.000
G1 X148.783 Y33.836 E41.38669 F1200.000
G1 X148.783 Y35.625 E41.40797
G1 X146.995 Y35.625 E41.42926
G1 X146.995 Y33.896 E41.44983
G1 X147.232 Y34.073 F9000.000
G1 X148.547 Y34.073 E41.46548 F1200.000
G1 X148.547 Y35.388 E41.48113
G1 X147.232 Y35.388 E41.49677
G1 X147.232 Y34.133 E41.51171
G1 X147.469 Y34.310 F9000.000
G1 X148.310 Y34.310 E41.52172 F1200.000
G1 X148.310 Y35.151 E41.53173
G1 X147.469 Y35.151 E41.54174
G1 X147.469 Y34.370 E41.55104
G1 X147.705 Y34.547 F9000.000
G1 X148.073 Y34.547 E41.55541 F1200.000
G1 X148.073 Y34.914 E41.55979
G1 X147.705 Y34.914 E41.56416
G1 X147.705 Y34.607 E41.56782
G1 E39.56782 F2400.000
G92 E0
G1 Z0.600 F9000.000
G1 X133.089 Y34.607 F9000.000
G1 Z0.500 F9000.000
G1 E2.00000 F2400.000
G1 X133.089 Y19.931 E2.17646 F2400.000
G1 X162.689 Y19.931 E2.53237
G1 X162.689 Y49.531 E2.88827
