; generated by Slic3r 1.2.1-dev on 2014-11-07 at 17:25:00

; external perimeters extrusion width = 0.40mm
; perimeters extrusion width = 0.48mm
; infill extrusion width = 0.48mm
; solid infill extrusion width = 0.48mm
; top infill extrusion width = 0.48mm

M190 S70 ; wait for bed temperature to be reached
M104 S250 T1 ; set temperature
G28 ; home all axes
M109 S250 T1 ; wait for temperature to be reached
G21 ; set units to millimeters
G90 ; use absolute coordinates
M82 ; use absolute distances for extrusion
G92 E0
T0
G92 E0
G1 E-2.00000 F2400.000
G92 E0
G1 Z0.300 F9000.000
G1 Z0.600 F9000.000
G1 X72.893 Y74.799 F9000.000
G1 Z0.300 F9000.000
G1 E2.00000 F2400.000
G1 X74.671 Y73.147 E2.02888 F2400.000
G1 X76.887 Y72.157 E2.05777
G1 X78.760 Y71.917 E2.08024
G1 X108.760 Y71.917 E2.43726
G1 X111.154 Y72.314 E2.46615
G1 X113.292 Y73.464 E2.49503 F2400.000
G1 X114.944 Y75.242 E2.52392
G1 X115.933 Y77.458 E2.55280
G1 X116.174 Y79.331 E2.57527
G1 X116.174 Y109.331 E2.93229
G1 X115.776 Y111.725 E2.96118
G1 X114.627 Y113.863 E2.99006
G1 X112.849 Y115.515 E3.01895
G1 X110.632 Y116.504 E3.04783
G1 X108.760 Y116.744 E3.07030
G1 X78.760 Y116.744 E3.42733
G1 X76.365 Y116.347 E3.45621
G1 X74.228 Y115.198 E3.48510
G1 X72.576 Y113.420 E3.51398
G1 X71.586 Y111.203 E3.54286
G1 X71.346 Y109.331 E3.56533
G1 X71.346 Y79.331 E3.92236
G1 X71.743 Y76.936 E3.95124
G1 X72.857 Y74.865 E3.97923
G1 X73.072 Y74.982 F9000.000
G1 X73.127 Y74.882 E3.98059 F2400.000
G1 X74.898 Y73.280 E4.00901
G1 X77.096 Y72.348 E4.03743
G1 X78.760 Y72.153 E4.05737
G1 X108.760 Y72.153 E4.41439
G1 X111.115 Y72.550 E4.44281
G1 X113.209 Y73.698 E4.47123 F2400.000
G1 X114.810 Y75.469 E4.49965
G1 X115.743 Y77.667 E4.52807
G1 X115.938 Y79.331 E4.54800
G1 X115.938 Y109.331 E4.90503
G1 X115.541 Y111.685 E4.93344
G1 X114.393 Y113.780 E4.96186
G1 X112.622 Y115.381 E4.99028
G1 X110.423 Y116.313 E5.01870
G1 X108.760 Y116.509 E5.03863
G1 X78.760 Y116.509 E5.39566
G1 X76.405 Y116.112 E5.42408
G1 X74.311 Y114.964 E5.45250
G1 X72.709 Y113.193 E5.48092
G1 X71.777 Y110.994 E5.50934
G1 X71.582 Y109.331 E5.52927
G1 X71.582 Y79.331 E5.88629
G1 X71.979 Y76.976 E5.91471
G1 X73.036 Y75.048 E5.94088
G1 E0.94088 F2400.000
G92 E0
G1 Z0.600 F9000.000
T1
G92 E0
G1 X73.248 Y75.167 F9000.000
G1 Z0.300 F9000.000
G1 X73.360 Y74.967 E0.00273 F2400.000
G1 X75.124 Y73.416 E0.03067
G1 X77.304 Y72.543 E0.05862
G1 X78.760 Y72.388 E0.07605
G1 X108.760 Y72.388 E0.43307
G1 X111.074 Y72.785 E0.46102
G1 X113.124 Y73.931 E0.48896 F2400.000
G1 X114.674 Y75.695 E0.51691
G1 X115.548 Y77.874 E0.54485
G1 X115.702 Y79.331 E0.56228
G1 X115.702 Y109.331 E0.91931
G1 X115.305 Y111.645 E0.94725
G1 X114.159 Y113.695 E0.97520
G1 X112.396 Y115.245 E1.00314
G1 X110.216 Y116.119 E1.03109
G1 X108.760 Y116.273 E1.04851
G1 X78.760 Y116.273 E1.40554
G1 X76.445 Y115.876 E1.43348
G1 X74.396 Y114.730 E1.46143
G1 X72.846 Y112.967 E1.48938
G1 X71.972 Y110.787 E1.51732
G1 X71.817 Y109.331 E1.53475
G1 X71.817 Y79.331 E1.89177
G1 X72.214 Y77.016 E1.91972
G1 X73.219 Y75.219 E1.94422
G1 X73.430 Y75.340 F9000.000
G1 X73.594 Y75.053 E1.94815 F2400.000
G1 X75.350 Y73.556 E1.97561
G1 X77.509 Y72.742 E2.00308
G1 X78.760 Y72.624 E2.01803
G1 X108.760 Y72.624 E2.37505
G1 X111.033 Y73.021 E2.40251
G1 X113.037 Y74.165 E2.42998 F2400.000
G1 X114.535 Y75.921 E2.45744
G1 X115.349 Y78.080 E2.48491
G1 X115.467 Y79.331 E2.49986
G1 X115.467 Y109.331 E2.85688
G1 X115.070 Y111.604 E2.88434
G1 X113.926 Y113.608 E2.91181
G1 X112.170 Y115.106 E2.93927
G1 X110.011 Y115.920 E2.96674
G1 X108.760 Y116.038 E2.98169
G1 X78.760 Y116.038 E3.33871
G1 X76.487 Y115.641 E3.36617
G1 X74.482 Y114.496 E3.39364
G1 X72.985 Y112.741 E3.42110
G1 X72.171 Y110.581 E3.44857
G1 X72.053 Y109.331 E3.46352
G1 X72.053 Y79.331 E3.82054
G1 X72.450 Y77.057 E3.84800
G1 X73.401 Y75.392 E3.87083
G1 E-1.12917 F2400.000
G92 E0
G1 Z0.600 F9000.000
T0
G92 E0
G1 X73.610 Y75.514 F9000.000
G1 Z0.300 F9000.000
G1 E5.00000 F2400.000
G1 X73.828 Y75.142 E5.00513 F2400.000
G1 X75.575 Y73.698 E5.03211
G1 X78.760 Y72.859 E5.07130
G1 X108.760 Y72.859 E5.42833
G1 X110.991 Y73.256 E5.45530
G1 X112.949 Y74.398 E5.48228 F2400.000
G1 X114.393 Y76.145 E5.50925
G1 X115.231 Y79.331 E5.54845
G1 X115.231 Y109.331 E5.90547
G1 X114.834 Y111.562 E5.93244
G1 X113.692 Y113.520 E5.95942
G1 X111.945 Y114.964 E5.98639
G1 X108.760 Y115.802 E6.02559
G1 X78.760 Y115.802 E6.38261
G1 X76.528 Y115.405 E6.40959
G1 X74.571 Y114.263 E6.43656
G1 X73.127 Y112.516 E6.46353
G1 X72.289 Y109.331 E6.50273
G1 X72.289 Y79.331 E6.85975
G1 X72.686 Y77.099 E6.88673
G1 X73.572 Y75.579 E6.90767
G1 X73.780 Y75.703 F9000.000
G1 X74.061 Y75.232 E6.91420 F2400.000
G1 X75.799 Y73.843 E6.94068
G1 X78.760 Y73.095 E6.97702
G1 X108.760 Y73.095 E7.33405
G1 X110.949 Y73.492 E7.36052
G1 X112.859 Y74.632 E7.38699 F2400.000
G1 X114.248 Y76.370 E7.41347
G1 X114.995 Y79.331 E7.44981
G1 X114.995 Y109.331 E7.80684
G1 X114.599 Y111.520 E7.83331
G1 X113.459 Y113.430 E7.85978
G1 X111.721 Y114.818 E7.88626
G1 X108.760 Y115.566 E7.92260
G1 X78.760 Y115.566 E8.27963
G1 X76.571 Y115.170 E8.30610
G1 X74.661 Y114.030 E8.33258
G1 X73.272 Y112.292 E8.35905
G1 X72.524 Y109.331 E8.39540
G1 X72.524 Y79.331 E8.75242
G1 X72.921 Y77.142 E8.77889
G1 X73.741 Y75.767 E8.79795
G1 E3.79795 F2400.000
G92 E0
G1 Z0.600 F9000.000
T1
G92 E0
G1 X78.910 Y79.481 F9000.000
G1 Z0.300 F9000.000
G1 E5.00000 F2400.000
G1 X108.610 Y79.481 E5.35345 F2400.000
G1 X108.610 Y109.181 E5.70691
G1 X78.910 Y109.181 E6.06036 F2400.000
G1 X78.910 Y79.541 E6.41310
G1 E4.41310 F2400.000
G92 E0
G1 Z0.600 F9000.000
G1 X108.810 Y108.834 F9000.000
G1 X79.145 Y79.716 F9000.000
G1 Z0.300 F9000.000
G1 E2.00000 F2400.000
G1 X108.374 Y79.716 E2.34785 F2400.000
G1 X108.374 Y108.945 E2.69569
G1 X79.205 Y108.945 E3.04283
G1 X79.381 Y108.709 F9000.000
G1 X79.381 Y79.952 E3.38506 F2400.000
G1 X108.139 Y79.952 E3.72730
G1 X108.139 Y108.709 E4.06954
G1 X79.441 Y108.709 E4.41106 F2400.000
G1 E2.41106 F2400.000
G92 E0
G1 Z0.600 F9000.000
G1 X79.617 Y88.218 F9000.000
G1 Z0.300 F9000.000
G1 E2.00000 F2400.000
G1 X79.617 Y80.188 E2.09556 F2400.000
G1 X107.903 Y80.188 E2.43219 F2400.000
G1 X107.903 Y108.474 E2.76882
G1 X79.617 Y108.474 E3.10545
G1 X79.617 Y88.278 E3.34581
G1 E1.34581 F2400.000
G92 E0
G1 Z0.600 F9000.000
G1 X83.610 Y88.278 F9000.000
G1 Z0.300 F9000.000
G1 E2.00000 F2400.000
G1 X83.610 Y84.181 E2.04876 F2400.000
G1 X103.910 Y84.181 E2.29034 F2400.000
G1 X103.910 Y104.481 E2.53193
G1 X83.610 Y104.481 E2.77352
G1 X83.610 Y88.338 E2.96563
G1 E0.96563 F2400.000
G92 E0
G1 Z0.600 F9000.000
G1 X83.610 Y83.781 F9000.000
G1 X83.374 Y88.338 F9000.000
G1 Z0.300 F9000.000
G1 E2.00000 F2400.000
G1 X83.374 Y83.945 E2.05227 F2400.000
G1 X104.145 Y83.945 E2.29947
G1 X104.145 Y104.716 E2.54666
G1 X83.374 Y104.716 E2.79386 F2400.000
G1 X83.374 Y88.398 E2.98807
G1 X83.139 Y88.398 F9000.000
G1 X83.139 Y83.709 E3.04386 F2400.000
G1 X104.381 Y83.709 E3.29666 F2400.000
G1 X104.381 Y104.952 E3.54946
G1 X83.139 Y104.952 E3.80227
G1 X83.139 Y88.458 E3.99856
G1 X82.903 Y88.458 F9000.000
G1 X82.903 Y83.474 E4.05787 F2400.000
G1 X104.617 Y83.474 E4.31629
G1 X104.617 Y105.188 E4.57470
G1 X82.903 Y105.188 E4.83311 F2400.000
G1 X82.903 Y88.518 E5.03149
G1 E3.03149 F2400.000
G92 E0
G1 Z0.600 F9000.000
G1 X79.841 Y80.411 F9000.000
G1 Z0.300 F9000.000
G1 E2.00000 F2400.000
G1 X107.679 Y80.411 E2.33130 F2400.000
G1 X107.679 Y108.250 E2.66261
G1 X79.841 Y108.250 E2.99391
G1 X79.841 Y80.471 E3.32450
G1 X80.077 Y80.648 F9000.000
G1 X107.442 Y80.648 E3.65016 F2400.000
G1 X107.442 Y108.013 E3.97583
G1 X80.077 Y108.013 E4.30150
G1 X80.077 Y80.708 E4.62645
G1 X80.314 Y80.885 F9000.000
G1 X107.206 Y80.885 E4.94648 F2400.000
G1 X107.206 Y107.776 E5.26651
G1 X80.314 Y107.776 E5.58654
G1 X80.314 Y80.945 E5.90585
G1 X80.551 Y81.122 F9000.000
G1 X106.969 Y81.122 E6.22025 F2400.000
G1 X106.969 Y107.540 E6.53464
G1 X80.551 Y107.540 E6.84903
G1 X80.551 Y81.182 E7.16271
G1 X80.788 Y81.359 F9000.000
G1 X106.732 Y81.359 E7.47147 F2400.000
G1 X106.732 Y107.303 E7.78022
G1 X80.788 Y107.303 E8.08898
G1 X80.788 Y81.419 E8.39702
G1 X81.025 Y81.595 F9000.000
G1 X106.495 Y81.595 E8.70014 F2400.000
G1 X106.495 Y107.066 E9.00326
G1 X81.025 Y107.066 E9.30638
G1 X81.025 Y81.655 E9.60878
G1 X81.495 Y82.066 F9000.000
G1 X106.025 Y82.066 E9.90071 F2400.000
G1 X106.025 Y106.595 E10.19263
G1 X81.495 Y106.595 E10.48455
G1 X81.495 Y82.126 E10.77576
G1 X81.732 Y82.303 F9000.000
G1 X105.788 Y82.303 E11.06204 F2400.000
G1 X105.788 Y106.359 E11.34833
G1 X81.732 Y106.359 E11.63461
G1 X81.732 Y82.363 E11.92018
G1 X81.969 Y82.540 F9000.000
G1 X105.551 Y82.540 E12.20083 F2400.000
G1 X105.551 Y106.122 E12.48148
G1 X81.969 Y106.122 E12.76213
G1 X81.969 Y82.600 E13.04206
G1 X82.206 Y82.776 F9000.000
G1 X105.314 Y82.776 E13.31708 F2400.000
G1 X105.314 Y105.885 E13.59209
G1 X82.206 Y105.885 E13.86710
G1 X82.206 Y82.836 E14.14140
G1 X82.442 Y83.013 F9000.000
G1 X105.077 Y83.013 E14.41077 F2400.000
G1 X105.077 Y105.648 E14.68015
G1 X82.442 Y105.648 E14.94952
G1 X82.442 Y83.073 E15.21818
G1 X82.679 Y83.250 F9000.000
G1 X104.841 Y83.250 E15.48192 F2400.000
G1 X104.841 Y105.411 E15.74566
G1 X82.679 Y105.411 E16.00940
G1 X82.679 Y83.310 E16.27242
G1 E14.27242 F2400.000
G92 E0
G1 Z0.600 F9000.000
G1 Z0.900 F9000.000
G1 X78.960 Y83.310 F9000.000
G1 Z0.600 F9000.000
G1 E2.00000 F2400.000
G1 X78.960 Y79.531 E2.06407 F2400.000
G1 X108.560 Y79.531 E2.56584
G1 X108.560 Y109.131 E3.06761
G1 X78.960 Y109.131 E3.56938 F2400.000
G1 X78.960 Y83.370 E4.00606
G1 E2.00606 F2400.000
G92 E0
G1 Z0.900 F9000.000
G1 X79.760 Y80.331 F9000.000
G1 X79.760 Y108.331 F9000.000
G1 X107.760 Y108.331 F9000.000
G1 X108.760 Y108.784 F9000.000
G1 X79.337 Y83.370 F9000.000
G1 Z0.600 F9000.000
G1 E2.00000 F2400.000
G1 X79.337 Y79.908 E2.07325 F2400.000
G1 X108.183 Y79.908 E2.68353 F2400.000
G1 X108.183 Y108.753 E3.29382
G1 X79.337 Y108.753 E3.90410
G1 X79.337 Y83.430 E4.43987
G1 X79.756 Y83.430 F9000.000
G1 X79.756 Y80.327 E4.50553 F2400.000
G1 X107.764 Y80.327 E5.09809
G1 X107.764 Y108.335 E5.69065
G1 X79.756 Y108.335 E6.28321 F2400.000
G1 X79.756 Y83.490 E6.80884
G1 E4.80884 F2400.000
G92 E0
G1 Z0.900 F9000.000
G1 X104.760 Y106.831 F9000.000
G1 X96.136 Y107.916 F9000.000
G1 Z0.600 F9000.000
G1 E2.00000 F2400.000
G1 X80.175 Y107.916 E2.33770 F2400.000
G1 X80.175 Y80.746 E2.91253
G1 X107.345 Y80.746 E3.48737 F2400.000
G1 X107.345 Y107.916 E4.06220
G1 X96.196 Y107.916 E4.29807
G1 E2.29807 F2400.000
G92 E0
G1 Z0.900 F9000.000
G1 X96.196 Y104.531 F9000.000
G1 Z0.600 F9000.000
G1 E2.00000 F2400.000
G1 X83.560 Y104.531 E2.21421 F2400.000
G1 X83.560 Y84.131 E2.56002
G1 X103.960 Y84.131 E2.90584 F2400.000
G1 X103.960 Y104.531 E3.25165
G1 X96.256 Y104.531 E3.38224
G1 E1.38224 F2400.000
G92 E0
G1 Z0.900 F9000.000
G1 X104.760 Y105.331 F9000.000
G1 X82.760 Y105.331 F9000.000
G1 X82.760 Y83.331 F9000.000
G1 X83.456 Y83.744 F9000.000
G1 X96.256 Y104.908 F9000.000
G1 Z0.600 F9000.000
G1 E2.00000 F2400.000
G1 X83.183 Y104.908 E2.27660 F2400.000
G1 X83.183 Y83.753 E2.72417
G1 X104.337 Y83.753 E3.17173
G1 X104.337 Y104.908 E3.61930
G1 X96.316 Y104.908 E3.78900 F2400.000
G1 X96.316 Y105.327 F9000.000
G1 X82.764 Y105.327 E4.07573 F2400.000
G1 X82.764 Y83.335 E4.54102
G1 X104.756 Y83.335 E5.00631 F2400.000
G1 X104.756 Y105.327 E5.47160
G1 X96.376 Y105.327 E5.64889
G1 X96.376 Y105.746 F9000.000
G1 X82.345 Y105.746 E5.94575 F2400.000
G1 X82.345 Y82.916 E6.42877
G1 X105.175 Y82.916 E6.91178
G1 X105.175 Y105.746 E7.39480
G1 X96.436 Y105.746 E7.57968 F2400.000
G1 E5.57968 F2400.000
G92 E0
G1 Z0.900 F9000.000
G1 X105.042 Y106.029 F9000.000
G1 Z0.600 F9000.000
G1 E2.00000 F2400.000
G1 X103.440 Y107.632 E2.04795 F2400.000
G1 X102.843 Y107.632 E2.06058
G1 X104.445 Y106.029 E2.10853
G1 X103.849 Y106.029 E2.12116
G1 X102.246 Y107.632 E2.16911
G1 X101.649 Y107.632 E2.18174
G1 X103.252 Y106.029 E2.22970
G1 X102.655 Y106.029 E2.24232
G1 X101.052 Y107.632 E2.29028
G1 X100.455 Y107.632 E2.30291
G1 X102.058 Y106.029 E2.35086
G1 X101.461 Y106.029 E2.36349
G1 X99.858 Y107.632 E2.41144
G1 X99.261 Y107.632 E2.42407
G1 X100.864 Y106.029 E2.47202
G1 X100.267 Y106.029 E2.48465
G1 X98.664 Y107.632 E2.53260
G1 X98.067 Y107.632 E2.54523
G1 X99.670 Y106.029 E2.59318
G1 X99.073 Y106.029 E2.60581
G1 X97.471 Y107.632 E2.65376
G1 X96.874 Y107.632 E2.66639
G1 X98.476 Y106.029 E2.71434
G1 X97.879 Y106.029 E2.72697
G1 X96.277 Y107.632 E2.77493
G1 X95.680 Y107.632 E2.78755
G1 X97.282 Y106.029 E2.83551
G1 X96.686 Y106.029 E2.84814
G1 X95.083 Y107.632 E2.89609
G1 X94.486 Y107.632 E2.90872
G1 X96.089 Y106.029 E2.95667
G1 X95.492 Y106.029 E2.96930
G1 X93.889 Y107.632 E3.01725
G1 X93.292 Y107.632 E3.02988
G1 X94.895 Y106.029 E3.07783
G1 X94.298 Y106.029 E3.09046
G1 X92.695 Y107.632 E3.13841
G1 X92.098 Y107.632 E3.15104
G1 X93.701 Y106.029 E3.19899
G1 X93.104 Y106.029 E3.21162
G1 X91.501 Y107.632 E3.25957
G1 X90.905 Y107.632 E3.27220
G1 X92.507 Y106.029 E3.32016
G1 X91.910 Y106.029 E3.33278
G1 X90.308 Y107.632 E3.38074
G1 X89.711 Y107.632 E3.39337
G1 X91.313 Y106.029 E3.44132
G1 X90.716 Y106.029 E3.45395
G1 X89.114 Y107.632 E3.50190
G1 X88.517 Y107.632 E3.51453
G1 X90.119 Y106.029 E3.56248
G1 X89.523 Y106.029 E3.57511
G1 X87.920 Y107.632 E3.62306
G1 X87.323 Y107.632 E3.63569
G1 X88.926 Y106.029 E3.68364
G1 X88.329 Y106.029 E3.69627
G1 X86.726 Y107.632 E3.74422
G1 X86.129 Y107.632 E3.75685
G1 X87.732 Y106.029 E3.80480
G1 X87.135 Y106.029 E3.81743
G1 X85.532 Y107.632 E3.86539
G1 X84.935 Y107.632 E3.87801
G1 X86.538 Y106.029 E3.92597
G1 X85.941 Y106.029 E3.93860
G1 X84.338 Y107.632 E3.98655
G1 X83.742 Y107.632 E3.99918
G1 X85.344 Y106.029 E4.04713
G1 X84.747 Y106.029 E4.05976
G1 X83.145 Y107.632 E4.10771
G1 X82.548 Y107.632 E4.12034
G1 X84.150 Y106.029 E4.16829
G1 X83.553 Y106.029 E4.18092
G1 X81.951 Y107.632 E4.22887
G1 X81.354 Y107.632 E4.24150
G1 X82.957 Y106.029 E4.28945
G1 X82.360 Y106.029 E4.30208
G1 X80.757 Y107.632 E4.35003
G1 X80.459 Y107.334 E4.35896
G1 X82.061 Y105.731 E4.40692
G1 X82.061 Y105.134 E4.41955
G1 X80.459 Y106.737 E4.46750
G1 X80.459 Y106.140 E4.48013
G1 X82.061 Y104.537 E4.52808
G1 X82.061 Y103.940 E4.54071
G1 X80.459 Y105.543 E4.58866
G1 X80.459 Y104.946 E4.60129
G1 X82.061 Y103.343 E4.64924
G1 X82.061 Y102.746 E4.66187
G1 X80.459 Y104.349 E4.70982
G1 X80.459 Y103.752 E4.72245
G1 X82.061 Y102.149 E4.77040
G1 X82.061 Y101.553 E4.78303
G1 X80.459 Y103.155 E4.83098
G1 X80.459 Y102.558 E4.84361
G1 X82.061 Y100.956 E4.89157
G1 X82.061 Y100.359 E4.90419
G1 X80.459 Y101.961 E4.95215
G1 X80.459 Y101.364 E4.96478
G1 X82.061 Y99.762 E5.01273
G1 X82.061 Y99.165 E5.02536
G1 X80.459 Y100.768 E5.07331
G1 X80.459 Y100.171 E5.08594
G1 X82.061 Y98.568 E5.13389
G1 X82.061 Y97.971 E5.14652
G1 X80.459 Y99.574 E5.19447
G1 X80.459 Y98.977 E5.20710
G1 X82.061 Y97.374 E5.25505
G1 X82.061 Y96.777 E5.26768
G1 X80.459 Y98.380 E5.31563
G1 X80.459 Y97.783 E5.32826
G1 X82.061 Y96.180 E5.37621
G1 X82.061 Y95.583 E5.38884
G1 X80.459 Y97.186 E5.43680
G1 X80.459 Y96.589 E5.44942
G1 X82.061 Y94.986 E5.49738
G1 X82.061 Y94.390 E5.51001
G1 X80.459 Y95.992 E5.55796
G1 X80.459 Y95.395 E5.57059
G1 X82.061 Y93.793 E5.61854
G1 X82.061 Y93.196 E5.63117
G1 X80.459 Y94.798 E5.67912
G1 X80.459 Y94.201 E5.69175
G1 X82.061 Y92.599 E5.73970
G1 X82.061 Y92.002 E5.75233
G1 X80.459 Y93.605 E5.80028
G1 X80.459 Y93.008 E5.81291
G1 X82.061 Y91.405 E5.86086
G1 X82.061 Y90.808 E5.87349
G1 X80.459 Y92.411 E5.92144
G1 X80.459 Y91.814 E5.93407
G1 X82.061 Y90.211 E5.98203
G1 X82.061 Y89.614 E5.99465
G1 X80.459 Y91.217 E6.04261
G1 X80.459 Y90.620 E6.05524
G1 X82.061 Y89.017 E6.10319
G1 X82.061 Y88.420 E6.11582
G1 X80.459 Y90.023 E6.16377
G1 X80.459 Y89.426 E6.17640
G1 X82.061 Y87.824 E6.22435
G1 X82.061 Y87.227 E6.23698
G1 X80.459 Y88.829 E6.28493
G1 X80.459 Y88.232 E6.29756
G1 X82.061 Y86.630 E6.34551
G1 X82.061 Y86.033 E6.35814
G1 X80.459 Y87.635 E6.40609
G1 X80.459 Y87.039 E6.41872
G1 X82.061 Y85.436 E6.46667
G1 X82.061 Y84.839 E6.47930
G1 X80.459 Y86.442 E6.52726
G1 X80.459 Y85.845 E6.53988
G1 X82.061 Y84.242 E6.58784
G1 X82.061 Y83.645 E6.60047
G1 X80.459 Y85.248 E6.64842
G1 X80.459 Y84.651 E6.66105
