; generated by Slic3r 1.2.9 on 2016-03-06 at 13:07:06

; external perimeters extrusion width = 0.40mm
; perimeters extrusion width = 0.48mm
; infill extrusion width = 0.48mm
; solid infill extrusion width = 0.48mm
; top infill extrusion width = 0.48mm

; external perimeters extrusion width = 0.50mm
; perimeters extrusion width = 0.72mm
; infill extrusion width = 0.72mm
; solid infill extrusion width = 0.72mm
; top infill extrusion width = 0.72mm

M190 S75 ; set bed temperature
M104 S265 T0 ; set temperature
M104 S240 T1 ; set temperature
G28 ; home all axes
M109 S265 T0 ; wait for temperature to be reached
M109 S240 T1 ; wait for temperature to be reached
G21 ; set units to millimeters
G90 ; use absolute coordinates
M82 ; use absolute distances for extrusion
G92 E0
T0
G92 E0
G1 Z0.300 F9000.000
G1 E-3.00000 F2400.00000
G92 E0
G1 Z0.600 F9000.000
G1 X70.197 Y68.532 F9000.000
G1 Z0.300 F9000.000
G1 E3.00000 F2400.00000
G1 X72.661 Y66.413 E3.04681 F1800.000
G1 X75.566 Y64.957 E3.09361
G1 X80.004 Y64.192 E3.15848
G1 X105.017 Y64.192 E3.51874
G1 X110.020 Y64.197 E3.59079 F1800.000
G1 X113.245 Y64.598 E3.63760
G1 X116.275 Y65.773 E3.68440
G1 X118.928 Y67.649 E3.73121
G1 X121.045 Y70.115 E3.77802
G1 X122.498 Y73.022 E3.82483
G1 X123.259 Y77.449 E3.88951
G1 X123.259 Y82.449 E3.96152
G1 X122.860 Y85.674 E4.00833
G1 X121.033 Y89.799 E4.07332
G1 X116.033 Y97.299 E4.20314
G1 X114.378 Y99.319 E4.24076
G1 X101.878 Y111.819 E4.49537
G1 X99.851 Y113.479 E4.53310
G1 X92.348 Y118.474 E4.66292
G1 X89.443 Y119.930 E4.70972
G1 X85.004 Y120.695 E4.77459
G1 X80.004 Y120.695 E4.84661
G1 X76.779 Y120.297 E4.89341
G1 X73.748 Y119.125 E4.94022
G1 X71.093 Y117.251 E4.98703
G1 X68.974 Y114.787 E5.03383
G1 X67.518 Y111.882 E5.08064
G1 X66.753 Y107.444 E5.14551
G1 X66.753 Y77.444 E5.57759
G1 X67.151 Y74.218 E5.62440
G1 X68.323 Y71.187 E5.67121
G1 X70.162 Y68.581 E5.71715
G1 X70.411 Y68.759 F9000.000
G1 X70.489 Y68.651 E5.71907 F1800.000
G1 X72.945 Y66.579 E5.76535
G1 X75.836 Y65.176 E5.81163
G1 X80.004 Y64.487 E5.87248
G1 X105.017 Y64.487 E6.23274
G1 X110.020 Y64.492 E6.30479 F1800.000
G1 X113.208 Y64.894 E6.35107
G1 X116.199 Y66.068 E6.39735
G1 X118.809 Y67.941 E6.44363
G1 X120.878 Y70.400 E6.48991
G1 X122.279 Y73.292 E6.53619
G1 X122.963 Y77.449 E6.59686
G1 X122.963 Y82.449 E6.66888
G1 X122.565 Y85.637 E6.71516
G1 X120.787 Y89.635 E6.77818
G1 X115.787 Y97.135 E6.90800
G1 X114.169 Y99.110 E6.94478
G1 X101.669 Y111.610 E7.19939
G1 X99.687 Y113.233 E7.23628
G1 X92.185 Y118.228 E7.36610
G1 X89.310 Y119.664 E7.41238
G1 X85.004 Y120.400 E7.47529
G1 X80.004 Y120.400 E7.54730
G1 X76.816 Y120.001 E7.59358
G1 X73.824 Y118.831 E7.63986
G1 X71.211 Y116.959 E7.68614
G1 X69.140 Y114.503 E7.73242
G1 X67.737 Y111.612 E7.77870
G1 X67.048 Y107.444 E7.83955
G1 X67.048 Y77.444 E8.27164
G1 X67.447 Y74.255 E8.31792
G1 X68.618 Y71.263 E8.36420
G1 X70.376 Y68.808 E8.40769
G1 E-1.59231 F2400.00000
G92 E0
G1 Z0.600 F9000.000
T1
G92 E0
G1 X23.573 Y67.988 F9000.000
G1 Z0.300 F9000.000
G1 X23.731 Y67.771 E0.00386 F1800.000
G1 X26.180 Y65.748 E0.04961
G1 X29.055 Y64.399 E0.09535
G1 X32.954 Y63.783 E0.15221
G1 X57.967 Y63.783 E0.51246
G1 X62.969 Y63.788 E0.58452 F1800.000
G1 X66.120 Y64.189 E0.63026
G1 X69.072 Y65.362 E0.67601
G1 X71.639 Y67.233 E0.72176
G1 X73.659 Y69.684 E0.76750
G1 X75.006 Y72.561 E0.81325
G1 X75.618 Y76.449 E0.86994
G1 X75.618 Y81.449 E0.94195
G1 X75.219 Y84.600 E0.98770
G1 X73.491 Y88.471 E1.04876
G1 X68.491 Y95.971 E1.17859
G1 X66.910 Y97.901 E1.21452
G1 X54.410 Y110.401 E1.46913
G1 X52.473 Y111.987 E1.50518
G1 X44.971 Y116.982 E1.63500
G1 X42.127 Y118.397 E1.68075
G1 X37.954 Y119.104 E1.74170
G1 X32.954 Y119.104 E1.81372
G1 X29.803 Y118.706 E1.85946
G1 X26.850 Y117.536 E1.90521
G1 X24.282 Y115.667 E1.95096
G1 X22.259 Y113.218 E1.99670
G1 X20.909 Y110.343 E2.04245
G1 X20.294 Y106.444 E2.09931
G1 X20.294 Y76.444 E2.53140
G1 X20.692 Y73.293 E2.57714
G1 X21.862 Y70.340 E2.62289
G1 X23.529 Y68.048 E2.66370
G1 X23.774 Y68.229 F9000.000
G1 X24.023 Y67.893 E2.66972 F1800.000
G1 X26.463 Y65.920 E2.71493
G1 X29.322 Y64.624 E2.76014
G1 X32.954 Y64.079 E2.81303
G1 X57.966 Y64.079 E3.17328
G1 X62.969 Y64.084 E3.24533 F1800.000
G1 X66.082 Y64.485 E3.29054
G1 X68.994 Y65.657 E3.33575
G1 X71.516 Y67.525 E3.38096
G1 X73.488 Y69.968 E3.42616
G1 X74.780 Y72.828 E3.47137
G1 X75.322 Y76.449 E3.52410
G1 X75.322 Y81.449 E3.59611
G1 X74.924 Y84.562 E3.64132
G1 X73.245 Y88.307 E3.70043
G1 X68.245 Y95.807 E3.83026
G1 X66.701 Y97.692 E3.86536
G1 X54.201 Y110.192 E4.11996
G1 X52.310 Y111.741 E4.15517
G1 X44.807 Y116.736 E4.28499
G1 X41.995 Y118.130 E4.33020
G1 X37.954 Y118.809 E4.38920
G1 X32.954 Y118.809 E4.46122
G1 X29.841 Y118.410 E4.50642
G1 X26.928 Y117.241 E4.55163
G1 X24.404 Y115.376 E4.59684
G1 X22.430 Y112.935 E4.64205
G1 X21.135 Y110.076 E4.68725
G1 X20.589 Y106.444 E4.74015
G1 X20.589 Y76.444 E5.17224
G1 X20.988 Y73.330 E5.21745
G1 X22.157 Y70.417 E5.26265
G1 X23.729 Y68.290 E5.30076
G1 E-4.69924 F3600.00000
G92 E0
G1 Z0.600 F9000.000
T0
G92 E0
G1 X71.022 Y69.472 F9000.000
G1 Z0.300 F9000.000
G1 E11.00000 F2400.00000
G1 X71.364 Y69.017 E11.00820 F1800.000
G1 X73.796 Y67.093 E11.05286
G1 X76.639 Y65.853 E11.09753
G1 X80.004 Y65.374 E11.14649
G1 X105.016 Y65.374 E11.50673
G1 X110.019 Y65.379 E11.57879 F1800.000
G1 X113.094 Y65.781 E11.62345
G1 X115.965 Y66.952 E11.66811
G1 X118.443 Y68.816 E11.71277
G1 X120.364 Y71.251 E11.75743
G1 X121.601 Y74.094 E11.80209
G1 X122.077 Y77.449 E11.85089
G1 X122.077 Y82.449 E11.92291
G1 X121.678 Y85.524 E11.96757
G1 X120.049 Y89.143 E12.02474
G1 X115.049 Y96.643 E12.15456
G1 X113.541 Y98.483 E12.18882
G1 X101.041 Y110.983 E12.44343
G1 X99.196 Y112.495 E12.47779
G1 X91.693 Y117.490 E12.60761
G1 X88.913 Y118.863 E12.65227
G1 X85.004 Y119.513 E12.70934
G1 X80.004 Y119.513 E12.78135
G1 X76.929 Y119.115 E12.82601
G1 X74.057 Y117.946 E12.87067
G1 X71.577 Y116.084 E12.91534
G1 X69.654 Y113.652 E12.96000
G1 X68.414 Y110.810 E13.00466
G1 X67.935 Y107.444 E13.05362
G1 X67.935 Y77.444 E13.48571
G1 X68.333 Y74.368 E13.53037
G1 X69.502 Y71.496 E13.57503
G1 X70.986 Y69.520 E13.61063
G1 X71.227 Y69.704 F9000.000
G1 X71.656 Y69.142 E13.62081 F1800.000
G1 X74.079 Y67.270 E13.66491
G1 X76.903 Y66.086 E13.70902
G1 X80.004 Y65.670 E13.75409
G1 X105.016 Y65.670 E14.11432
G1 X110.019 Y65.675 E14.18638 F1800.000
G1 X113.055 Y66.076 E14.23049
G1 X115.885 Y67.247 E14.27459
G1 X118.317 Y69.108 E14.31870
G1 X120.187 Y71.533 E14.36281
G1 X121.368 Y74.358 E14.40692
G1 X121.781 Y77.449 E14.45182
G1 X121.781 Y82.449 E14.52384
G1 X121.383 Y85.485 E14.56794
G1 X119.804 Y88.979 E14.62317
G1 X114.804 Y96.479 E14.75300
G1 X113.332 Y98.274 E14.78642
G1 X100.832 Y110.774 E15.04103
G1 X99.032 Y112.249 E15.07455
G1 X91.529 Y117.244 E15.20437
G1 X88.781 Y118.595 E15.24848
G1 X85.004 Y119.217 E15.30360
G1 X80.004 Y119.217 E15.37562
G1 X76.968 Y118.819 E15.41973
G1 X74.137 Y117.651 E15.46384
G1 X71.703 Y115.793 E15.50795
G1 X69.830 Y113.369 E15.55205
G1 X68.646 Y110.545 E15.59616
G1 X68.231 Y107.444 E15.64123
G1 X68.231 Y77.444 E16.07331
G1 X68.629 Y74.407 E16.11742
G1 X69.797 Y71.576 E16.16153
G1 X71.190 Y69.751 E16.19460
G1 E6.19460 F2400.00000
G92 E0
G1 Z0.600 F9000.000
T1
G92 E0
G1 X24.378 Y68.936 F9000.000
G1 Z0.300 F9000.000
G1 E11.00000 F3600.00000
G1 X24.897 Y68.269 E11.01217 F1800.000
G1 X27.311 Y66.449 E11.05572
G1 X30.117 Y65.322 E11.09927
G1 X32.954 Y64.966 E11.14046
G1 X57.966 Y64.966 E11.50069
G1 X62.968 Y64.970 E11.57274 F1800.000
G1 X65.965 Y65.372 E11.61629
G1 X68.753 Y66.541 E11.65984
G1 X71.139 Y68.399 E11.70339
G1 X72.958 Y70.815 E11.74694
G1 X74.082 Y73.622 E11.79049
G1 X74.435 Y76.449 E11.83152
G1 X74.435 Y81.449 E11.90354
G1 X74.037 Y84.446 E11.94709
G1 X72.508 Y87.815 E12.00038
G1 X67.508 Y95.315 E12.13021
G1 X66.073 Y97.065 E12.16279
G1 X53.573 Y109.565 E12.41740
G1 X51.818 Y111.003 E12.45008
G1 X44.315 Y115.998 E12.57990
G1 X41.600 Y117.327 E12.62345
G1 X37.954 Y117.922 E12.67664
G1 X32.954 Y117.922 E12.74866
G1 X29.957 Y117.523 E12.79221
G1 X27.168 Y116.356 E12.83576
G1 X24.780 Y114.501 E12.87931
G1 X22.960 Y112.087 E12.92285
G1 X21.833 Y109.281 E12.96640
G1 X21.476 Y106.444 E13.00760
G1 X21.476 Y76.444 E13.43968
G1 X21.875 Y73.446 E13.48323
G1 X23.042 Y70.657 E13.52678
G1 X24.332 Y68.996 E13.55708
G1 X24.568 Y69.182 F9000.000
G1 X25.188 Y68.398 E13.57147 F1800.000
G1 X27.592 Y66.631 E13.61445
G1 X30.378 Y65.562 E13.65743
G1 X32.954 Y65.261 E13.69479
G1 X57.965 Y65.261 E14.05501
G1 X62.968 Y65.266 E14.12707 F1800.000
G1 X65.925 Y65.667 E14.17005
G1 X68.671 Y66.836 E14.21303
G1 X71.010 Y68.690 E14.25602
G1 X72.775 Y71.096 E14.29900
G1 X73.841 Y73.883 E14.34198
G1 X74.140 Y76.449 E14.37918
G1 X74.140 Y81.449 E14.45119
G1 X73.741 Y84.406 E14.49417
G1 X72.262 Y87.651 E14.54555
G1 X67.262 Y95.151 E14.67537
G1 X65.864 Y96.856 E14.70711
G1 X53.364 Y109.356 E14.96172
G1 X51.654 Y110.757 E14.99356
G1 X44.152 Y115.752 E15.12338
G1 X41.469 Y117.059 E15.16636
G1 X37.954 Y117.626 E15.21764
G1 X32.954 Y117.626 E15.28965
G1 X29.997 Y117.228 E15.33263
G1 X27.250 Y116.062 E15.37562
G1 X24.909 Y114.210 E15.41860
G1 X23.141 Y111.806 E15.46158
G1 X22.073 Y109.020 E15.50456
G1 X21.772 Y106.444 E15.54192
G1 X21.772 Y76.444 E15.97400
G1 X22.170 Y73.486 E16.01698
G1 X23.336 Y70.739 E16.05997
G1 X24.521 Y69.241 E16.08748
G1 E6.08748 F3600.00000
G92 E0
G1 Z0.600 F9000.000
T0
G92 E0
G1 X71.804 Y70.428 F9000.000
G1 Z0.300 F9000.000
G1 E11.00000 F2400.00000
G1 X72.528 Y69.530 E11.01662 F1800.000
G1 X74.923 Y67.816 E11.05903
G1 X77.688 Y66.806 E11.10144
G1 X80.004 Y66.557 E11.13499
G1 X105.015 Y66.557 E11.49521
G1 X110.018 Y66.562 E11.56727 F1800.000
G1 X112.935 Y66.963 E11.60967
G1 X115.638 Y68.131 E11.65208
G1 X117.929 Y69.980 E11.69449
G1 X119.640 Y72.376 E11.73690
G1 X120.647 Y75.143 E11.77930
G1 X120.894 Y77.449 E11.81270
G1 X120.894 Y82.449 E11.88472
G1 X120.496 Y85.366 E11.92712
G1 X119.066 Y88.487 E11.97658
G1 X114.066 Y95.987 E12.10640
G1 X112.705 Y97.647 E12.13731
G1 X100.205 Y110.147 E12.39191
G1 X98.541 Y111.511 E12.42291
G1 X91.038 Y116.506 E12.55273
G1 X88.389 Y117.791 E12.59514
G1 X85.004 Y118.331 E12.64450
G1 X80.004 Y118.331 E12.71651
G1 X77.087 Y117.932 E12.75892
G1 X74.383 Y116.767 E12.80133
G1 X72.090 Y114.920 E12.84374
G1 X70.376 Y112.525 E12.88614
G1 X69.367 Y109.760 E12.92855
G1 X69.118 Y107.444 E12.96210
G1 X69.118 Y77.444 E13.39419
G1 X69.516 Y74.526 E13.43659
G1 X70.681 Y71.822 E13.47900
G1 X71.767 Y70.475 E13.50392
G1 X71.997 Y70.664 F9000.000
G1 X72.819 Y69.663 E13.52258 F1800.000
G1 X75.202 Y68.004 E13.56441
G1 X77.947 Y67.054 E13.60623
G1 X80.004 Y66.852 E13.63601
G1 X105.015 Y66.852 E13.99623
G1 X110.017 Y66.857 E14.06829 F1800.000
G1 X112.894 Y67.258 E14.11011
G1 X115.553 Y68.425 E14.15194
G1 X117.795 Y70.271 E14.19376
G1 X119.452 Y72.655 E14.23559
G1 X120.399 Y75.401 E14.27741
G1 X120.598 Y77.449 E14.30705
G1 X120.598 Y82.449 E14.37906
G1 X120.200 Y85.325 E14.42088
G1 X118.820 Y88.323 E14.46843
G1 X113.820 Y95.823 E14.59825
G1 X112.496 Y97.438 E14.62832
G1 X99.996 Y109.938 E14.88293
G1 X98.377 Y111.265 E14.91308
G1 X90.874 Y116.260 E15.04290
G1 X88.259 Y117.522 E15.08473
G1 X85.004 Y118.035 E15.13218
G1 X80.004 Y118.035 E15.20419
G1 X77.128 Y117.637 E15.24602
G1 X74.468 Y116.472 E15.28784
G1 X72.224 Y114.629 E15.32967
G1 X70.564 Y112.246 E15.37149
G1 X69.615 Y109.501 E15.41332
G1 X69.413 Y107.444 E15.44310
G1 X69.413 Y77.444 E15.87519
G1 X69.811 Y74.567 E15.91701
G1 X70.976 Y71.907 E15.95884
G1 X71.958 Y70.710 E15.98114
G1 E5.98114 F2400.00000
G92 E0
G1 Z0.600 F9000.000
T1
G92 E0
G1 X25.135 Y69.900 F9000.000
G1 Z0.300 F9000.000
G1 E11.00000 F3600.00000
G1 X26.059 Y68.798 E11.02071 F1800.000
G1 X28.431 Y67.195 E11.06195
G1 X31.153 Y66.307 E11.10318
G1 X32.954 Y66.148 E11.12923
G1 X57.964 Y66.148 E11.48945
G1 X62.967 Y66.153 E11.56150 F1800.000
G1 X65.802 Y66.554 E11.60274
G1 X68.417 Y67.720 E11.64397
G1 X70.609 Y69.561 E11.68520
G1 X72.210 Y71.934 E11.72644
G1 X73.096 Y74.657 E11.76767
G1 X73.253 Y76.449 E11.79358
G1 X73.253 Y81.449 E11.86560
G1 X72.855 Y84.284 E11.90683
G1 X71.524 Y87.159 E11.95247
G1 X66.524 Y94.659 E12.08230
G1 X65.237 Y96.229 E12.11152
G1 X52.737 Y108.729 E12.36613
G1 X51.163 Y110.019 E12.39544
G1 X43.660 Y115.014 E12.52526
G1 X41.080 Y116.254 E12.56650
G1 X37.954 Y116.739 E12.61205
G1 X32.954 Y116.739 E12.68406
G1 X30.119 Y116.341 E12.72530
G1 X27.503 Y115.178 E12.76653
G1 X25.309 Y113.339 E12.80777
G1 X23.706 Y110.967 E12.84900
G1 X22.818 Y108.245 E12.89024
G1 X22.659 Y106.444 E12.91629
G1 X22.659 Y76.444 E13.34837
G1 X23.057 Y73.609 E13.38961
G1 X24.220 Y70.993 E13.43084
G1 X25.087 Y69.958 E13.45029
G1 E3.45029 F3600.00000
G92 E0
G1 Z0.600 F9000.000
T0
G92 E0
G1 X105.187 Y77.629 F9000.000
G1 Z0.300 F9000.000
G1 E11.00000 F2400.00000
G1 X109.827 Y77.629 E11.06683 F1800.000
G1 X109.827 Y82.269 E11.13366
G1 X105.187 Y82.269 E11.20049 F1800.000
G1 X105.187 Y77.689 E11.26645
G1 X105.534 Y77.829 F9000.000
G1 X105.483 Y77.924 F9000.000
G1 X109.532 Y77.924 E11.32477 F1800.000
G1 X109.532 Y81.973 E11.38308
G1 X105.483 Y81.973 E11.44139 F1800.000
G1 X105.483 Y77.984 E11.49884
G1 E8.49884 F2400.00000
G92 E0
G1 Z0.600 F9000.000
G1 X109.236 Y80.080 F9000.000
G1 Z0.300 F9000.000
G1 E3.00000 F2400.00000
G1 X109.236 Y81.677 E3.02300 F1800.000
G1 X105.778 Y81.677 E3.07280 F1800.000
G1 X105.778 Y78.220 E3.12260
G1 X109.236 Y78.220 E3.17240
G1 X109.236 Y80.020 E3.19833
G1 X109.067 Y78.554 F9000.000
G1 X108.902 Y78.388 E3.20173 F1800.000
G1 X108.480 Y78.388 E3.20787
G1 X109.067 Y78.976 E3.21995
G1 X109.067 Y79.398 E3.22609
G1 X108.058 Y78.388 E3.24686
G1 X107.636 Y78.388 E3.25300
G1 X109.067 Y79.820 E3.28245
G1 X109.067 Y80.242 E3.28859
G1 X107.213 Y78.388 E3.32672
G1 X106.791 Y78.388 E3.33286
G1 X109.067 Y80.664 E3.37967
G1 X109.067 Y81.087 E3.38581
G1 X106.369 Y78.388 E3.44131
G1 X105.967 Y78.408 E3.44717
G1 X109.047 Y81.489 E3.51052
G1 X108.645 Y81.509 E3.51638
G1 X105.947 Y78.810 E3.57187
G1 X105.947 Y79.233 E3.57801
G1 X108.223 Y81.509 E3.62483
G1 X107.801 Y81.509 E3.63097
G1 X105.947 Y79.655 E3.66910
G1 X105.947 Y80.077 E3.67524
G1 X107.379 Y81.509 E3.70469
G1 X106.957 Y81.509 E3.71083
G1 X105.947 Y80.499 E3.73159
G1 X105.947 Y80.921 E3.73773
G1 X106.535 Y81.509 E3.74982
G1 X106.112 Y81.509 E3.75596
G1 X105.947 Y81.343 E3.75936
G1 Z0.300 F9000.000
G1 E-6.24064 F2400.00000
G92 E0
G1 Z0.600 F9000.000
T1
G92 E0
G1 X57.774 Y80.343 F9000.000
G1 Z0.300 F9000.000
G1 E11.00000 F3600.00000
G1 X57.774 Y88.764 E11.12128 F1800.000
G1 X49.449 Y88.764 E11.24119 F1800.000
G1 X49.414 Y88.317 E11.24765
G1 X49.267 Y87.705 E11.25671
G1 X49.026 Y87.124 E11.26577
G1 X48.698 Y86.587 E11.27483
G1 X48.289 Y86.109 E11.28389
G1 X47.811 Y85.701 E11.29295
G1 X47.274 Y85.372 E11.30201
G1 X46.693 Y85.131 E11.31107
G1 X46.082 Y84.984 E11.32013
G1 X45.454 Y84.935 E11.32919
G1 X44.827 Y84.984 E11.33825
G1 X44.216 Y85.131 E11.34731
G1 X43.635 Y85.372 E11.35637
G1 X43.098 Y85.701 E11.36543
G1 X42.620 Y86.109 E11.37449
G1 X42.515 Y86.232 E11.37681
G1 X42.211 Y86.587 E11.38355
G1 X41.883 Y87.124 E11.39261
G1 X41.642 Y87.705 E11.40167
G1 X41.495 Y88.317 E11.41073
G1 X41.446 Y88.944 E11.41978
G1 X41.495 Y89.571 E11.42884
G1 X41.642 Y90.182 E11.43790
G1 X41.883 Y90.764 E11.44696
G1 X42.211 Y91.300 E11.45602
G1 X42.620 Y91.778 E11.46508
G1 X43.098 Y92.187 E11.47414
G1 X43.635 Y92.515 E11.48320
G1 X44.216 Y92.756 E11.49226
G1 X44.827 Y92.903 E11.50132
G1 X45.274 Y92.938 E11.50778
G1 X45.274 Y101.264 E11.62769
G1 X37.774 Y101.264 E11.73572
G1 X37.774 Y106.264 E11.80773
G1 X33.134 Y106.264 E11.87456
G1 X33.134 Y76.624 E12.30146
G1 X57.774 Y76.624 E12.65635
G1 X57.774 Y80.268 E12.70884
G1 X57.341 Y80.593 F9000.000
G1 X57.479 Y80.268 F9000.000
G1 X57.479 Y88.468 E12.82694 F1800.000
G1 X49.722 Y88.468 E12.93866 F1800.000
G1 X49.707 Y88.270 E12.94151
G1 X49.549 Y87.613 E12.95124
G1 X49.290 Y86.989 E12.96097
G1 X48.937 Y86.413 E12.97070
G1 X48.499 Y85.899 E12.98043
G1 X47.985 Y85.461 E12.99016
G1 X47.409 Y85.108 E12.99989
G1 X46.785 Y84.849 E13.00962
G1 X46.128 Y84.691 E13.01935
G1 X45.454 Y84.638 E13.02908
G1 X44.781 Y84.691 E13.03881
