; generated by Slic3r 1.1.7 on 2014-11-28 at 15:28:31

; perimeters extrusion width = 0.40mm
; infill extrusion width = 0.42mm
; solid infill extrusion width = 0.42mm
; top infill extrusion width = 0.42mm

; perimeters extrusion width = 0.50mm
; infill extrusion width = 0.70mm
; solid infill extrusion width = 0.70mm
; top infill extrusion width = 0.70mm

G21 ; set units to millimeters
M190 S65 ; wait for bed temperature to be reached
M104 S200 T0 ; set temperature
M104 S180 T1 ; set temperature
G28 ; home all axes
M109 S200 T0 ; wait for temperature to be reached
M109 S180 T1 ; wait for temperature to be reached
G90 ; use absolute coordinates
G92 E0
M82 ; use absolute distances for extrusion
T0
G92 E0
M106 S94
G1 F2400.000 E-3.00000
G1 Z0.700 F9000.000
G92 E0
G1 X90.686 Y16.881 F9000.000
G1 Z0.400 F9000.000
G1 E3.00000 F2400.000
G1 X91.852 Y14.137 E3.05354 F1800.000
G1 X93.703 Y11.800 E3.10707
G1 X96.107 Y10.037 E3.16061
G1 X98.891 Y8.972 E3.21415
G1 X101.448 Y8.676 E3.26036
G1 X111.448 Y8.676 E3.43994
G1 X114.402 Y9.074 E3.49348
G1 X117.146 Y10.240 E3.54702 F1800.000
G1 X119.483 Y12.091 E3.60055
G1 X121.247 Y14.495 E3.65409
G1 X122.311 Y17.280 E3.70763
G1 X122.608 Y19.836 E3.75384
G1 X122.608 Y29.836 E3.93342
G1 X122.210 Y32.790 E3.98696
G1 X121.044 Y35.534 E4.04049
G1 X119.193 Y37.871 E4.09403
G1 X116.789 Y39.635 E4.14757
G1 X114.004 Y40.699 E4.20111
G1 X111.448 Y40.996 E4.24732
G1 X101.448 Y40.996 E4.42690
G1 X98.493 Y40.598 E4.48043
G1 X95.749 Y39.432 E4.53397
G1 X93.412 Y37.581 E4.58751
G1 X91.649 Y35.177 E4.64105
G1 X90.584 Y32.392 E4.69458
G1 X90.288 Y29.836 E4.74080
G1 X90.288 Y19.836 E4.92037
G1 X90.678 Y16.941 E4.97283
G1 X91.046 Y16.991 F9000.000
G1 X91.054 Y16.932 E4.97392 F1800.000
G1 X92.219 Y14.242 E5.02656
G1 X94.065 Y11.964 E5.07920
G1 X96.456 Y10.268 E5.13184
G1 X99.215 Y9.278 E5.18448
G1 X101.448 Y9.044 E5.22479
G1 X111.448 Y9.044 E5.40437
G1 X114.352 Y9.442 E5.45701
G1 X117.042 Y10.607 E5.50965 F1800.000
G1 X119.319 Y12.453 E5.56230
G1 X121.016 Y14.844 E5.61494
G1 X122.006 Y17.603 E5.66758
G1 X122.239 Y19.836 E5.70789
G1 X122.239 Y29.836 E5.88747
G1 X121.841 Y32.740 E5.94011
G1 X120.676 Y35.430 E5.99275
G1 X118.830 Y37.707 E6.04539
G1 X116.439 Y39.404 E6.09804
G1 X113.680 Y40.394 E6.15068
G1 X111.448 Y40.627 E6.19099
G1 X101.448 Y40.627 E6.37057
G1 X98.543 Y40.229 E6.42321
G1 X95.854 Y39.064 E6.47585
G1 X93.576 Y37.218 E6.52849
G1 X91.880 Y34.827 E6.58113
G1 X90.890 Y32.068 E6.63377
G1 X90.656 Y29.836 E6.67409
G1 X90.656 Y19.836 E6.85366
G1 X91.038 Y17.051 E6.90415
G1 F2400.000 E-3.09585
G1 Z0.700 F9000.000
G92 E0
T1
G92 E0
G1 X44.606 Y16.102 F9000.000
G1 Z0.400 F9000.000
G1 X44.623 Y15.983 E0.00188 F1800.000
G1 X45.787 Y13.348 E0.04695
G1 X47.627 Y11.132 E0.09201
G1 X50.004 Y9.504 E0.13707
G1 X52.736 Y8.590 E0.18214
G1 X54.648 Y8.413 E0.21217
G1 X64.648 Y8.413 E0.36860
G1 X67.501 Y8.811 E0.41367
G1 X70.136 Y9.975 E0.45873 F1800.000
G1 X72.352 Y11.815 E0.50379
G1 X73.979 Y14.192 E0.54886
G1 X74.894 Y16.924 E0.59392
G1 X75.071 Y18.836 E0.62395
G1 X75.071 Y28.836 E0.78039
G1 X74.673 Y31.689 E0.82545
G1 X73.509 Y34.324 E0.87051
G1 X71.668 Y36.540 E0.91558
G1 X69.291 Y38.167 E0.96064
G1 X66.560 Y39.082 E1.00570
G1 X64.648 Y39.259 E1.03574
G1 X54.648 Y39.259 E1.19217
G1 X51.795 Y38.861 E1.23723
G1 X49.160 Y37.697 E1.28230
G1 X46.944 Y35.856 E1.32736
G1 X45.316 Y33.479 E1.37242
G1 X44.402 Y30.748 E1.41749
G1 X44.225 Y28.836 E1.44752
G1 X44.225 Y18.836 E1.60395
G1 X44.596 Y16.176 E1.64596
G1 X44.964 Y16.229 F9000.000
G1 X44.991 Y16.035 E1.64902 F1800.000
G1 X46.154 Y13.456 E1.69327
G1 X47.989 Y11.303 E1.73753
G1 X50.351 Y9.746 E1.78179
G1 X53.053 Y8.909 E1.82604
G1 X54.648 Y8.781 E1.85106
G1 X64.648 Y8.781 E2.00749
G1 X67.449 Y9.179 E2.05175
G1 X70.028 Y10.342 E2.09600 F1800.000
G1 X72.181 Y12.177 E2.14026
G1 X73.738 Y14.539 E2.18451
G1 X74.575 Y17.241 E2.22877
G1 X74.702 Y18.836 E2.25379
G1 X74.702 Y28.836 E2.41022
G1 X74.304 Y31.637 E2.45448
G1 X73.142 Y34.216 E2.49873
G1 X71.307 Y36.369 E2.54299
G1 X68.944 Y37.926 E2.58724
G1 X66.242 Y38.763 E2.63150
G1 X64.648 Y38.890 E2.65652
G1 X54.648 Y38.890 E2.81295
G1 X51.847 Y38.492 E2.85721
G1 X49.268 Y37.330 E2.90146
G1 X47.114 Y35.495 E2.94572
G1 X45.558 Y33.133 E2.98997
G1 X44.721 Y30.430 E3.03423
G1 X44.593 Y28.836 E3.05925
G1 X44.593 Y18.836 E3.21568
G1 X44.953 Y16.303 E3.25570
G1 F3600.000 E-6.74430
G1 Z0.700 F9000.000
G92 E0
T0
G92 E0
G1 X92.121 Y17.356 F9000.000
G1 Z0.400 F9000.000
G1 E10.00000 F2400.000
G1 X92.160 Y17.088 E10.00486 F1800.000
G1 X93.321 Y14.566 E10.05472
G1 X95.150 Y12.477 E10.10458
G1 X97.496 Y10.993 E10.15444
G1 X101.448 Y10.150 E10.22700
G1 X111.448 Y10.150 E10.40657
G1 X114.196 Y10.548 E10.45643
G1 X116.718 Y11.709 E10.50629 F1800.000
G1 X118.807 Y13.538 E10.55615
G1 X120.291 Y15.884 E10.60601
G1 X121.134 Y19.836 E10.67857
G1 X121.134 Y29.836 E10.85814
G1 X120.736 Y32.584 E10.90800
G1 X119.575 Y35.106 E10.95786
G1 X117.746 Y37.195 E11.00772
G1 X115.399 Y38.679 E11.05758
G1 X111.448 Y39.522 E11.13014
G1 X101.448 Y39.522 E11.30971
G1 X98.700 Y39.124 E11.35957
G1 X96.178 Y37.963 E11.40943
G1 X94.089 Y36.134 E11.45929
G1 X92.605 Y33.787 E11.50915
G1 X91.762 Y29.836 E11.58171
G1 X91.762 Y19.836 E11.76128
G1 X92.112 Y17.415 E11.80520
G1 X92.480 Y17.470 F9000.000
G1 X92.528 Y17.142 E11.81115 F1800.000
G1 X93.688 Y14.679 E11.86004
G1 X95.510 Y12.656 E11.90894
G1 X97.840 Y11.246 E11.95783
G1 X101.448 Y10.519 E12.02393
G1 X111.448 Y10.519 E12.20351
G1 X114.141 Y10.916 E12.25240
G1 X116.605 Y12.076 E12.30130 F1800.000
G1 X118.628 Y13.898 E12.35020
G1 X120.038 Y16.228 E12.39909
G1 X120.765 Y19.836 E12.46519
G1 X120.765 Y29.836 E12.64477
G1 X120.367 Y32.529 E12.69366
G1 X119.208 Y34.993 E12.74256
G1 X117.385 Y37.016 E12.79145
G1 X115.056 Y38.426 E12.84035
G1 X111.448 Y39.153 E12.90645
G1 X101.448 Y39.153 E13.08603
G1 X98.754 Y38.755 E13.13492
G1 X96.291 Y37.596 E13.18382
G1 X94.267 Y35.773 E13.23271
G1 X92.858 Y33.444 E13.28161
G1 X92.131 Y29.836 E13.34771
G1 X92.131 Y19.836 E13.52728
G1 X92.471 Y17.529 E13.56916
G1 F2400.000 E3.56916
G1 Z0.700 F9000.000
G92 E0
T1
G92 E0
G1 X46.039 Y16.584 F9000.000
G1 Z0.400 F9000.000
G1 E10.00000 F3600.000
G1 X46.097 Y16.198 E10.00612 F1800.000
G1 X47.255 Y13.794 E10.04786
G1 X49.070 Y11.838 E10.08960
G1 X51.381 Y10.505 E10.13134
G1 X54.648 Y9.887 E10.18334
G1 X64.648 Y9.887 E10.33978
G1 X67.286 Y10.285 E10.38151
G1 X69.690 Y11.443 E10.42325 F1800.000
G1 X71.645 Y13.258 E10.46499
G1 X72.979 Y15.569 E10.50673
G1 X73.596 Y18.836 E10.55874
G1 X73.596 Y28.836 E10.71517
G1 X73.199 Y31.474 E10.75691
G1 X72.041 Y33.878 E10.79865
G1 X70.226 Y35.833 E10.84038
G1 X67.915 Y37.167 E10.88212
G1 X64.648 Y37.784 E10.93413
G1 X54.648 Y37.784 E11.09056
G1 X52.009 Y37.387 E11.13230
G1 X49.606 Y36.229 E11.17404
G1 X47.650 Y34.414 E11.21578
G1 X46.317 Y32.103 E11.25751
G1 X45.699 Y28.836 E11.30952
G1 X45.699 Y18.836 E11.46595
G1 X46.027 Y16.659 E11.50040
G1 X46.394 Y16.715 F9000.000
G1 X46.465 Y16.254 E11.50770 F1800.000
G1 X47.621 Y13.911 E11.54856
G1 X49.429 Y12.025 E11.58943
G1 X51.720 Y10.771 E11.63029
G1 X54.648 Y10.256 E11.67679
G1 X64.648 Y10.256 E11.83322
G1 X67.230 Y10.653 E11.87409
G1 X69.572 Y11.810 E11.91495 F1800.000
G1 X71.458 Y13.617 E11.95582
G1 X72.713 Y15.908 E11.99668
G1 X73.228 Y18.836 E12.04318
G1 X73.228 Y28.836 E12.19961
G1 X72.830 Y31.418 E12.24048
G1 X71.674 Y33.760 E12.28134
G1 X69.867 Y35.646 E12.32221
G1 X67.575 Y36.901 E12.36307
G1 X64.648 Y37.416 E12.40957
G1 X54.648 Y37.416 E12.56600
G1 X52.066 Y37.018 E12.60687
G1 X49.723 Y35.862 E12.64773
G1 X47.837 Y34.055 E12.68860
G1 X46.583 Y31.763 E12.72946
G1 X46.068 Y28.836 E12.77596
G1 X46.068 Y18.836 E12.93239
G1 X46.383 Y16.789 E12.96479
G1 F3600.000 E2.96479
G1 Z0.700 F9000.000
G92 E0
T0
G92 E0
G1 X93.550 Y17.847 F9000.000
G1 Z0.400 F9000.000
G1 E10.00000 F2400.000
G1 X93.634 Y17.312 E10.00973 F1800.000
G1 X94.788 Y15.032 E10.05562
G1 X96.587 Y13.217 E10.10150
G1 X98.857 Y12.044 E10.14739
G1 X101.448 Y11.624 E10.19452
G1 X111.448 Y11.624 E10.37410
G1 X113.972 Y12.022 E10.41999
G1 X116.252 Y13.176 E10.46587 F1800.000
G1 X118.066 Y14.975 E10.51176
G1 X119.240 Y17.245 E10.55765
G1 X119.659 Y19.836 E10.60478
G1 X119.659 Y29.836 E10.78436
G1 X119.262 Y32.360 E10.83024
G1 X118.108 Y34.640 E10.87613
G1 X116.308 Y36.454 E10.92202
G1 X114.039 Y37.628 E10.96790
G1 X111.448 Y38.047 E11.01504
G1 X101.448 Y38.047 E11.19461
G1 X98.924 Y37.650 E11.24050
G1 X96.644 Y36.496 E11.28639
G1 X94.829 Y34.696 E11.33227
G1 X93.656 Y32.427 E11.37816
G1 X93.236 Y29.836 E11.42529
G1 X93.236 Y19.836 E11.60487
G1 X93.540 Y17.906 E11.63995
G1 X93.906 Y17.965 F9000.000
G1 X94.002 Y17.371 E11.65076 F1800.000
G1 X95.154 Y15.156 E11.69560
G1 X96.944 Y13.415 E11.74044
G1 X99.191 Y12.325 E11.78527
G1 X101.448 Y11.993 E11.82624
G1 X111.448 Y11.993 E12.00582
G1 X113.913 Y12.390 E12.05066
G1 X116.128 Y13.542 E12.09550 F1800.000
G1 X117.869 Y15.332 E12.14033
G1 X118.959 Y17.579 E12.18517
G1 X119.291 Y19.836 E12.22614
G1 X119.291 Y29.836 E12.40572
G1 X118.893 Y32.301 E12.45056
G1 X117.741 Y34.516 E12.49540
G1 X115.951 Y36.257 E12.54023
G1 X113.705 Y37.347 E12.58507
G1 X111.448 Y37.679 E12.62604
G1 X101.448 Y37.679 E12.80562
G1 X98.983 Y37.281 E12.85046
G1 X96.768 Y36.129 E12.89529
G1 X95.027 Y34.339 E12.94013
G1 X93.937 Y32.093 E12.98497
G1 X93.605 Y29.836 E13.02594
G1 X93.605 Y19.836 E13.20552
G1 X93.897 Y18.025 E13.23846
G1 F2400.000 E3.23846
G1 Z0.700 F9000.000
G92 E0
T1
G92 E0
G1 X47.463 Y17.085 F9000.000
G1 Z0.400 F9000.000
G1 E10.00000 F3600.000
G1 X47.571 Y16.431 E10.01037 F1800.000
G1 X48.720 Y14.282 E10.04849
G1 X50.500 Y12.618 E10.08661
G1 X52.721 Y11.614 E10.12474
G1 X54.648 Y11.361 E10.15513
G1 X64.648 Y11.361 E10.31156
G1 X67.052 Y11.759 E10.34969
G1 X69.201 Y12.909 E10.38781 F1800.000
G1 X70.866 Y14.688 E10.42594
G1 X71.870 Y16.909 E10.46406
G1 X72.122 Y18.836 E10.49446
G1 X72.122 Y28.836 E10.65089
G1 X71.725 Y31.240 E10.68901
G1 X70.575 Y33.389 E10.72714
G1 X68.795 Y35.054 E10.76526
G1 X66.574 Y36.058 E10.80338
G1 X64.648 Y36.310 E10.83378
G1 X54.648 Y36.310 E10.99021
G1 X52.243 Y35.913 E11.02834
G1 X50.094 Y34.763 E11.06646
G1 X48.430 Y32.983 E11.10458
G1 X47.426 Y30.762 E11.14271
G1 X47.173 Y28.836 E11.17310
G1 X47.173 Y18.836 E11.32953
G1 X47.450 Y17.159 E11.35612
G1 X47.816 Y17.221 F9000.000
G1 X47.939 Y16.493 E11.36766 F1800.000
G1 X49.086 Y14.413 E11.40483
G1 X50.855 Y12.827 E11.44200
G1 X53.048 Y11.912 E11.47916
G1 X54.648 Y11.730 E11.50435
G1 X64.648 Y11.730 E11.66078
G1 X66.990 Y12.127 E11.69795
G1 X69.071 Y13.274 E11.73511 F1800.000
G1 X70.657 Y15.043 E11.77228
G1 X71.571 Y17.236 E11.80944
G1 X71.754 Y18.836 E11.83463
G1 X71.754 Y28.836 E11.99106
G1 X71.356 Y31.178 E12.02823
G1 X70.209 Y33.259 E12.06539
G1 X68.440 Y34.845 E12.10256
G1 X66.247 Y35.759 E12.13972
G1 X64.648 Y35.942 E12.16491
G1 X54.648 Y35.942 E12.32134
G1 X52.305 Y35.544 E12.35851
G1 X50.225 Y34.397 E12.39567
G1 X48.639 Y32.628 E12.43284
G1 X47.724 Y30.435 E12.47000
G1 X47.542 Y28.836 E12.49519
G1 X47.542 Y18.836 E12.65162
G1 X47.803 Y17.295 E12.67607
G1 F3600.000 E2.67607
G1 Z0.700 F9000.000
G92 E0
T0
G92 E0
G1 X94.968 Y18.358 F9000.000
G1 Z0.400 F9000.000
G1 E10.00000 F2400.000
G1 X95.108 Y17.557 E10.01461 F1800.000
G1 X96.252 Y15.547 E10.05614
G1 X98.009 Y14.043 E10.09768
G1 X100.171 Y13.221 E10.13921
G1 X101.448 Y13.099 E10.16225
G1 X111.448 Y13.099 E10.34183
G1 X113.726 Y13.496 E10.38336
G1 X115.736 Y14.640 E10.42490 F1800.000
G1 X117.241 Y16.397 E10.46643
G1 X118.063 Y18.559 E10.50797
G1 X118.185 Y19.836 E10.53101
G1 X118.185 Y29.836 E10.71059
G1 X117.788 Y32.114 E10.75212
G1 X116.644 Y34.124 E10.79366
G1 X114.887 Y35.629 E10.83519
G1 X112.725 Y36.451 E10.87673
G1 X111.448 Y36.573 E10.89977
G1 X101.448 Y36.573 E11.07934
G1 X99.169 Y36.176 E11.12088
G1 X97.159 Y35.032 E11.16241
G1 X95.655 Y33.275 E11.20395
G1 X94.833 Y31.113 E11.24548
G1 X94.711 Y29.836 E11.26852
G1 X94.711 Y19.836 E11.44810
G1 X94.958 Y18.418 E11.47395
G1 X95.322 Y18.483 F9000.000
G1 X95.476 Y17.623 E11.48964 F1800.000
G1 X96.617 Y15.686 E11.53002
G1 X98.360 Y14.266 E11.57039
G1 X101.448 Y13.467 E11.62766
G1 X111.448 Y13.467 E11.80724
G1 X113.661 Y13.864 E11.84761
G1 X115.598 Y15.005 E11.88799 F1800.000
G1 X117.018 Y16.748 E11.92836
G1 X117.816 Y19.836 E11.98563
G1 X117.816 Y29.836 E12.16521
G1 X117.419 Y32.049 E12.20558
G1 X116.278 Y33.986 E12.24596
G1 X114.535 Y35.406 E12.28633
G1 X111.448 Y36.204 E12.34360
G1 X101.448 Y36.204 E12.52317
G1 X99.235 Y35.808 E12.56355
G1 X97.298 Y34.666 E12.60392
G1 X95.878 Y32.923 E12.64430
G1 X95.079 Y29.836 E12.70157
G1 X95.079 Y19.836 E12.88114
G1 X95.311 Y18.542 E12.90475
G1 F2400.000 E9.90475
G1 Z0.700 F9000.000
G92 E0
G1 X101.628 Y25.016 F9000.000
G1 Z0.400 F9000.000
G1 E3.00000 F2400.000
G1 X111.268 Y25.016 E3.17311 F1800.000
G1 X111.268 Y29.656 E3.25644
G1 X101.628 Y29.656 E3.42955 F1800.000
G1 X101.628 Y25.076 E3.51180
G1 F2400.000 E0.51180
G1 Z0.700 F9000.000
G92 E0
G1 X111.468 Y29.309 F9000.000
G1 X110.899 Y29.287 F9000.000
G1 Z0.400 F9000.000
G1 E3.00000 F2400.000
G1 X101.996 Y29.287 E3.15987 F1800.000
G1 X101.996 Y25.384 E3.22996
G1 X110.899 Y25.384 E3.38984 F1800.000
G1 X110.899 Y29.227 E3.45884
G1 F2400.000 E0.45884
G1 Z0.700 F9000.000
G92 E0
G1 X102.365 Y28.571 F9000.000
G1 Z0.400 F9000.000
G1 E3.00000 F2400.000
G1 X102.365 Y25.753 E3.05061 F1800.000
G1 X110.531 Y25.753 E3.19724
G1 X110.531 Y28.919 E3.25409
G1 X102.365 Y28.919 E3.40073 F1800.000
G1 X102.365 Y28.631 E3.40589
G1 X102.612 Y28.631 F9000.000
G1 X102.652 Y28.671 E3.40691 F1800.000
G1 X103.192 Y28.671 E3.41661
G1 X102.612 Y28.091 E3.43134
G1 X102.612 Y27.551 E3.44104
G1 X103.732 Y28.671 E3.46949
G1 X104.273 Y28.671 E3.47919
G1 X102.612 Y27.011 E3.52136
G1 X102.612 Y26.471 E3.53106
G1 X104.813 Y28.671 E3.58694
G1 X105.353 Y28.671 E3.59664
G1 X102.682 Y26.000 E3.66448
G1 X103.222 Y26.000 E3.67418
G1 X105.893 Y28.671 E3.74202
G1 X106.433 Y28.671 E3.75172
G1 X103.762 Y26.000 E3.81956
G1 X104.302 Y26.000 E3.82926
G1 X106.973 Y28.671 E3.89710
G1 X107.513 Y28.671 E3.90680
G1 X104.842 Y26.000 E3.97464
G1 X105.382 Y26.000 E3.98434
G1 X108.053 Y28.671 E4.05218
G1 X108.594 Y28.671 E4.06188
G1 X105.922 Y26.000 E4.12972
G1 X106.462 Y26.000 E4.13942
G1 X109.134 Y28.671 E4.20725
G1 X109.674 Y28.671 E4.21695
G1 X107.003 Y26.000 E4.28479
G1 X107.543 Y26.000 E4.29449
G1 X110.214 Y28.671 E4.36233
G1 X110.283 Y28.201 E4.37088
G1 X108.083 Y26.000 E4.42676
G1 X108.623 Y26.000 E4.43646
G1 X110.283 Y27.661 E4.47863
G1 X110.283 Y27.120 E4.48833
G1 X109.163 Y26.000 E4.51678
G1 X109.703 Y26.000 E4.52648
G1 X110.283 Y26.580 E4.54121
G1 X110.283 Y26.040 E4.55091
G1 X110.243 Y26.000 E4.55193
G1 F2400.000 E-5.44807
G1 Z0.700 F9000.000
G92 E0
T1
G92 E0
G1 X63.443 Y23.656 F9000.000
G1 Z0.400 F9000.000
G1 E10.00000 F3600.000
G1 X54.828 Y23.656 E10.14262 F1800.000
G1 X54.828 Y19.016 E10.21943
G1 X64.468 Y19.016 E10.37901
G1 X64.468 Y23.656 E10.45582
G1 X63.518 Y23.656 E10.47154 F1800.000
G1 X64.468 Y23.156 F9000.000
G1 X64.078 Y23.156 F9000.000
G1 X64.078 Y23.266 E10.47336 F1800.000
G1 X55.218 Y23.266 E10.62003
G1 X55.218 Y19.406 E10.68392
G1 X64.078 Y19.406 E10.83059 F1800.000
G1 X64.078 Y23.081 E10.89143
G1 F3600.000 E5.89143
G1 Z0.700 F9000.000
G92 E0
G1 X61.213 Y22.876 F9000.000
G1 Z0.400 F9000.000
G1 E5.00000 F3600.000
G1 X55.608 Y22.876 E5.09279 F1800.000
G1 X55.608 Y19.796 E5.14377
G1 X63.688 Y19.796 E5.27753
G1 X63.688 Y22.876 E5.32851
G1 X61.288 Y22.876 E5.36823 F1800.000
G1 F3600.000 E0.36823
G1 Z0.700 F9000.000
G92 E0
G1 X63.385 Y20.059 F9000.000
G1 Z0.400 F9000.000
G1 E5.00000 F3600.000
G1 X63.425 Y20.099 E5.00094 F1800.000
G1 X63.425 Y20.656 E5.01016
G1 X62.828 Y20.059 E5.02414
G1 X62.271 Y20.059 E5.03336
G1 X63.425 Y21.213 E5.06039
G1 X63.425 Y21.770 E5.06961
G1 X61.713 Y20.059 E5.10967
G1 X61.156 Y20.059 E5.11890
G1 X63.425 Y22.327 E5.17201
G1 X63.153 Y22.613 E5.17853
G1 X60.599 Y20.059 E5.23833
G1 X60.042 Y20.059 E5.24755
G1 X62.596 Y22.613 E5.30735
G1 X62.039 Y22.613 E5.31657
G1 X59.485 Y20.059 E5.37637
G1 X58.928 Y20.059 E5.38559
G1 X61.482 Y22.613 E5.44539
G1 X60.925 Y22.613 E5.45462
G1 X58.371 Y20.059 E5.51441
