; generated by Slic3r 1.2.9 on 2015-12-01 at 20:21:57

; external perimeters extrusion width = 0.40mm
; perimeters extrusion width = 0.48mm
; infill extrusion width = 0.48mm
; solid infill extrusion width = 0.48mm
; top infill extrusion width = 0.48mm

M190 S110 ; set bed temperature
M104 S243 ; set temperature
; WIPE TOWER PARAMS
; forceToolChanges=true
; nozzleDiameter=0.4
; filamentDiameter=2.85
; extrusionWidth=0
; layerHeight=0.3
; firstLayerHeight=100%
; extrusionMultiplier=1
; firstLayerExtrusionMultiplier=1
; retractionLength=4
; toolChangeRetractionLength=10
; bedWidth=[bed_size_X]
; bedDepth=[bed_size_Y]
; extruders=2
; wipeTowerX=80
; wipeTowerY=155
; wipeTowerW=10
; wipeTowerH=10
; wipeTowerSpacing=20
; wipeTowerLoops=5
; wipeTowerBrimLoops=7
; wipeOffset=2
; purgeOffset=1.33
; wipeLift=5
; travelLift=1
; purgeAmount=0.5
; retractionFeedrate=80
; travelFeedrate=90
; printFeedrate=40
; extrusionFeedrate=25



G28 ; home all axes
M109 S243 ; wait for temperature to be reached
G21 ; set units to millimeters
G90 ; use absolute coordinates
M83 ; use relative distances for extrusion
G1 E-4.00000 F4800.00000
G1 Z0.300 F5400.000
; next layer
; tool change
T0
; printing square tower with layer height 0.3
G91 ; set relative positioning
G1 Z1
G90 ; set absolute positioning
G1 X73 Y148 F5400
G91 ; set relative positioning
G1 Z-1
G90 ; set absolute positioning
G1 X73 Y148 F5400
; printing brim
G1 X72.2 Y147.2 F5400
G1 E4 F4800
G1 X72.2 Y162.8 E0.2934 F2400
G1 X87.8 Y162.8 E0.2934 F2400
G1 X87.8 Y147.2 E0.2934 F2400
G1 X72.2 Y147.2 E0.2934 F2400
G1 X72.6 Y147.6 F5400
G1 X72.6 Y162.4 E0.2784 F2400
G1 X87.4 Y162.4 E0.2784 F2400
G1 X87.4 Y147.6 E0.2784 F2400
G1 X72.6 Y147.6 E0.2784 F2400
G1 X73 Y148 F5400
G1 X73 Y162 E0.2633 F2400
G1 X87 Y162 E0.2633 F2400
G1 X87 Y148 E0.2633 F2400
G1 X73 Y148 E0.2633 F2400
G1 X73.4 Y148.4 F5400
G1 X73.4 Y161.6 E0.2483 F2400
G1 X86.6 Y161.6 E0.2483 F2400
G1 X86.6 Y148.4 E0.2483 F2400
G1 X73.4 Y148.4 E0.2483 F2400
G1 X73.8 Y148.8 F5400
G1 X73.8 Y161.2 E0.2333 F2400
G1 X86.2 Y161.2 E0.2333 F2400
G1 X86.2 Y148.8 E0.2333 F2400
G1 X73.8 Y148.8 E0.2333 F2400
G1 X74.2 Y149.2 F5400
G1 X74.2 Y160.8 E0.2182 F2400
G1 X85.8 Y160.8 E0.2182 F2400
G1 X85.8 Y149.2 E0.2182 F2400
G1 X74.2 Y149.2 E0.2182 F2400
G1 X74.6 Y149.6 F5400
G1 X74.6 Y160.4 E0.2032 F2400
G1 X85.4 Y160.4 E0.2032 F2400
G1 X85.4 Y149.6 E0.2032 F2400
G1 X74.6 Y149.6 E0.2032 F2400
G1 E-4 F4800
; printing loops
G1 X75 Y150 F5400
G1 E4 F4800
G1 X75 Y160 E0.1881 F2400
G1 X85 Y160 E0.1881 F2400
G1 X85 Y150 E0.1881 F2400
G1 X75 Y150 E0.1881 F2400
G1 X75.4 Y150.4 F5400
G1 X75.4 Y159.6 E0.1731 F2400
G1 X84.6 Y159.6 E0.1731 F2400
G1 X84.6 Y150.4 E0.1731 F2400
G1 X75.4 Y150.4 E0.1731 F2400
G1 X75.8 Y150.8 F5400
G1 X75.8 Y159.2 E0.158 F2400
G1 X84.2 Y159.2 E0.158 F2400
G1 X84.2 Y150.8 E0.158 F2400
G1 X75.8 Y150.8 E0.158 F2400
G1 X76.2 Y151.2 F5400
G1 X76.2 Y158.8 E0.143 F2400
G1 X83.8 Y158.8 E0.143 F2400
G1 X83.8 Y151.2 E0.143 F2400
G1 X76.2 Y151.2 E0.143 F2400
G1 X76.6 Y151.6 F5400
G1 X76.6 Y158.4 E0.1279 F2400
G1 X83.4 Y158.4 E0.1279 F2400
G1 X83.4 Y151.6 E0.1279 F2400
G1 X76.6 Y151.6 E0.1279 F2400
G1 E-4 F4800
G91 ; set relative positioning
G1 Z1
G90 ; set absolute positioning
G1 X73 Y148 F5400
G91 ; set relative positioning
G1 Z-1
G90 ; set absolute positioning
; tool change
T1
; printing square tower with layer height 0.3
G91 ; set relative positioning
G1 Z1
G90 ; set absolute positioning
G1 X93 Y148 F5400
G91 ; set relative positioning
G1 Z-1
G90 ; set absolute positioning
G1 X93 Y148 F5400
; printing brim
G1 X92.2 Y147.2 F5400
G1 E0 F4800
G1 X92.2 Y162.8 E0.2934 F2400
G1 X107.8 Y162.8 E0.2934 F2400
G1 X107.8 Y147.2 E0.2934 F2400
G1 X92.2 Y147.2 E0.2934 F2400
G1 X92.6 Y147.6 F5400
G1 X92.6 Y162.4 E0.2784 F2400
G1 X107.4 Y162.4 E0.2784 F2400
G1 X107.4 Y147.6 E0.2784 F2400
G1 X92.6 Y147.6 E0.2784 F2400
G1 X93 Y148 F5400
G1 X93 Y162 E0.2633 F2400
G1 X107 Y162 E0.2633 F2400
G1 X107 Y148 E0.2633 F2400
G1 X93 Y148 E0.2633 F2400
G1 X93.4 Y148.4 F5400
G1 X93.4 Y161.6 E0.2483 F2400
G1 X106.6 Y161.6 E0.2483 F2400
G1 X106.6 Y148.4 E0.2483 F2400
G1 X93.4 Y148.4 E0.2483 F2400
G1 X93.8 Y148.8 F5400
G1 X93.8 Y161.2 E0.2333 F2400
G1 X106.2 Y161.2 E0.2333 F2400
G1 X106.2 Y148.8 E0.2333 F2400
G1 X93.8 Y148.8 E0.2333 F2400
G1 X94.2 Y149.2 F5400
G1 X94.2 Y160.8 E0.2182 F2400
G1 X105.8 Y160.8 E0.2182 F2400
G1 X105.8 Y149.2 E0.2182 F2400
G1 X94.2 Y149.2 E0.2182 F2400
G1 X94.6 Y149.6 F5400
G1 X94.6 Y160.4 E0.2032 F2400
G1 X105.4 Y160.4 E0.2032 F2400
G1 X105.4 Y149.6 E0.2032 F2400
G1 X94.6 Y149.6 E0.2032 F2400
G1 E0 F4800
; printing loops
G1 X95 Y150 F5400
G1 E0 F4800
G1 X95 Y160 E0.1881 F2400
G1 X105 Y160 E0.1881 F2400
G1 X105 Y150 E0.1881 F2400
G1 X95 Y150 E0.1881 F2400
G1 X95.4 Y150.4 F5400
G1 X95.4 Y159.6 E0.1731 F2400
G1 X104.6 Y159.6 E0.1731 F2400
G1 X104.6 Y150.4 E0.1731 F2400
G1 X95.4 Y150.4 E0.1731 F2400
G1 X95.8 Y150.8 F5400
G1 X95.8 Y159.2 E0.158 F2400
G1 X104.2 Y159.2 E0.158 F2400
G1 X104.2 Y150.8 E0.158 F2400
G1 X95.8 Y150.8 E0.158 F2400
G1 X96.2 Y151.2 F5400
G1 X96.2 Y158.8 E0.143 F2400
G1 X103.8 Y158.8 E0.143 F2400
G1 X103.8 Y151.2 E0.143 F2400
G1 X96.2 Y151.2 E0.143 F2400
G1 X96.6 Y151.6 F5400
G1 X96.6 Y158.4 E0.1279 F2400
G1 X103.4 Y158.4 E0.1279 F2400
G1 X103.4 Y151.6 E0.1279 F2400
G1 X96.6 Y151.6 E0.1279 F2400
G1 E0 F4800
G91 ; set relative positioning
G1 Z1
G90 ; set absolute positioning
G1 X93 Y148 F5400
G91 ; set relative positioning
G1 Z-1
G90 ; set absolute positioning
G1 Z0.600 F5400.000
; next layer
; tool change
T0
; printing square tower with layer height 0.3
G91 ; set relative positioning
G1 Z1
G90 ; set absolute positioning
G1 X73 Y148 F5400
G91 ; set relative positioning
G1 Z-1
G90 ; set absolute positioning
G1 X73 Y162 F5400
; printing loops
G1 X75 Y160 F5400
G1 E4 F4800
G1 X85 Y160 E0.1881 F2400
G1 X85 Y150 E0.1881 F2400
G1 X75 Y150 E0.1881 F2400
G1 X75 Y160 E0.1881 F2400
G1 X75.4 Y159.6 F5400
G1 X84.6 Y159.6 E0.1731 F2400
G1 X84.6 Y150.4 E0.1731 F2400
G1 X75.4 Y150.4 E0.1731 F2400
G1 X75.4 Y159.6 E0.1731 F2400
G1 X75.8 Y159.2 F5400
G1 X84.2 Y159.2 E0.158 F2400
G1 X84.2 Y150.8 E0.158 F2400
G1 X75.8 Y150.8 E0.158 F2400
G1 X75.8 Y159.2 E0.158 F2400
G1 X76.2 Y158.8 F5400
G1 X83.8 Y158.8 E0.143 F2400
G1 X83.8 Y151.2 E0.143 F2400
G1 X76.2 Y151.2 E0.143 F2400
G1 X76.2 Y158.8 E0.143 F2400
G1 X76.6 Y158.4 F5400
G1 X83.4 Y158.4 E0.1279 F2400
G1 X83.4 Y151.6 E0.1279 F2400
G1 X76.6 Y151.6 E0.1279 F2400
G1 X76.6 Y158.4 E0.1279 F2400
G1 E-4 F4800
G91 ; set relative positioning
G1 Z1
G90 ; set absolute positioning
G1 X73 Y148 F5400
G91 ; set relative positioning
G1 Z-1
G90 ; set absolute positioning
G1 X75.379 Y75.379 F5400.000
; tool change
T1
; printing square tower with layer height 0.3
G91 ; set relative positioning
G1 Z1
G90 ; set absolute positioning
G1 X93 Y148 F5400
G91 ; set relative positioning
G1 Z-1
G90 ; set absolute positioning
G1 X93 Y162 F5400
; printing loops
G1 X95 Y160 F5400
G1 E0 F4800
G1 X105 Y160 E0.1881 F2400
G1 X105 Y150 E0.1881 F2400
G1 X95 Y150 E0.1881 F2400
G1 X95 Y160 E0.1881 F2400
G1 X95.4 Y159.6 F5400
G1 X104.6 Y159.6 E0.1731 F2400
G1 X104.6 Y150.4 E0.1731 F2400
G1 X95.4 Y150.4 E0.1731 F2400
G1 X95.4 Y159.6 E0.1731 F2400
G1 X95.8 Y159.2 F5400
G1 X104.2 Y159.2 E0.158 F2400
G1 X104.2 Y150.8 E0.158 F2400
G1 X95.8 Y150.8 E0.158 F2400
G1 X95.8 Y159.2 E0.158 F2400
G1 X96.2 Y158.8 F5400
G1 X103.8 Y158.8 E0.143 F2400
G1 X103.8 Y151.2 E0.143 F2400
G1 X96.2 Y151.2 E0.143 F2400
G1 X96.2 Y158.8 E0.143 F2400
G1 X96.6 Y158.4 F5400
G1 X103.4 Y158.4 E0.1279 F2400
G1 X103.4 Y151.6 E0.1279 F2400
G1 X96.6 Y151.6 E0.1279 F2400
G1 X96.6 Y158.4 E0.1279 F2400
G1 E0 F4800
G91 ; set relative positioning
G1 Z1
G90 ; set absolute positioning
G1 X93 Y148 F5400
G91 ; set relative positioning
G1 Z-1
G90 ; set absolute positioning
G1 Z0.300 F5400.000
; next layer
; tool change
T0
; omitting wipe tower due to zero layer height
G1 E4.00000 F4800.00000
G1 X77.879 Y72.879 E0.08905 F1800.000
G1 X79.745 Y71.573 E0.05737
G1 X82.500 Y70.964 E0.07106
G1 X107.500 Y70.964 E0.62971
G1 X109.743 Y71.361 E0.05737
G1 X111.713 Y72.504 E0.05737 F1800.000
G1 X113.172 Y74.253 E0.05737
G1 X114.036 Y77.500 E0.08462
G1 X114.036 Y107.500 E0.75565
G1 X113.639 Y109.743 E0.05737
G1 X112.496 Y111.713 E0.05737
G1 X110.747 Y113.172 E0.05737
G1 X107.500 Y114.036 E0.08462
G1 X77.500 Y114.036 E0.75565
G1 X75.257 Y113.639 E0.05737
G1 X73.287 Y112.496 E0.05737
G1 X71.828 Y110.747 E0.05737
G1 X70.964 Y107.500 E0.08462
G1 X70.964 Y82.500 E0.62971
G1 X71.361 Y80.257 E0.05737
G1 X72.879 Y77.879 E0.07106
G1 X75.336 Y75.421 E0.08754
G1 F4320
G1 X77.879 Y72.879 E-3.79529
G1 F4320
G1 X77.882 Y72.876 E-0.00471
G1 E-0.20000 F4800.00000
; tool change
T1
; omitting wipe tower due to zero layer height
G1 Z0.600 F5400.000
; next layer
; tool change
T0
; printing square tower with layer height 0.3
G91 ; set relative positioning
G1 Z1
G90 ; set absolute positioning
G1 X87 Y148 F5400
G91 ; set relative positioning
G1 Z-1
G90 ; set absolute positioning
G1 X87 Y148 F5400
; printing loops
G1 X85 Y150 F5400
G1 E0.2 F4800
G1 X75 Y150 E0.1881 F2400
G1 X75 Y160 E0.1881 F2400
G1 X85 Y160 E0.1881 F2400
G1 X85 Y150 E0.1881 F2400
G1 X84.6 Y150.4 F5400
G1 X75.4 Y150.4 E0.1731 F2400
G1 X75.4 Y159.6 E0.1731 F2400
G1 X84.6 Y159.6 E0.1731 F2400
G1 X84.6 Y150.4 E0.1731 F2400
G1 X84.2 Y150.8 F5400
G1 X75.8 Y150.8 E0.158 F2400
G1 X75.8 Y159.2 E0.158 F2400
G1 X84.2 Y159.2 E0.158 F2400
G1 X84.2 Y150.8 E0.158 F2400
G1 X83.8 Y151.2 F5400
G1 X76.2 Y151.2 E0.143 F2400
G1 X76.2 Y158.8 E0.143 F2400
G1 X83.8 Y158.8 E0.143 F2400
G1 X83.8 Y151.2 E0.143 F2400
G1 X83.4 Y151.6 F5400
G1 X76.6 Y151.6 E0.1279 F2400
G1 X76.6 Y158.4 E0.1279 F2400
G1 X83.4 Y158.4 E0.1279 F2400
G1 X83.4 Y151.6 E0.1279 F2400
G1 E-0.2 F4800
G91 ; set relative positioning
G1 Z1
G90 ; set absolute positioning
G1 X77.882 Y72.876 F5400
G91 ; set relative positioning
G1 Z-1
G90 ; set absolute positioning
G1 X104.237 Y106.129 F5400.000
; tool change
T1
; printing square tower with layer height 0.3
G91 ; set relative positioning
G1 Z1
G90 ; set absolute positioning
G1 X107 Y148 F5400
G91 ; set relative positioning
G1 Z-1
G90 ; set absolute positioning
G1 X107 Y148 F5400
; printing loops
G1 X105 Y150 F5400
G1 E0 F4800
G1 X95 Y150 E0.1881 F2400
G1 X95 Y160 E0.1881 F2400
G1 X105 Y160 E0.1881 F2400
G1 X105 Y150 E0.1881 F2400
G1 X104.6 Y150.4 F5400
G1 X95.4 Y150.4 E0.1731 F2400
G1 X95.4 Y159.6 E0.1731 F2400
G1 X104.6 Y159.6 E0.1731 F2400
G1 X104.6 Y150.4 E0.1731 F2400
G1 X104.2 Y150.8 F5400
G1 X95.8 Y150.8 E0.158 F2400
G1 X95.8 Y159.2 E0.158 F2400
G1 X104.2 Y159.2 E0.158 F2400
G1 X104.2 Y150.8 E0.158 F2400
G1 X103.8 Y151.2 F5400
G1 X96.2 Y151.2 E0.143 F2400
G1 X96.2 Y158.8 E0.143 F2400
G1 X103.8 Y158.8 E0.143 F2400
G1 X103.8 Y151.2 E0.143 F2400
G1 X103.4 Y151.6 F5400
G1 X96.6 Y151.6 E0.1279 F2400
G1 X96.6 Y158.4 E0.1279 F2400
G1 X103.4 Y158.4 E0.1279 F2400
G1 X103.4 Y151.6 E0.1279 F2400
G1 E0 F4800
G91 ; set relative positioning
G1 Z1
G90 ; set absolute positioning
G1 X93 Y148 F5400
G91 ; set relative positioning
G1 Z-1
G90 ; set absolute positioning
G1 Z0.300 F5400.000
; next layer
; tool change
T0
; omitting wipe tower due to zero layer height
G1 E4.00000 F4800.00000
G1 X78.871 Y106.129 E0.63891 F1800.000
G1 X78.871 Y98.871 E0.18280
G1 X106.129 Y98.871 E0.68657
G1 X106.129 Y106.129 E0.18280
G1 X104.297 Y106.129 E0.04615 F1800.000
G1 X104.297 Y106.664 F5400.000
G1 X78.336 Y106.664 E0.65391 F1800.000
G1 X78.336 Y98.336 E0.20979
G1 X106.664 Y98.336 E0.71355
G1 X106.664 Y106.664 E0.20979
G1 X104.357 Y106.664 E0.05813 F1800.000
G1 X104.357 Y107.200 F5400.000
G1 X77.800 Y107.200 E0.66891 F1260.000
G1 X77.800 Y97.800 E0.23677
G1 X107.200 Y97.800 E0.74053
G1 X107.200 Y107.200 E0.23677
G1 X104.417 Y107.200 E0.07011 F1260.000
G1 X104.157 Y106.854 F5400.000
G1 X105.807 Y99.460 F5400.000
G1 X105.540 Y99.193 E0.00956 F1800.000
G1 X104.780 Y99.193 E0.01922
G1 X105.807 Y100.220 E0.03674
G1 X105.807 Y100.981 E0.01922
G1 X104.019 Y99.193 E0.06393
G1 X103.259 Y99.193 E0.01922
G1 X105.807 Y101.741 E0.09111
G1 X105.807 Y102.501 E0.01922
G1 X102.499 Y99.193 E0.11830
G1 X101.738 Y99.193 E0.01922
G1 X105.807 Y103.262 E0.14548
G1 X105.807 Y104.022 E0.01922
G1 X100.978 Y99.193 E0.17267
G1 X100.218 Y99.193 E0.01922
G1 X105.807 Y104.782 E0.19986
G1 X105.807 Y105.543 E0.01922
G1 X99.457 Y99.193 E0.22704
G1 X98.697 Y99.193 E0.01922
G1 X105.311 Y105.807 E0.23650
G1 X104.551 Y105.807 E0.01922
G1 X97.937 Y99.193 E0.23650
G1 X97.176 Y99.193 E0.01922
G1 X103.791 Y105.807 E0.23650
G1 X103.030 Y105.807 E0.01922
G1 X96.416 Y99.193 E0.23650
G1 X95.656 Y99.193 E0.01922
G1 X102.270 Y105.807 E0.23650
G1 X101.510 Y105.807 E0.01922
G1 X94.895 Y99.193 E0.23650
G1 X94.135 Y99.193 E0.01922
G1 X100.749 Y105.807 E0.23650
G1 X99.989 Y105.807 E0.01922
G1 X93.375 Y99.193 E0.23650
G1 X92.614 Y99.193 E0.01922
G1 X99.229 Y105.807 E0.23650
G1 X98.468 Y105.807 E0.01922
G1 X91.854 Y99.193 E0.23650
G1 X91.094 Y99.193 E0.01922
G1 X97.708 Y105.807 E0.23650
G1 X96.948 Y105.807 E0.01922
G1 X90.333 Y99.193 E0.23650
G1 X89.573 Y99.193 E0.01922
G1 X96.187 Y105.807 E0.23650
G1 X95.427 Y105.807 E0.01922
G1 X88.813 Y99.193 E0.23650
G1 X88.052 Y99.193 E0.01922
G1 X94.667 Y105.807 E0.23650
G1 X93.906 Y105.807 E0.01922
G1 X87.292 Y99.193 E0.23650
G1 X86.532 Y99.193 E0.01922
G1 X93.146 Y105.807 E0.23650
G1 X92.386 Y105.807 E0.01922
G1 X85.771 Y99.193 E0.23650
G1 X85.011 Y99.193 E0.01922
G1 X91.625 Y105.807 E0.23650
G1 X90.865 Y105.807 E0.01922
G1 X84.251 Y99.193 E0.23650
G1 X83.490 Y99.193 E0.01922
G1 X90.105 Y105.807 E0.23650
G1 X89.344 Y105.807 E0.01922
G1 X82.730 Y99.193 E0.23650
G1 X81.970 Y99.193 E0.01922
G1 X88.584 Y105.807 E0.23650
G1 X87.824 Y105.807 E0.01922
G1 X81.209 Y99.193 E0.23650
G1 X80.449 Y99.193 E0.01922
G1 X87.063 Y105.807 E0.23650
G1 X86.303 Y105.807 E0.01922
G1 X79.689 Y99.193 E0.23650
G1 X79.193 Y99.457 E0.01421
G1 X85.543 Y105.807 E0.22704
G1 X84.782 Y105.807 E0.01922
G1 X79.193 Y100.218 E0.19985
G1 X79.193 Y100.978 E0.01922
G1 X84.022 Y105.807 E0.17267
G1 X83.262 Y105.807 E0.01922
G1 X79.193 Y101.738 E0.14548
G1 X79.193 Y102.499 E0.01922
G1 X82.501 Y105.807 E0.11830
G1 X81.741 Y105.807 E0.01922
G1 X79.193 Y103.259 E0.09111
G1 X79.193 Y104.019 E0.01922
G1 X80.981 Y105.807 E0.06393
G1 X80.220 Y105.807 E0.01922
G1 X79.193 Y104.780 E0.03674
G1 X79.193 Y105.540 E0.01922
G1 X79.460 Y105.807 E0.00955
G1 F4320
G1 X79.193 Y105.540 E-0.39889
G1 F4320
G1 X79.193 Y104.780 E-0.80257
G1 F4320
G1 X80.220 Y105.807 E-1.53389
G1 F4320
G1 X80.981 Y105.807 E-0.80257
G1 F4320
G1 X80.805 Y105.632 E-0.26208
G1 E-0.20000 F4800.00000
; tool change
T1
; omitting wipe tower due to zero layer height
G1 Z0.600 F5400.000
; next layer
; tool change
T0
; printing square tower with layer height 0.3
G91 ; set relative positioning
G1 Z1
G90 ; set absolute positioning
G1 X73 Y148 F5400
G91 ; set relative positioning
G1 Z-1
G90 ; set absolute positioning
G1 X73 Y162 F5400
; printing loops
G1 X75 Y160 F5400
G1 E0.2 F4800
G1 X85 Y160 E0.1881 F2400
G1 X85 Y150 E0.1881 F2400
G1 X75 Y150 E0.1881 F2400
G1 X75 Y160 E0.1881 F2400
G1 X75.4 Y159.6 F5400
G1 X84.6 Y159.6 E0.1731 F2400
G1 X84.6 Y150.4 E0.1731 F2400
G1 X75.4 Y150.4 E0.1731 F2400
G1 X75.4 Y159.6 E0.1731 F2400
G1 X75.8 Y159.2 F5400
G1 X84.2 Y159.2 E0.158 F2400
G1 X84.2 Y150.8 E0.158 F2400
G1 X75.8 Y150.8 E0.158 F2400
G1 X75.8 Y159.2 E0.158 F2400
G1 X76.2 Y158.8 F5400
G1 X83.8 Y158.8 E0.143 F2400
G1 X83.8 Y151.2 E0.143 F2400
G1 X76.2 Y151.2 E0.143 F2400
G1 X76.2 Y158.8 E0.143 F2400
G1 X76.6 Y158.4 F5400
G1 X83.4 Y158.4 E0.1279 F2400
G1 X83.4 Y151.6 E0.1279 F2400
G1 X76.6 Y151.6 E0.1279 F2400
G1 X76.6 Y158.4 E0.1279 F2400
G1 E-0.2 F4800
G91 ; set relative positioning
G1 Z1
G90 ; set absolute positioning
G1 X80.805 Y105.632 F5400
G91 ; set relative positioning
G1 Z-1
G90 ; set absolute positioning
G1 X106.129 Y83.202 F5400.000
; tool change
T1
; printing square tower with layer height 0.3
G91 ; set relative positioning
G1 Z1
G90 ; set absolute positioning
G1 X93 Y148 F5400
G91 ; set relative positioning
G1 Z-1
G90 ; set absolute positioning
G1 X93 Y162 F5400
; printing loops
