; generated by Slic3r 1.1.7 on 2014-12-03 at 20:42:53

; perimeters extrusion width = 0.50mm
; infill extrusion width = 0.50mm
; solid infill extrusion width = 0.50mm
; top infill extrusion width = 0.50mm

; perimeters extrusion width = 0.50mm
; infill extrusion width = 0.50mm
; solid infill extrusion width = 0.50mm
; top infill extrusion width = 0.50mm

G21 ; set units to millimeters
M190 S110 ; wait for bed temperature to be reached
M104 S245 T0 ; set temperature
M104 S235 T1 ; set temperature
G28 ; home all axes
M109 S245 T0 ; wait for temperature to be reached
M109 S235 T1 ; wait for temperature to be reached
G90 ; use absolute coordinates
G92 E0
M82 ; use absolute distances for extrusion
T0
G92 E0
M106 S95
G1 F2400.000 E-3.00000
G1 Z0.860 F9000.000
G92 E0
G1 X80.790 Y41.153 F9000.000
G1 Z0.260 F9000.000
G1 E3.00000 F2400.000
G1 X82.130 Y39.325 E3.04072 F1800.000
G1 X91.130 Y29.325 E3.28231
G1 X93.417 Y27.379 E3.33623
G1 X96.134 Y26.103 E3.39014
G1 X99.542 Y25.578 E3.45206
G1 X100.542 Y25.578 E3.47001
G1 X103.843 Y26.070 E3.52994
G1 X119.246 Y30.767 E3.81913
G1 X121.977 Y32.016 E3.87305
G1 X123.948 Y33.590 E3.91835
G1 X129.252 Y38.893 E4.05303
G1 X131.074 Y41.279 E4.10695
G1 X132.205 Y44.060 E4.16086
G1 X132.565 Y47.040 E4.21478
G1 X132.129 Y50.011 E4.26869
G1 X130.490 Y53.430 E4.33678
G1 X129.782 Y54.430 E4.35877
G1 X128.337 Y56.101 E4.39845
G1 X108.337 Y75.101 E4.89384
G1 X105.905 Y76.861 E4.94775
G1 X103.096 Y77.921 E5.00167
G1 X100.542 Y78.213 E5.04783
G1 X99.542 Y78.213 E5.06578
G1 X96.566 Y77.815 E5.11970
G1 X93.800 Y76.648 E5.17361
G1 X91.438 Y74.795 E5.22753
G1 X89.314 Y71.740 E5.29433
G1 X80.314 Y52.740 E5.67187
G1 X79.400 Y49.880 E5.72579
G1 X79.225 Y47.896 E5.76157
G1 X79.225 Y46.896 E5.77953
G1 X79.623 Y43.920 E5.83345
G1 X80.766 Y41.209 E5.88628
G1 X81.157 Y41.257 F9000.000
G1 X82.404 Y39.571 E5.92393 F1800.000
G1 X91.404 Y29.571 E6.16553
G1 X93.657 Y27.663 E6.21855
G1 X96.338 Y26.426 E6.27158
G1 X99.542 Y25.947 E6.32975
G1 X100.542 Y25.947 E6.34771
G1 X103.735 Y26.423 E6.40568
G1 X119.139 Y31.120 E6.69487
G1 X121.821 Y32.354 E6.74790
G1 X123.688 Y33.850 E6.79086
G1 X128.991 Y39.154 E6.92554
G1 X130.778 Y41.504 E6.97856
G1 X131.872 Y44.247 E7.03159
G1 X132.194 Y47.182 E7.08461
G1 X131.719 Y50.096 E7.13764
G1 X130.189 Y53.217 E7.20006
G1 X129.482 Y54.217 E7.22205
G1 X128.083 Y55.833 E7.26044
G1 X108.083 Y74.833 E7.75582
G1 X105.687 Y76.560 E7.80885
G1 X102.918 Y77.583 E7.86188
G1 X100.542 Y77.844 E7.90479
G1 X99.542 Y77.844 E7.92275
G1 X96.616 Y77.446 E7.97578
G1 X93.903 Y76.280 E8.02880
G1 X91.600 Y74.432 E8.08183
G1 X89.647 Y71.582 E8.14387
G1 X80.647 Y52.582 E8.52141
G1 X79.755 Y49.768 E8.57443
G1 X79.593 Y47.896 E8.60818
G1 X79.593 Y46.896 E8.62614
G1 X79.991 Y43.970 E8.67917
G1 X81.133 Y41.312 E8.73111
G1 F2400.000 E-1.26889
G1 Z0.860 F9000.000
G92 E0
T1
G92 E0
G1 X34.524 Y40.362 F9000.000
G1 Z0.260 F9000.000
G1 X35.678 Y38.818 E0.03461 F1800.000
G1 X44.678 Y28.818 E0.27621
G1 X46.897 Y26.947 E0.32833
G1 X49.541 Y25.750 E0.38045
G1 X52.542 Y25.315 E0.43490
G1 X53.542 Y25.315 E0.45286
G1 X56.628 Y25.775 E0.50888
G1 X72.031 Y30.472 E0.79807
G1 X74.665 Y31.691 E0.85020
G1 X76.427 Y33.111 E0.89082
G1 X81.730 Y38.414 E1.02551
G1 X83.482 Y40.729 E1.07763
G1 X84.538 Y43.432 E1.12975
G1 X84.821 Y46.321 E1.18187
G1 X84.307 Y49.177 E1.23399
G1 X82.888 Y52.004 E1.29079
G1 X82.181 Y53.004 E1.31279
G1 X80.829 Y54.566 E1.34988
G1 X60.829 Y73.566 E1.84527
G1 X58.470 Y75.258 E1.89739
G1 X55.741 Y76.245 E1.94951
G1 X53.542 Y76.476 E1.98922
G1 X52.542 Y76.476 E2.00717
G1 X49.667 Y76.078 E2.05930
G1 X47.008 Y74.913 E2.11142
G1 X44.766 Y73.070 E2.16354
G1 X42.980 Y70.425 E2.22085
G1 X33.980 Y51.425 E2.59839
G1 X33.109 Y48.656 E2.65052
G1 X32.962 Y46.896 E2.68224
G1 X32.962 Y45.896 E2.70020
G1 X33.360 Y43.021 E2.75232
G1 X34.494 Y40.431 E2.80309
G1 X34.892 Y40.469 F9000.000
G1 X35.952 Y39.064 E2.83470 F1800.000
G1 X44.952 Y29.064 E3.07630
G1 X47.136 Y27.232 E3.12750
G1 X49.742 Y26.075 E3.17870
G1 X52.542 Y25.684 E3.22946
G1 X53.542 Y25.684 E3.24742
G1 X56.520 Y26.128 E3.30149
G1 X71.924 Y30.825 E3.59068
G1 X74.508 Y32.029 E3.64188
G1 X76.166 Y33.372 E3.68020
G1 X81.470 Y38.675 E3.81488
G1 X83.185 Y40.953 E3.86608
G1 X84.203 Y43.616 E3.91728
G1 X84.445 Y46.457 E3.96848
G1 X83.893 Y49.254 E4.01968
G1 X82.587 Y51.791 E4.07093
G1 X81.880 Y52.791 E4.09292
G1 X80.575 Y54.299 E4.12872
G1 X60.575 Y73.299 E4.62411
G1 X58.254 Y74.955 E4.67531
G1 X55.566 Y75.904 E4.72651
G1 X53.542 Y76.107 E4.76304
G1 X52.542 Y76.107 E4.78099
G1 X49.719 Y75.709 E4.83219
G1 X47.116 Y74.546 E4.88340
G1 X44.935 Y72.708 E4.93460
G1 X43.313 Y70.267 E4.98723
G1 X34.313 Y51.267 E5.36477
G1 X33.465 Y48.545 E5.41597
G1 X33.330 Y46.896 E5.44569
G1 X33.330 Y45.896 E5.46365
G1 X33.729 Y43.072 E5.51485
G1 X34.861 Y40.538 E5.56471
G1 F3600.000 E-4.43529
G1 Z0.860 F9000.000
G92 E0
T0
G92 E0
G1 X82.259 Y41.578 F9000.000
G1 Z0.260 F9000.000
G1 E10.00000 F2400.000
G1 X83.226 Y40.311 E10.02863 F1800.000
G1 X92.226 Y30.311 E10.27023
G1 X94.375 Y28.518 E10.32049
G1 X96.942 Y27.402 E10.37075
G1 X99.542 Y27.053 E10.41786
G1 X100.542 Y27.053 E10.43582
G1 X103.413 Y27.481 E10.48794
G1 X118.816 Y32.177 E10.77713
G1 X121.350 Y33.366 E10.82739
G1 X122.906 Y34.632 E10.86341
G1 X128.209 Y39.936 E10.99809
G1 X129.887 Y42.176 E11.04836
G1 X130.866 Y44.798 E11.09862
G1 X131.067 Y47.590 E11.14888
G1 X130.475 Y50.325 E11.19915
G1 X129.286 Y52.578 E11.24490
G1 X128.579 Y53.578 E11.26689
G1 X127.321 Y55.032 E11.30140
G1 X107.321 Y74.032 E11.79679
G1 X105.039 Y75.651 E11.84705
G1 X102.392 Y76.563 E11.89731
G1 X100.542 Y76.738 E11.93069
G1 X99.542 Y76.738 E11.94865
G1 X96.771 Y76.340 E11.99891
G1 X94.225 Y75.179 E12.04917
G1 X92.108 Y73.347 E12.09944
G1 X90.647 Y71.109 E12.14744
G1 X81.647 Y52.109 E12.52498
G1 X80.820 Y49.435 E12.57524
G1 X80.699 Y47.896 E12.60297
G1 X80.699 Y46.896 E12.62093
G1 X81.097 Y44.125 E12.67120
G1 X82.234 Y41.633 E12.72038
G1 X82.626 Y41.690 F9000.000
G1 X83.500 Y40.558 E12.74607 F1800.000
G1 X92.500 Y30.558 E12.98767
G1 X94.613 Y28.804 E13.03698
G1 X97.140 Y27.731 E13.08628
G1 X99.542 Y27.421 E13.12977
G1 X100.542 Y27.421 E13.14773
G1 X103.305 Y27.833 E13.19790
G1 X118.709 Y32.530 E13.48709
G1 X121.192 Y33.703 E13.53640
G1 X122.645 Y34.893 E13.57013
G1 X127.948 Y40.196 E13.70482
G1 X129.588 Y42.399 E13.75412
G1 X130.527 Y44.979 E13.80343
G1 X130.687 Y47.720 E13.85274
G1 X130.055 Y50.392 E13.90205
G1 X128.985 Y52.366 E13.94237
G1 X128.278 Y53.366 E13.96436
G1 X127.067 Y54.764 E13.99758
G1 X107.067 Y73.764 E14.49296
G1 X104.824 Y75.347 E14.54227
G1 X102.220 Y76.220 E14.59158
G1 X100.542 Y76.370 E14.62184
G1 X99.542 Y76.370 E14.63980
G1 X96.825 Y75.972 E14.68911
G1 X94.337 Y74.812 E14.73842
G1 X92.285 Y72.987 E14.78772
G1 X90.980 Y70.951 E14.83114
G1 X81.980 Y51.951 E15.20868
G1 X81.176 Y49.326 E15.25799
G1 X81.068 Y47.896 E15.28375
G1 X81.068 Y46.896 E15.30171
G1 X81.466 Y44.179 E15.35102
G1 X82.600 Y41.744 E15.39925
G1 F2400.000 E5.39925
G1 Z0.860 F9000.000
G92 E0
T1
G92 E0
G1 X36.774 Y39.804 F9000.000
G1 Z0.260 F9000.000
G1 E10.00000 F3600.000
G1 X45.774 Y29.804 E10.24160 F1800.000
G1 X47.850 Y28.092 E10.28993
G1 X50.337 Y27.061 E10.33827
G1 X52.542 Y26.790 E10.37817
G1 X53.542 Y26.790 E10.39613
G1 X56.198 Y27.186 E10.44434
G1 X71.601 Y31.882 E10.73353
G1 X74.032 Y33.039 E10.78187
G1 X75.385 Y34.153 E10.81334
G1 X80.688 Y39.457 E10.94802
G1 X82.289 Y41.620 E10.99636
G1 X83.187 Y44.158 E11.04469
G1 X83.305 Y46.847 E11.09303
G1 X82.631 Y49.452 E11.14136
G1 X81.684 Y51.153 E11.17631
G1 X80.977 Y52.153 E11.19831
G1 X79.814 Y53.497 E11.23023
G1 X59.814 Y72.497 E11.72562
G1 X57.610 Y74.042 E11.77396
G1 X55.050 Y74.875 E11.82229
G1 X53.542 Y75.001 E11.84947
G1 X52.542 Y75.001 E11.86743
G1 X49.880 Y74.603 E11.91576
G1 X47.451 Y73.445 E11.96410
G1 X45.466 Y71.627 E12.01243
G1 X44.313 Y69.794 E12.05132
G1 X35.313 Y50.794 E12.42886
G1 X34.436 Y46.896 E12.50061
G1 X34.436 Y45.896 E12.51857
G1 X34.834 Y43.234 E12.56690
G1 X36.737 Y39.869 E12.63631
G1 X37.048 Y40.051 F9000.000
G1 X46.048 Y30.051 E12.87790 F1800.000
G1 X48.087 Y28.380 E12.92524
G1 X50.531 Y27.393 E12.97259
G1 X52.542 Y27.158 E13.00894
G1 X53.542 Y27.158 E13.02690
G1 X56.090 Y27.538 E13.07316
G1 X71.494 Y32.235 E13.36235
G1 X73.871 Y33.375 E13.40969
G1 X75.124 Y34.414 E13.43892
G1 X80.427 Y39.717 E13.57360
G1 X81.989 Y41.841 E13.62095
G1 X82.846 Y44.334 E13.66829
G1 X82.920 Y46.970 E13.71563
G1 X82.205 Y49.507 E13.76297
G1 X81.383 Y50.940 E13.79263
G1 X80.676 Y51.940 E13.81463
G1 X79.560 Y53.230 E13.84526
G1 X59.560 Y72.230 E14.34065
G1 X57.396 Y73.737 E14.38799
G1 X54.882 Y74.529 E14.43533
G1 X53.542 Y74.633 E14.45947
G1 X52.542 Y74.633 E14.47742
G1 X49.936 Y74.235 E14.52476
G1 X47.567 Y73.078 E14.57211
G1 X45.651 Y71.267 E14.61945
G1 X44.646 Y69.636 E14.65386
G1 X35.646 Y50.636 E15.03140
G1 X34.805 Y46.896 E15.10024
G1 X34.805 Y45.896 E15.11820
G1 X35.203 Y43.289 E15.16554
G1 X37.011 Y40.116 E15.23113
G1 F3600.000 E5.23113
G1 Z0.860 F9000.000
G92 E0
T0
G92 E0
G1 X84.322 Y41.297 F9000.000
G1 Z0.260 F9000.000
G1 E10.00000 F2400.000
G1 X93.322 Y31.297 E10.24160 F1800.000
G1 X95.322 Y29.669 E10.28792
G1 X97.724 Y28.727 E10.33425
G1 X99.542 Y28.527 E10.36709
G1 X100.542 Y28.527 E10.38505
G1 X102.983 Y28.891 E10.42936
G1 X118.386 Y33.587 E10.71855
G1 X120.709 Y34.711 E10.76488
G1 X121.863 Y35.675 E10.79189
G1 X127.167 Y40.978 E10.92657
G1 X128.688 Y43.062 E10.97290
G1 X129.502 Y45.509 E11.01922
G1 X129.532 Y48.089 E11.06555
G1 X128.775 Y50.555 E11.11187
G1 X128.082 Y51.727 E11.13633
G1 X127.375 Y52.727 E11.15832
G1 X126.306 Y53.963 E11.18766
G1 X106.306 Y72.963 E11.68305
G1 X104.184 Y74.430 E11.72937
G1 X100.542 Y75.264 E11.79647
G1 X99.542 Y75.264 E11.81443
G1 X96.993 Y74.866 E11.86075
G1 X94.686 Y73.711 E11.90708
G1 X92.841 Y71.909 E11.95341
G1 X91.979 Y70.478 E11.98340
G1 X82.979 Y51.478 E12.36094
G1 X82.173 Y47.896 E12.42688
G1 X82.173 Y46.896 E12.44484
G1 X82.571 Y44.347 E12.49117
G1 X84.292 Y41.349 E12.55323
G1 F2400.000 E2.55323
G1 Z0.860 F9000.000
G92 E0
T1
G92 E0
G1 X73.269 Y46.076 F9000.000
G1 Z0.260 F9000.000
G1 E10.00000 F3600.000
G1 X68.493 Y41.299 E10.12836 F1800.000
G1 X68.946 Y40.847 E10.14052
G1 X73.995 Y45.896 E10.27620
G1 X73.362 Y46.528 E10.29320
G1 X73.362 Y46.716 E10.29677
G1 X73.175 Y46.716 E10.30033
G1 X68.239 Y51.651 E10.43298
G1 X67.786 Y51.199 E10.44514
G1 X72.269 Y46.716 E10.56563
G1 X53.362 Y46.716 E10.92493
G1 X53.362 Y65.716 E11.28600
G1 X52.722 Y65.716 E11.29816
G1 X52.722 Y46.716 E11.65922
G1 X43.722 Y46.716 E11.83025
G1 X43.722 Y46.076 E11.84241
G1 X52.722 Y46.076 E12.01344
G1 X52.722 Y36.076 E12.20347
G1 X53.362 Y36.076 E12.21564
G1 X53.362 Y46.076 E12.40567
G1 X73.194 Y46.076 E12.78255
G1 X73.702 Y45.826 F9000.000
G1 X73.114 Y46.521 F9000.000
G1 X72.740 Y46.396 E12.78733 F1800.000
G1 X53.042 Y46.396 E13.02599
G1 X53.042 Y65.521 E13.25770
G1 F3600.000 E8.25770
G1 Z0.860 F9000.000
G92 E0
G1 X53.042 Y46.756 F9000.000
G1 Z0.260 F9000.000
G1 E5.00000 F3600.000
G1 X53.042 Y36.271 E5.12703 F1800.000
G1 F3600.000 E0.12703
G1 Z0.860 F9000.000
G92 E0
G1 X53.277 Y46.396 F9000.000
G1 Z0.260 F9000.000
G1 E5.00000 F3600.000
G1 X43.917 Y46.396 E5.11340 F1800.000
G1 F3600.000 E0.11340
G1 Z0.860 F9000.000
G92 E0
G1 X68.150 Y51.287 F9000.000
G1 Z0.260 F9000.000
G1 E5.00000 F3600.000
G1 X72.829 Y46.609 E5.08016 F1800.000
G1 X72.907 Y46.451 E5.08229
G1 X73.323 Y46.279 E5.08774
G1 X73.630 Y45.984 F9000.000
G1 X68.857 Y41.211 E5.16952 F1800.000
M106 S127
G1 F3600.000 E0.16952
G1 Z1.160 F9000.000
G92 E0
G1 F3600.000 E-5.00000
G92 E0
T0
G92 E0
G1 X82.130 Y39.325 F9000.000
G1 Z0.560 F9000.000
G1 E10.00000 F2400.000
G1 X91.130 Y29.325 E10.24160 F1860.964
G1 X93.417 Y27.379 E10.29551
G1 X96.134 Y26.103 E10.34943
G1 X99.542 Y25.578 E10.41134
G1 X100.542 Y25.578 E10.42930
G1 X103.843 Y26.070 E10.48923
G1 X119.246 Y30.767 E10.77842
G1 X121.977 Y32.016 E10.83233
G1 X123.948 Y33.590 E10.87763
G1 X129.252 Y38.893 E11.01232
G1 X131.074 Y41.279 E11.06623
G1 X132.205 Y44.060 E11.12015
G1 X132.565 Y47.040 E11.17406
G1 X132.129 Y50.011 E11.22798
G1 X130.490 Y53.430 E11.29606
G1 X129.782 Y54.430 E11.31805
G1 X128.337 Y56.101 E11.35773
G1 X108.337 Y75.101 E11.85312
G1 X105.905 Y76.861 E11.90704
G1 X103.096 Y77.921 E11.96095
G1 X100.542 Y78.213 E12.00711
G1 X99.542 Y78.213 E12.02507
G1 X96.566 Y77.815 E12.07898
G1 X93.800 Y76.648 E12.13290
G1 X91.438 Y74.795 E12.18681
G1 X89.314 Y71.740 E12.25362
G1 X80.314 Y52.740 E12.63116
G1 X79.400 Y49.880 E12.68507
G1 X79.225 Y47.896 E12.72086
G1 X79.225 Y46.896 E12.73882
G1 X79.623 Y43.920 E12.79273
G1 X80.790 Y41.153 E12.84664
G1 X82.094 Y39.373 E12.88628
G1 X82.404 Y39.571 F9000.000
G1 X91.404 Y29.571 E13.12788 F1860.964
G1 X93.657 Y27.663 E13.18090
G1 X96.338 Y26.426 E13.23393
G1 X99.542 Y25.947 E13.29210
G1 X100.542 Y25.947 E13.31006
G1 X103.735 Y26.423 E13.36803
G1 X119.139 Y31.120 E13.65722
G1 X121.821 Y32.354 E13.71025
G1 X123.688 Y33.850 E13.75321
G1 X128.991 Y39.154 E13.88789
G1 X130.778 Y41.504 E13.94092
G1 X131.872 Y44.247 E13.99394
G1 X132.194 Y47.182 E14.04697
G1 X131.719 Y50.096 E14.09999
G1 X130.189 Y53.217 E14.16241
G1 X129.482 Y54.217 E14.18440
G1 X128.083 Y55.833 E14.22279
G1 X108.083 Y74.833 E14.71818
G1 X105.687 Y76.560 E14.77120
G1 X102.918 Y77.583 E14.82423
G1 X100.542 Y77.844 E14.86715
G1 X99.542 Y77.844 E14.88510
G1 X96.616 Y77.446 E14.93813
G1 X93.903 Y76.280 E14.99115
G1 X91.600 Y74.432 E15.04418
G1 X89.647 Y71.582 E15.10622
G1 X80.647 Y52.582 E15.48376
G1 X79.755 Y49.768 E15.53679
G1 X79.593 Y47.896 E15.57053
G1 X79.593 Y46.896 E15.58849
G1 X79.991 Y43.970 E15.64152
G1 X81.157 Y41.257 E15.69454
G1 X82.368 Y39.619 E15.73111
G1 F2400.000 E5.73111
G1 Z1.160 F9000.000
G92 E0
T1
G92 E0
G1 X73.438 Y46.146 F9000.000
G1 Z0.560 F9000.000
G1 E10.00000 F3600.000
G1 X68.592 Y41.299 E10.16696 F1860.964
G1 X68.946 Y40.946 E10.17914
G1 X73.896 Y45.896 E10.34966
G1 X73.292 Y46.499 E10.37045
G1 X73.292 Y46.646 E10.37402
G1 X73.146 Y46.646 E10.37759
G1 X68.239 Y51.552 E10.54663
G1 X67.885 Y51.199 E10.55881
G1 X72.438 Y46.646 E10.71568
G1 X53.292 Y46.646 E11.18209
G1 X53.292 Y65.646 E11.64494
G1 X52.792 Y65.646 E11.65712
G1 X52.792 Y46.646 E12.11997
G1 X43.792 Y46.646 E12.33922
G1 X43.792 Y46.146 E12.35140
G1 X52.792 Y46.146 E12.57064
G1 X52.792 Y36.146 E12.81424
G1 X53.292 Y36.146 E12.82642
G1 X53.292 Y46.146 E13.07003
G1 X73.363 Y46.146 E13.55898
G1 X73.871 Y45.896 F9000.000
G1 F3600.000 E8.55898
G1 Z1.460 F9000.000
G92 E0
G1 F3600.000 E-5.00000
G92 E0
T0
G92 E0
G1 X91.130 Y29.325 F9000.000
G1 Z0.860 F9000.000
G1 E10.00000 F2400.000
G1 X93.417 Y27.379 E10.05391 F1861.024
G1 X96.134 Y26.103 E10.10783
G1 X99.542 Y25.578 E10.16974
G1 X100.542 Y25.578 E10.18770
G1 X103.843 Y26.070 E10.24763
G1 X119.246 Y30.767 E10.53682
G1 X121.977 Y32.016 E10.59073
G1 X123.948 Y33.590 E10.63604
G1 X129.252 Y38.893 E10.77072
G1 X131.074 Y41.279 E10.82464
G1 X132.205 Y44.060 E10.87855
G1 X132.565 Y47.040 E10.93246
G1 X132.129 Y50.011 E10.98638
G1 X130.490 Y53.430 E11.05446
G1 X129.782 Y54.430 E11.07646
G1 X128.337 Y56.101 E11.11614
G1 X108.337 Y75.101 E11.61152
G1 X105.905 Y76.861 E11.66544
G1 X103.096 Y77.921 E11.71935
G1 X100.542 Y78.213 E11.76551
G1 X99.542 Y78.213 E11.78347
G1 X96.566 Y77.815 E11.83739
G1 X93.800 Y76.648 E11.89130
G1 X91.438 Y74.795 E11.94522
G1 X89.314 Y71.740 E12.01202
G1 X80.314 Y52.740 E12.38956
G1 X79.400 Y49.880 E12.44348
G1 X79.225 Y47.896 E12.47926
G1 X79.225 Y46.896 E12.49722
G1 X79.623 Y43.920 E12.55113
G1 X80.790 Y41.153 E12.60505
G1 X82.130 Y39.325 E12.64576
G1 X91.090 Y29.369 E12.88628
G1 X91.404 Y29.571 F9000.000
G1 X93.657 Y27.663 E12.93931 F1861.024
G1 X96.338 Y26.426 E12.99233
G1 X99.542 Y25.947 E13.05050
G1 X100.542 Y25.947 E13.06846
G1 X103.735 Y26.423 E13.12644
G1 X119.139 Y31.120 E13.41563
G1 X121.821 Y32.354 E13.46865
G1 X123.688 Y33.850 E13.51161
G1 X128.991 Y39.154 E13.64629
G1 X130.778 Y41.504 E13.69932
G1 X131.872 Y44.247 E13.75234
G1 X132.194 Y47.182 E13.80537
G1 X131.719 Y50.096 E13.85839
G1 X130.189 Y53.217 E13.92081
G1 X129.482 Y54.217 E13.94280
G1 X128.083 Y55.833 E13.98119
G1 X108.083 Y74.833 E14.47658
