; generated by Slic3r 1.1.7 on 2014-11-27 at 21:45:56

; perimeters extrusion width = 0.40mm
; infill extrusion width = 0.42mm
; solid infill extrusion width = 0.42mm
; top infill extrusion width = 0.42mm

G21 ; set units to millimeters
M190 S65 ; wait for bed temperature to be reached
M104 S200 ; set temperature
G28 ; home all axes
M109 S200 ; wait for temperature to be reached
G90 ; use absolute coordinates
G92 E0
M82 ; use absolute distances for extrusion
M106 S90
G1 F2400.000 E-3.00000
G1 Z0.700 F9000.000
G92 E0
G1 X83.707 Y85.320 F9000.000
G1 Z0.400 F9000.000
G1 E3.00000 F2400.000
G1 X85.497 Y83.579 E3.04484 F1800.000
G1 X87.743 Y82.489 E3.08968
G1 X90.000 Y82.157 E3.13064
G1 X110.000 Y82.157 E3.48980
G1 X112.465 Y82.555 E3.53464
G1 X114.680 Y83.707 E3.57948 F1800.000
G1 X116.421 Y85.497 E3.62431
G1 X117.511 Y87.743 E3.66915
G1 X117.843 Y90.000 E3.71012
G1 X117.843 Y110.000 E4.06928
G1 X117.445 Y112.465 E4.11411
G1 X116.293 Y114.680 E4.15895
G1 X114.503 Y116.421 E4.20379
G1 X112.257 Y117.511 E4.24863
G1 X110.000 Y117.843 E4.28960
G1 X90.000 Y117.843 E4.64875
G1 X87.535 Y117.445 E4.69359
G1 X85.320 Y116.293 E4.73843
G1 X83.579 Y114.503 E4.78327
G1 X82.489 Y112.257 E4.82810
G1 X82.157 Y110.000 E4.86907
G1 X82.157 Y90.000 E5.22823
G1 X82.555 Y87.535 E5.27307
G1 X83.679 Y85.373 E5.31683
G1 X84.016 Y85.553 F9000.000
G1 X84.073 Y85.447 E5.31900 F1800.000
G1 X85.853 Y83.782 E5.36276
G1 X88.073 Y82.778 E5.40653
G1 X90.000 Y82.526 E5.44142
G1 X110.000 Y82.526 E5.80057
G1 X112.404 Y82.923 E5.84434
G1 X114.553 Y84.073 E5.88810 F1800.000
G1 X116.218 Y85.853 E5.93187
G1 X117.222 Y88.073 E5.97563
G1 X117.474 Y90.000 E6.01053
G1 X117.474 Y110.000 E6.36968
G1 X117.077 Y112.404 E6.41345
G1 X115.927 Y114.553 E6.45721
G1 X114.147 Y116.218 E6.50097
G1 X111.927 Y117.222 E6.54474
G1 X110.000 Y117.474 E6.57963
G1 X90.000 Y117.474 E6.93879
G1 X87.596 Y117.077 E6.98255
G1 X85.447 Y115.927 E7.02632
G1 X83.782 Y114.147 E7.07008
G1 X82.778 Y111.927 E7.11385
G1 X82.526 Y110.000 E7.14874
G1 X82.526 Y90.000 E7.50789
G1 X82.923 Y87.596 E7.55166
G1 X83.987 Y85.606 E7.59218
G1 X84.321 Y85.790 F9000.000
G1 X84.439 Y85.577 E7.59655 F1800.000
G1 X86.207 Y83.991 E7.63921
G1 X88.400 Y83.077 E7.68187
G1 X90.000 Y82.894 E7.71079
G1 X110.000 Y82.894 E8.06994
G1 X112.342 Y83.291 E8.11261
G1 X114.423 Y84.439 E8.15527 F1800.000
G1 X116.009 Y86.207 E8.19794
G1 X116.923 Y88.400 E8.24060
G1 X117.106 Y90.000 E8.26951
G1 X117.106 Y110.000 E8.62867
G1 X116.709 Y112.342 E8.67133
G1 X115.561 Y114.423 E8.71400
G1 X113.793 Y116.009 E8.75666
G1 X111.600 Y116.923 E8.79933
G1 X110.000 Y117.106 E8.82824
G1 X90.000 Y117.106 E9.18740
G1 X87.658 Y116.709 E9.23006
G1 X85.577 Y115.561 E9.27272
G1 X83.991 Y113.793 E9.31539
G1 X83.077 Y111.600 E9.35805
G1 X82.894 Y110.000 E9.38697
G1 X82.894 Y90.000 E9.74612
G1 X83.291 Y87.658 E9.78879
G1 X84.292 Y85.843 E9.82600
G1 X84.622 Y86.031 F9000.000
G1 X84.804 Y85.711 E9.83260 F1800.000
G1 X86.561 Y84.207 E9.87414
G1 X88.723 Y83.385 E9.91567
G1 X90.000 Y83.263 E9.93871
G1 X110.000 Y83.263 E10.29787
G1 X112.279 Y83.660 E10.33940
G1 X114.289 Y84.804 E10.38094 F1800.000
G1 X115.793 Y86.561 E10.42247
G1 X116.615 Y88.723 E10.46401
G1 X116.737 Y90.000 E10.48705
G1 X116.737 Y110.000 E10.84620
G1 X116.340 Y112.279 E10.88774
G1 X115.196 Y114.289 E10.92927
G1 X113.439 Y115.793 E10.97081
G1 X111.277 Y116.615 E11.01234
G1 X110.000 Y116.737 E11.03538
G1 X90.000 Y116.737 E11.39454
G1 X87.721 Y116.340 E11.43607
G1 X85.711 Y115.196 E11.47761
G1 X84.207 Y113.439 E11.51914
G1 X83.385 Y111.277 E11.56068
G1 X83.263 Y110.000 E11.58372
G1 X83.263 Y90.000 E11.94287
G1 X83.660 Y87.721 E11.98441
G1 X84.593 Y86.083 E12.01827
G1 X84.919 Y86.275 F9000.000
G1 X85.169 Y85.850 E12.02713 F1800.000
G1 X86.913 Y84.430 E12.06750
G1 X90.000 Y83.631 E12.12477
G1 X110.000 Y83.631 E12.48393
G1 X112.213 Y84.028 E12.52430
G1 X114.150 Y85.169 E12.56467 F1800.000
G1 X115.570 Y86.913 E12.60505
G1 X116.369 Y90.000 E12.66232
G1 X116.369 Y110.000 E13.02147
G1 X115.972 Y112.213 E13.06185
G1 X114.831 Y114.150 E13.10222
G1 X113.087 Y115.570 E13.14259
G1 X110.000 Y116.369 E13.19986
G1 X90.000 Y116.369 E13.55902
G1 X87.787 Y115.972 E13.59939
G1 X85.850 Y114.831 E13.63977
G1 X84.430 Y113.087 E13.68014
G1 X83.631 Y110.000 E13.73741
G1 X83.631 Y90.000 E14.09656
G1 X84.028 Y87.787 E14.13694
G1 X84.888 Y86.327 E14.16737
G1 F2400.000 E11.16737
G1 Z0.700 F9000.000
G92 E0
G1 X95.180 Y95.180 F9000.000
G1 Z0.400 F9000.000
G1 E3.00000 F2400.000
G1 X104.820 Y95.180 E3.17311 F1800.000
G1 X104.820 Y104.820 E3.34623
G1 X95.180 Y104.820 E3.51934 F1800.000
G1 X95.180 Y95.240 E3.69137
G1 F2400.000 E0.69137
G1 Z0.700 F9000.000
G92 E0
G1 X105.020 Y104.474 F9000.000
G1 X104.451 Y104.451 F9000.000
G1 Z0.400 F9000.000
G1 E3.00000 F2400.000
G1 X95.549 Y104.451 E3.15987 F1800.000
G1 X95.549 Y95.549 E3.31975
G1 X104.451 Y95.549 E3.47962 F1800.000
G1 X104.451 Y104.391 E3.63842
G1 F2400.000 E0.63842
G1 Z0.700 F9000.000
G92 E0
G1 X101.827 Y104.083 F9000.000
G1 Z0.400 F9000.000
G1 E3.00000 F2400.000
G1 X95.917 Y104.083 E3.10613 F1800.000
G1 X95.917 Y95.917 E3.25277
G1 X104.083 Y95.917 E3.39941
G1 X104.083 Y104.083 E3.54604
G1 X101.887 Y104.083 E3.58547 F1800.000
G1 F2400.000 E0.58547
G1 Z0.700 F9000.000
G92 E0
G1 X96.164 Y103.796 F9000.000
G1 Z0.400 F9000.000
G1 E3.00000 F2400.000
G1 X96.204 Y103.836 E3.00102 F1800.000
G1 X96.731 Y103.836 E3.01047
G1 X96.164 Y103.269 E3.02485
G1 X96.164 Y102.743 E3.03430
G1 X97.257 Y103.836 E3.06205
G1 X97.783 Y103.836 E3.07150
G1 X96.164 Y102.217 E3.11261
G1 X96.164 Y101.690 E3.12206
G1 X98.310 Y103.836 E3.17654
G1 X98.836 Y103.836 E3.18599
G1 X96.164 Y101.164 E3.25384
G1 X96.164 Y100.638 E3.26329
G1 X99.362 Y103.836 E3.34450
G1 X99.888 Y103.836 E3.35395
G1 X96.164 Y100.112 E3.44853
G1 X96.164 Y99.585 E3.45798
G1 X100.415 Y103.836 E3.56592
G1 X100.941 Y103.836 E3.57537
G1 X96.164 Y99.059 E3.69668
G1 X96.164 Y98.533 E3.70613
G1 X101.467 Y103.836 E3.84080
G1 X101.994 Y103.836 E3.85025
G1 X96.164 Y98.006 E3.99829
G1 X96.164 Y97.480 E4.00775
G1 X102.520 Y103.836 E4.16915
G1 X103.046 Y103.836 E4.17860
G1 X96.164 Y96.954 E4.35337
G1 X96.164 Y96.428 E4.36282
G1 X103.572 Y103.836 E4.55096
G1 X103.836 Y103.572 E4.55764
G1 X96.428 Y96.164 E4.74578
G1 X96.954 Y96.164 E4.75523
G1 X103.836 Y103.046 E4.93000
G1 X103.836 Y102.520 E4.93945
G1 X97.480 Y96.164 E5.10086
G1 X98.006 Y96.164 E5.11031
G1 X103.836 Y101.994 E5.25835
G1 X103.836 Y101.467 E5.26780
G1 X98.533 Y96.164 E5.40248
G1 X99.059 Y96.164 E5.41193
G1 X103.836 Y100.941 E5.53323
G1 X103.836 Y100.415 E5.54269
G1 X99.585 Y96.164 E5.65063
G1 X100.112 Y96.164 E5.66008
G1 X103.836 Y99.888 E5.75466
G1 X103.836 Y99.362 E5.76411
G1 X100.638 Y96.164 E5.84532
G1 X101.164 Y96.164 E5.85477
G1 X103.836 Y98.836 E5.92261
G1 X103.836 Y98.310 E5.93206
G1 X101.690 Y96.164 E5.98654
G1 X102.217 Y96.164 E5.99599
G1 X103.836 Y97.783 E6.03711
G1 X103.836 Y97.257 E6.04656
G1 X102.743 Y96.164 E6.07431
G1 X103.269 Y96.164 E6.08376
G1 X103.836 Y96.731 E6.09814
G1 X103.836 Y96.204 E6.10759
G1 X103.796 Y96.164 E6.10861
G1 F2400.000 E3.10861
G1 Z0.700 F9000.000
G92 E0
G1 X103.796 Y90.180 F9000.000
G1 Z0.400 F9000.000
G1 E3.00000 F2400.000
G1 X109.820 Y90.180 E3.10818 F1800.000
G1 X109.820 Y109.820 E3.46087
G1 X90.180 Y109.820 E3.81356 F1800.000
G1 X90.180 Y90.180 E4.16625
G1 X103.736 Y90.180 E4.40968
G1 F2400.000 E1.40968
G1 Z0.700 F9000.000
G92 E0
G1 X109.434 Y109.716 F9000.000
G1 X109.434 Y109.451 F9000.000
G1 Z0.400 F9000.000
G1 E3.00000 F2400.000
G1 X90.549 Y109.451 E3.33913 F1800.000
G1 X90.549 Y90.549 E3.67859
G1 X109.451 Y90.549 E4.01804 F1800.000
G1 X109.451 Y109.409 E4.35673
G1 F2400.000 E1.35673
G1 Z0.700 F9000.000
G92 E0
G1 X90.917 Y106.226 F9000.000
G1 Z0.400 F9000.000
G1 E3.00000 F2400.000
G1 X90.917 Y90.917 E3.27492 F1800.000
G1 X109.083 Y90.917 E3.60113
G1 X109.083 Y109.083 E3.92735
G1 X90.917 Y109.083 E4.25356 F1800.000
G1 X90.917 Y106.286 E4.30378
G1 F2400.000 E1.30378
G1 Z0.700 F9000.000
G92 E0
G1 X94.820 Y105.180 F9000.000
G1 Z0.400 F9000.000
G1 E3.00000 F2400.000
G1 X94.820 Y94.820 E3.18604 F1800.000
G1 X105.180 Y94.820 E3.37208
G1 X105.180 Y105.180 E3.55813
G1 X94.880 Y105.180 E3.74309 F1800.000
G1 F2400.000 E0.74309
G1 Z0.700 F9000.000
G92 E0
G1 X104.834 Y105.380 F9000.000
G1 X104.834 Y105.549 F9000.000
G1 Z0.400 F9000.000
G1 E3.00000 F2400.000
G1 X94.451 Y105.549 E3.18644 F1800.000
G1 X94.451 Y94.451 E3.38572
G1 X105.549 Y94.451 E3.58500 F1800.000
G1 X105.549 Y105.549 E3.78428
G1 X104.894 Y105.549 E3.79604
G1 X104.894 Y105.917 F9000.000
G1 X94.083 Y105.917 E3.99018 F1800.000
G1 X94.083 Y94.083 E4.20270
G1 X105.917 Y94.083 E4.41522
G1 X105.917 Y105.917 E4.62773
G1 X104.954 Y105.917 E4.64504 F1800.000
G1 F2400.000 E1.64504
G1 Z0.700 F9000.000
G92 E0
G1 X91.164 Y104.059 F9000.000
G1 Z0.400 F9000.000
G1 E3.00000 F2400.000
G1 X95.941 Y108.836 E3.12131 F1800.000
G1 X95.415 Y108.836 E3.13076
G1 X91.164 Y104.585 E3.23871
G1 X91.164 Y105.111 E3.24816
G1 X94.889 Y108.836 E3.34274
G1 X94.362 Y108.836 E3.35219
G1 X91.164 Y105.638 E3.43340
G1 X91.164 Y106.164 E3.44285
G1 X93.836 Y108.836 E3.51070
G1 X93.310 Y108.836 E3.52015
G1 X91.164 Y106.690 E3.57463
G1 X91.164 Y107.217 E3.58408
G1 X92.783 Y108.836 E3.62520
G1 X92.257 Y108.836 E3.63465
G1 X91.164 Y107.743 E3.66239
G1 X91.164 Y108.269 E3.67185
G1 X91.731 Y108.836 E3.68623
G1 X91.204 Y108.836 E3.69568
G1 X91.164 Y108.796 E3.69670
G1 F2400.000 E0.69670
G1 Z0.700 F9000.000
G92 E0
G1 X94.000 Y94.000 F9000.000
G1 X103.006 Y91.164 F9000.000
G1 Z0.400 F9000.000
G1 E3.00000 F2400.000
G1 X105.678 Y93.836 E3.06784 F1800.000
G1 X105.151 Y93.836 E3.07729
G1 X102.480 Y91.164 E3.14513
G1 X101.954 Y91.164 E3.15458
G1 X104.625 Y93.836 E3.22242
G1 X104.099 Y93.836 E3.23187
G1 X101.427 Y91.164 E3.29971
G1 X100.901 Y91.164 E3.30916
G1 X103.572 Y93.836 E3.37700
G1 X103.046 Y93.836 E3.38645
G1 X100.375 Y91.164 E3.45429
G1 X99.848 Y91.164 E3.46374
G1 X102.520 Y93.836 E3.53158
G1 X101.993 Y93.836 E3.54104
G1 X99.322 Y91.164 E3.60888
G1 X98.796 Y91.164 E3.61833
G1 X101.467 Y93.836 E3.68617
G1 X100.941 Y93.836 E3.69562
G1 X98.270 Y91.164 E3.76346
G1 X97.743 Y91.164 E3.77291
G1 X100.414 Y93.836 E3.84075
G1 X99.888 Y93.836 E3.85020
G1 X97.217 Y91.164 E3.91804
G1 X96.691 Y91.164 E3.92749
G1 X99.362 Y93.836 E3.99533
G1 X98.836 Y93.836 E4.00478
G1 X96.164 Y91.164 E4.07262
G1 X95.638 Y91.164 E4.08207
G1 X98.309 Y93.836 E4.14991
G1 X97.783 Y93.836 E4.15936
G1 X95.112 Y91.164 E4.22720
G1 X94.585 Y91.164 E4.23665
G1 X97.257 Y93.836 E4.30449
G1 X96.730 Y93.836 E4.31394
G1 X94.059 Y91.164 E4.38178
G1 X93.533 Y91.164 E4.39123
G1 X96.204 Y93.836 E4.45907
G1 X95.678 Y93.836 E4.46852
G1 X93.006 Y91.164 E4.53636
G1 X92.480 Y91.164 E4.54582
G1 X95.151 Y93.836 E4.61365
G1 X94.625 Y93.836 E4.62311
G1 X91.954 Y91.164 E4.69095
G1 X91.428 Y91.164 E4.70040
G1 X94.099 Y93.836 E4.76824
G1 X93.836 Y94.099 E4.77492
G1 X91.164 Y91.428 E4.84276
G1 X91.164 Y91.954 E4.85221
G1 X93.836 Y94.625 E4.92005
G1 X93.836 Y95.151 E4.92950
G1 X91.164 Y92.480 E4.99734
G1 X91.164 Y93.006 E5.00679
G1 X93.836 Y95.678 E5.07463
G1 X93.836 Y96.204 E5.08408
G1 X91.164 Y93.533 E5.15192
G1 X91.164 Y94.059 E5.16137
G1 X93.836 Y96.730 E5.22921
G1 X93.836 Y97.257 E5.23866
G1 X91.164 Y94.585 E5.30650
G1 X91.164 Y95.112 E5.31595
G1 X93.836 Y97.783 E5.38379
G1 X93.836 Y98.309 E5.39325
G1 X91.164 Y95.638 E5.46109
G1 X91.164 Y96.164 E5.47054
G1 X93.836 Y98.836 E5.53838
G1 X93.836 Y99.362 E5.54783
G1 X91.164 Y96.691 E5.61567
G1 X91.164 Y97.217 E5.62512
G1 X93.836 Y99.888 E5.69296
G1 X93.836 Y100.414 E5.70241
G1 X91.164 Y97.743 E5.77025
G1 X91.164 Y98.270 E5.77970
G1 X93.836 Y100.941 E5.84754
G1 X93.836 Y101.467 E5.85699
G1 X91.164 Y98.796 E5.92483
G1 X91.164 Y99.322 E5.93428
G1 X93.836 Y101.993 E6.00212
G1 X93.836 Y102.520 E6.01157
G1 X91.164 Y99.848 E6.07941
G1 X91.164 Y100.375 E6.08886
G1 X93.836 Y103.046 E6.15670
G1 X93.836 Y103.572 E6.16615
G1 X91.164 Y100.901 E6.23399
G1 X91.164 Y101.427 E6.24344
G1 X93.836 Y104.099 E6.31128
G1 X93.836 Y104.625 E6.32074
G1 X91.164 Y101.954 E6.38857
G1 X91.164 Y102.480 E6.39803
G1 X93.836 Y105.151 E6.46587
G1 X93.836 Y105.678 E6.47532
G1 X91.164 Y103.006 E6.54316
G1 X91.164 Y103.533 E6.55261
G1 X96.467 Y108.836 E6.68728
G1 X96.994 Y108.836 E6.69674
G1 X94.322 Y106.164 E6.76458
G1 X94.849 Y106.164 E6.77403
G1 X97.520 Y108.836 E6.84187
G1 X98.046 Y108.836 E6.85132
G1 X95.375 Y106.164 E6.91916
G1 X95.901 Y106.164 E6.92861
G1 X98.573 Y108.836 E6.99645
G1 X99.099 Y108.836 E7.00590
G1 X96.428 Y106.164 E7.07374
G1 X96.954 Y106.164 E7.08319
G1 X99.625 Y108.836 E7.15103
G1 X100.152 Y108.836 E7.16048
G1 X97.480 Y106.164 E7.22832
G1 X98.007 Y106.164 E7.23777
G1 X100.678 Y108.836 E7.30561
G1 X101.204 Y108.836 E7.31506
G1 X98.533 Y106.164 E7.38290
G1 X99.059 Y106.164 E7.39235
G1 X101.730 Y108.836 E7.46019
G1 X102.257 Y108.836 E7.46964
G1 X99.586 Y106.164 E7.53748
G1 X100.112 Y106.164 E7.54693
G1 X102.783 Y108.836 E7.61477
G1 X103.309 Y108.836 E7.62422
G1 X100.638 Y106.164 E7.69206
G1 X101.164 Y106.164 E7.70152
G1 X103.836 Y108.836 E7.76936
G1 X104.362 Y108.836 E7.77881
G1 X101.691 Y106.164 E7.84665
G1 X102.217 Y106.164 E7.85610
G1 X104.888 Y108.836 E7.92394
G1 X105.415 Y108.836 E7.93339
G1 X102.743 Y106.164 E8.00123
G1 X103.270 Y106.164 E8.01068
G1 X105.941 Y108.836 E8.07852
G1 X106.467 Y108.836 E8.08797
G1 X103.796 Y106.164 E8.15581
G1 X104.322 Y106.164 E8.16526
G1 X106.994 Y108.836 E8.23310
G1 X107.520 Y108.836 E8.24255
G1 X104.849 Y106.164 E8.31039
G1 X105.375 Y106.164 E8.31984
G1 X108.046 Y108.836 E8.38768
G1 X108.572 Y108.836 E8.39713
G1 X105.901 Y106.164 E8.46497
G1 X106.164 Y105.901 E8.47166
G1 X108.836 Y108.572 E8.53949
G1 X108.836 Y108.046 E8.54895
G1 X106.164 Y105.375 E8.61679
G1 X106.164 Y104.849 E8.62624
G1 X108.836 Y107.520 E8.69408
G1 X108.836 Y106.994 E8.70353
G1 X106.164 Y104.322 E8.77137
G1 X106.164 Y103.796 E8.78082
G1 X108.836 Y106.467 E8.84866
G1 X108.836 Y105.941 E8.85811
G1 X106.164 Y103.270 E8.92595
G1 X106.164 Y102.743 E8.93540
G1 X108.836 Y105.415 E9.00324
G1 X108.836 Y104.888 E9.01269
G1 X106.164 Y102.217 E9.08053
G1 X106.164 Y101.691 E9.08998
G1 X108.836 Y104.362 E9.15782
G1 X108.836 Y103.836 E9.16727
G1 X106.164 Y101.164 E9.23511
G1 X106.164 Y100.638 E9.24456
G1 X108.836 Y103.309 E9.31240
G1 X108.836 Y102.783 E9.32185
G1 X106.164 Y100.112 E9.38969
G1 X106.164 Y99.586 E9.39914
G1 X108.836 Y102.257 E9.46698
G1 X108.836 Y101.730 E9.47644
G1 X106.164 Y99.059 E9.54427
G1 X106.164 Y98.533 E9.55373
G1 X108.836 Y101.204 E9.62157
G1 X108.836 Y100.678 E9.63102
G1 X106.164 Y98.007 E9.69886
G1 X106.164 Y97.480 E9.70831
G1 X108.836 Y100.152 E9.77615
G1 X108.836 Y99.625 E9.78560
G1 X106.164 Y96.954 E9.85344
G1 X106.164 Y96.428 E9.86289
G1 X108.836 Y99.099 E9.93073
G1 X108.836 Y98.573 E9.94018
G1 X106.164 Y95.901 E10.00802
G1 X106.164 Y95.375 E10.01747
G1 X108.836 Y98.046 E10.08531
G1 X108.836 Y97.520 E10.09476
G1 X106.164 Y94.849 E10.16260
G1 X106.164 Y94.322 E10.17205
G1 X108.836 Y96.994 E10.23989
G1 X108.836 Y96.467 E10.24934
G1 X103.533 Y91.164 E10.38402
G1 X104.059 Y91.164 E10.39347
G1 X108.836 Y95.941 E10.51478
G1 X108.836 Y95.415 E10.52423
G1 X104.585 Y91.164 E10.63218
G1 X105.111 Y91.164 E10.64163
G1 X108.836 Y94.889 E10.73621
G1 X108.836 Y94.362 E10.74566
G1 X105.638 Y91.164 E10.82687
G1 X106.164 Y91.164 E10.83632
G1 X108.836 Y93.836 E10.90417
G1 X108.836 Y93.310 E10.91362
G1 X106.690 Y91.164 E10.96810
G1 X107.217 Y91.164 E10.97755
G1 X108.836 Y92.783 E11.01867
G1 X108.836 Y92.257 E11.02812
G1 X107.743 Y91.164 E11.05587
G1 X108.269 Y91.164 E11.06532
G1 X108.836 Y91.731 E11.07970
G1 X108.836 Y91.204 E11.08915
G1 X108.796 Y91.164 E11.09017
M106 S118
G1 F2400.000 E8.09017
G1 Z1.000 F9000.000
G92 E0
G1 X104.800 Y95.200 F9000.000
G1 Z0.700 F9000.000
G1 E3.00000 F2400.000
G1 X104.800 Y104.800 E3.18709 F2400.000
G1 X95.200 Y104.800 E3.37418 F2400.000
G1 X95.200 Y95.200 E3.56126
G1 X104.740 Y95.200 E3.74718
G1 F2400.000 E0.74718
G1 Z1.000 F9000.000
G92 E0
G1 X104.414 Y104.696 F9000.000
G1 X104.400 Y104.400 F9000.000
G1 Z0.700 F9000.000
G1 E3.00000 F2400.000
G1 X95.600 Y104.400 E3.17150 F2400.000
G1 X95.600 Y95.600 E3.34300
