; generated by Slic3r 1.1.7 on 2014-11-28 at 07:26:39

; perimeters extrusion width = 0.40mm
; infill extrusion width = 0.42mm
; solid infill extrusion width = 0.42mm
; top infill extrusion width = 0.42mm

; perimeters extrusion width = 0.50mm
; infill extrusion width = 0.70mm
; solid infill extrusion width = 0.70mm
; top infill extrusion width = 0.70mm

G21 ; set units to millimeters
M190 S65 ; wait for bed temperature to be reached
M104 S200 T0 ; set temperature
M104 S180 T1 ; set temperature
G28 ; home all axes
M109 S200 T0 ; wait for temperature to be reached
M109 S180 T1 ; wait for temperature to be reached
G90 ; use absolute coordinates
G92 E0
M82 ; use absolute distances for extrusion
T0
G92 E0
M106 S89
G1 F2400.000 E-3.00000
G1 Z0.700 F9000.000
G92 E0
G1 X50.294 Y17.625 F9000.000
G1 Z0.400 F9000.000
G1 E3.00000 F2400.000
G1 X51.455 Y15.103 E3.04986 F1800.000
G1 X53.284 Y13.014 E3.09972
G1 X55.631 Y11.530 E3.14958
G1 X59.582 Y10.687 E3.22213
G1 X79.582 Y10.687 E3.58129
G1 X82.330 Y11.085 E3.63115
G1 X84.852 Y12.246 E3.68101 F1800.000
G1 X86.941 Y14.075 E3.73086
G1 X88.425 Y16.422 E3.78072
G1 X89.268 Y20.373 E3.85328
G1 X89.268 Y40.373 E4.21244
G1 X88.870 Y43.121 E4.26229
G1 X87.709 Y45.643 E4.31215
G1 X85.880 Y47.732 E4.36201
G1 X83.534 Y49.216 E4.41187
G1 X79.582 Y50.059 E4.48443
G1 X59.582 Y50.059 E4.84358
G1 X56.834 Y49.661 E4.89344
G1 X54.312 Y48.500 E4.94330
G1 X52.223 Y46.671 E4.99316
G1 X50.739 Y44.325 E5.04302
G1 X49.896 Y40.373 E5.11557
G1 X49.896 Y20.373 E5.47473
G1 X50.286 Y17.685 E5.52351
G1 X50.654 Y17.739 F9000.000
G1 X50.663 Y17.680 E5.52459 F1800.000
G1 X51.822 Y15.216 E5.57349
G1 X53.645 Y13.193 E5.62238
G1 X55.974 Y11.783 E5.67128
G1 X59.582 Y11.056 E5.73738
G1 X79.582 Y11.056 E6.09653
G1 X82.276 Y11.454 E6.14543
G1 X84.739 Y12.613 E6.19432 F1800.000
G1 X86.762 Y14.436 E6.24322
G1 X88.172 Y16.765 E6.29212
G1 X88.899 Y20.373 E6.35821
G1 X88.899 Y40.373 E6.71737
G1 X88.501 Y43.067 E6.76626
G1 X87.342 Y45.530 E6.81516
G1 X85.520 Y47.553 E6.86406
G1 X83.190 Y48.963 E6.91295
G1 X79.582 Y49.690 E6.97905
G1 X59.582 Y49.690 E7.33820
G1 X56.888 Y49.293 E7.38710
G1 X54.425 Y48.133 E7.43600
G1 X52.402 Y46.311 E7.48489
G1 X50.992 Y43.981 E7.53379
G1 X50.265 Y40.373 E7.59988
G1 X50.265 Y20.373 E7.95904
G1 X50.645 Y17.798 E8.00578
G1 F2400.000 E-1.99422
G1 Z0.700 F9000.000
G92 E0
T1
G92 E0
G1 X4.653 Y17.854 F9000.000
G1 Z0.400 F9000.000
G1 X4.671 Y17.735 E0.00189 F1800.000
G1 X5.829 Y15.331 E0.04362
G1 X7.644 Y13.376 E0.08536
G1 X9.955 Y12.042 E0.12710
G1 X13.222 Y11.424 E0.17911
G1 X33.222 Y11.424 E0.49197
G1 X35.860 Y11.822 E0.53371
G1 X38.264 Y12.980 E0.57545 F1800.000
G1 X40.220 Y14.795 E0.61719
G1 X41.553 Y17.106 E0.65892
G1 X42.171 Y20.373 E0.71093
G1 X42.171 Y40.373 E1.02380
G1 X41.773 Y43.011 E1.06553
G1 X40.615 Y45.415 E1.10727
G1 X38.800 Y47.371 E1.14901
G1 X36.489 Y48.704 E1.19075
G1 X33.222 Y49.322 E1.24276
G1 X13.222 Y49.322 E1.55562
G1 X10.584 Y48.924 E1.59736
G1 X8.180 Y47.766 E1.63910
G1 X6.224 Y45.951 E1.68084
G1 X4.891 Y43.640 E1.72257
G1 X4.273 Y40.373 E1.77458
G1 X4.273 Y20.373 E2.08745
G1 X4.642 Y17.928 E2.12613
G1 X5.010 Y17.985 F9000.000
G1 X5.040 Y17.791 E2.12919 F1800.000
G1 X6.196 Y15.449 E2.17005
G1 X8.003 Y13.563 E2.21092
G1 X10.294 Y12.308 E2.25178
G1 X13.222 Y11.793 E2.29828
G1 X33.222 Y11.793 E2.61115
G1 X35.804 Y12.191 E2.65201
G1 X38.146 Y13.347 E2.69288 F1800.000
G1 X40.033 Y15.154 E2.73374
G1 X41.287 Y17.446 E2.77460
G1 X41.802 Y20.373 E2.82110
G1 X41.802 Y40.373 E3.13397
G1 X41.405 Y42.955 E3.17483
G1 X40.248 Y45.298 E3.21570
G1 X38.441 Y47.184 E3.25656
G1 X36.150 Y48.438 E3.29743
G1 X33.222 Y48.953 E3.34393
G1 X13.222 Y48.953 E3.65679
G1 X10.640 Y48.556 E3.69766
G1 X8.298 Y47.399 E3.73852
G1 X6.412 Y45.592 E3.77938
G1 X5.157 Y43.301 E3.82025
G1 X4.642 Y40.373 E3.86675
G1 X4.642 Y20.373 E4.17961
G1 X4.998 Y18.059 E4.21624
G1 F3600.000 E-5.78376
G1 Z0.700 F9000.000
G92 E0
T0
G92 E0
G1 X51.726 Y18.117 F9000.000
G1 Z0.400 F9000.000
G1 E10.00000 F2400.000
G1 X51.768 Y17.849 E10.00487 F1800.000
G1 X52.922 Y15.569 E10.05075
G1 X54.721 Y13.755 E10.09664
G1 X56.991 Y12.581 E10.14253
G1 X59.582 Y12.162 E10.18966
G1 X79.582 Y12.162 E10.54882
G1 X82.106 Y12.559 E10.59470
G1 X84.386 Y13.713 E10.64059 F1800.000
G1 X86.200 Y15.512 E10.68647
G1 X87.374 Y17.782 E10.73236
G1 X87.794 Y20.373 E10.77949
G1 X87.794 Y40.373 E11.13865
G1 X87.396 Y42.897 E11.18453
G1 X86.242 Y45.177 E11.23042
G1 X84.443 Y46.991 E11.27631
G1 X82.173 Y48.165 E11.32219
G1 X79.582 Y48.585 E11.36933
G1 X59.582 Y48.585 E11.72848
G1 X57.058 Y48.187 E11.77437
G1 X54.778 Y47.033 E11.82025
G1 X52.964 Y45.234 E11.86614
G1 X51.790 Y42.964 E11.91203
G1 X51.371 Y40.373 E11.95916
G1 X51.371 Y20.373 E12.31831
G1 X51.717 Y18.176 E12.35826
G1 X52.084 Y18.235 F9000.000
G1 X52.137 Y17.908 E12.36421 F1800.000
G1 X53.289 Y15.693 E12.40904
G1 X55.079 Y13.952 E12.45388
G1 X57.325 Y12.862 E12.49872
G1 X59.582 Y12.530 E12.53969
G1 X79.582 Y12.530 E12.89884
G1 X82.047 Y12.928 E12.94368
G1 X84.262 Y14.080 E12.98852 F1800.000
G1 X86.003 Y15.870 E13.03336
G1 X87.093 Y18.116 E13.07820
G1 X87.425 Y20.373 E13.11917
G1 X87.425 Y40.373 E13.47832
G1 X87.028 Y42.838 E13.52316
G1 X85.875 Y45.053 E13.56800
G1 X84.086 Y46.794 E13.61283
G1 X81.839 Y47.884 E13.65767
G1 X79.582 Y48.216 E13.69864
G1 X59.582 Y48.216 E14.05780
G1 X57.117 Y47.819 E14.10263
G1 X54.902 Y46.667 E14.14747
G1 X53.161 Y44.877 E14.19231
G1 X52.071 Y42.630 E14.23715
G1 X51.739 Y40.373 E14.27812
G1 X51.739 Y20.373 E14.63727
G1 X52.074 Y18.295 E14.67508
G1 F2400.000 E4.67508
G1 Z0.700 F9000.000
G92 E0
T1
G92 E0
G1 X6.081 Y18.355 F9000.000
G1 Z0.400 F9000.000
G1 E10.00000 F3600.000
G1 X6.145 Y17.969 E10.00613 F1800.000
G1 X7.295 Y15.820 E10.04425
G1 X9.075 Y14.155 E10.08238
G1 X11.296 Y13.151 E10.12050
G1 X13.222 Y12.899 E10.15090
G1 X33.222 Y12.899 E10.46376
G1 X35.627 Y13.296 E10.50188
G1 X37.775 Y14.446 E10.54001 F1800.000
G1 X39.440 Y16.226 E10.57813
G1 X40.444 Y18.447 E10.61626
G1 X40.696 Y20.373 E10.64665
G1 X40.696 Y40.373 E10.95951
G1 X40.299 Y42.778 E10.99764
G1 X39.149 Y44.926 E11.03576
G1 X37.369 Y46.591 E11.07389
G1 X35.149 Y47.595 E11.11201
G1 X33.222 Y47.847 E11.14241
G1 X13.222 Y47.847 E11.45527
G1 X10.818 Y47.450 E11.49339
G1 X8.669 Y46.300 E11.53152
G1 X7.004 Y44.521 E11.56964
G1 X6.000 Y42.300 E11.60777
G1 X5.748 Y40.373 E11.63816
G1 X5.748 Y20.373 E11.95103
G1 X6.069 Y18.429 E11.98185
G1 X6.435 Y18.491 F9000.000
G1 X6.514 Y18.031 E11.98916 F1800.000
G1 X7.661 Y15.950 E12.02632
G1 X9.430 Y14.364 E12.06349
G1 X11.622 Y13.450 E12.10065
G1 X13.222 Y13.267 E12.12584
G1 X33.222 Y13.267 E12.43870
G1 X35.564 Y13.665 E12.47587
G1 X37.645 Y14.812 E12.51303 F1800.000
G1 X39.231 Y16.581 E12.55020
G1 X40.145 Y18.773 E12.58737
G1 X40.328 Y20.373 E12.61255
G1 X40.328 Y40.373 E12.92542
G1 X39.931 Y42.716 E12.96258
G1 X38.784 Y44.796 E12.99975
G1 X37.015 Y46.382 E13.03691
G1 X34.822 Y47.296 E13.07408
G1 X33.222 Y47.479 E13.09926
G1 X13.222 Y47.479 E13.41213
G1 X10.880 Y47.082 E13.44929
G1 X8.799 Y45.935 E13.48646
G1 X7.213 Y44.166 E13.52363
G1 X6.299 Y41.973 E13.56079
G1 X6.116 Y40.373 E13.58598
G1 X6.116 Y20.373 E13.89884
G1 X6.423 Y18.565 E13.92753
G1 F3600.000 E3.92753
G1 Z0.700 F9000.000
G92 E0
T0
G92 E0
G1 X53.149 Y18.629 F9000.000
G1 Z0.400 F9000.000
G1 E10.00000 F2400.000
G1 X53.242 Y18.095 E10.00974 F1800.000
G1 X54.386 Y16.084 E10.05128
G1 X56.143 Y14.580 E10.09281
G1 X58.305 Y13.758 E10.13435
G1 X59.582 Y13.636 E10.15739
G1 X79.582 Y13.636 E10.51654
G1 X81.861 Y14.033 E10.55808
G1 X83.871 Y15.177 E10.59961 F1800.000
G1 X85.375 Y16.934 E10.64115
G1 X86.197 Y19.096 E10.68268
G1 X86.319 Y20.373 E10.70572
G1 X86.319 Y40.373 E11.06488
G1 X85.922 Y42.652 E11.10641
G1 X84.778 Y44.662 E11.14795
G1 X83.021 Y46.166 E11.18948
G1 X80.859 Y46.988 E11.23102
G1 X79.582 Y47.110 E11.25406
G1 X59.582 Y47.110 E11.61321
G1 X57.303 Y46.713 E11.65475
G1 X55.293 Y45.569 E11.69628
G1 X53.789 Y43.812 E11.73782
G1 X52.967 Y41.650 E11.77935
G1 X52.845 Y40.373 E11.80239
G1 X52.845 Y20.373 E12.16155
G1 X53.139 Y18.688 E12.19226
G1 X53.504 Y18.754 F9000.000
G1 X53.610 Y18.160 E12.20309 F1800.000
G1 X54.751 Y16.223 E12.24346
G1 X56.495 Y14.803 E12.28384
G1 X59.582 Y14.005 E12.34111
G1 X79.582 Y14.005 E12.70026
G1 X81.795 Y14.401 E12.74064
G1 X83.732 Y15.543 E12.78101 F1800.000
G1 X85.152 Y17.286 E12.82138
G1 X85.951 Y20.373 E12.87865
G1 X85.951 Y40.373 E13.23781
G1 X85.554 Y42.586 E13.27818
G1 X84.413 Y44.523 E13.31856
G1 X82.670 Y45.943 E13.35893
G1 X79.582 Y46.742 E13.41620
G1 X59.582 Y46.742 E13.77535
G1 X57.369 Y46.345 E13.81573
G1 X55.432 Y45.204 E13.85610
G1 X54.012 Y43.461 E13.89648
G1 X53.214 Y40.373 E13.95374
G1 X53.214 Y20.373 E14.31290
G1 X53.493 Y18.813 E14.34137
G1 F2400.000 E11.34137
G1 Z0.700 F9000.000
G92 E0
G1 X59.762 Y20.553 F9000.000
G1 Z0.400 F9000.000
G1 E3.00000 F2400.000
G1 X79.402 Y20.553 E3.35269 F1800.000
G1 X79.402 Y40.193 E3.70538
G1 X59.762 Y40.193 E4.05807 F1800.000
G1 X59.762 Y20.613 E4.40968
G1 F2400.000 E1.40968
G1 Z0.700 F9000.000
G92 E0
G1 X79.602 Y39.847 F9000.000
G1 X79.034 Y39.825 F9000.000
G1 Z0.400 F9000.000
G1 E3.00000 F2400.000
G1 X60.131 Y39.825 E3.33945 F1800.000
G1 X60.131 Y20.922 E3.67890
G1 X79.034 Y20.922 E4.01836 F1800.000
G1 X79.034 Y39.765 E4.35673
G1 F2400.000 E1.35673
G1 Z0.700 F9000.000
G92 E0
G1 X67.039 Y21.290 F9000.000
G1 Z0.400 F9000.000
G1 E3.00000 F2400.000
G1 X78.665 Y21.290 E3.20878 F1800.000
G1 X78.665 Y39.456 E3.53499
G1 X60.499 Y39.456 E3.86120 F1800.000
G1 X60.499 Y21.290 E4.18742
G1 X66.979 Y21.290 E4.30378
G1 F2400.000 E1.30378
G1 Z0.700 F9000.000
G92 E0
G1 X66.979 Y25.193 F9000.000
G1 Z0.400 F9000.000
G1 E3.00000 F2400.000
G1 X74.762 Y25.193 E3.13977 F1800.000
G1 X74.762 Y35.553 E3.32581
G1 X64.402 Y35.553 E3.51185 F1800.000
G1 X64.402 Y25.193 E3.69789
G1 X66.919 Y25.193 E3.74309
G1 F2400.000 E0.74309
G1 Z0.700 F9000.000
G92 E0
G1 X74.866 Y35.940 F9000.000
G1 X74.866 Y35.922 F9000.000
G1 Z0.400 F9000.000
G1 E3.00000 F2400.000
G1 X64.034 Y35.922 E3.19452 F1800.000
G1 X64.034 Y24.825 E3.39380
G1 X75.131 Y24.825 E3.59308 F1800.000
G1 X75.131 Y35.922 E3.79236
G1 X74.926 Y35.922 E3.79604
G1 X74.926 Y36.290 F9000.000
G1 X63.665 Y36.290 E3.99826 F1800.000
G1 X63.665 Y24.456 E4.21078
G1 X75.499 Y24.456 E4.42330
G1 X75.499 Y36.290 E4.63581
G1 X74.986 Y36.290 E4.64504 F1800.000
G1 F2400.000 E1.64504
G1 Z0.700 F9000.000
G92 E0
G1 X60.746 Y34.432 F9000.000
G1 Z0.400 F9000.000
G1 E3.00000 F2400.000
G1 X65.523 Y39.209 E3.12131 F1800.000
G1 X64.997 Y39.209 E3.13076
G1 X60.746 Y34.958 E3.23871
G1 X60.746 Y35.485 E3.24816
G1 X64.471 Y39.209 E3.34274
G1 X63.944 Y39.209 E3.35219
G1 X60.746 Y36.011 E3.43340
G1 X60.746 Y36.537 E3.44285
G1 X63.418 Y39.209 E3.51070
G1 X62.892 Y39.209 E3.52015
G1 X60.746 Y37.064 E3.57463
G1 X60.746 Y37.590 E3.58408
G1 X62.365 Y39.209 E3.62520
G1 X61.839 Y39.209 E3.63465
G1 X60.746 Y38.116 E3.66239
G1 X60.746 Y38.642 E3.67185
G1 X61.313 Y39.209 E3.68623
G1 X60.786 Y39.209 E3.69568
G1 X60.746 Y39.169 E3.69670
G1 F2400.000 E0.69670
G1 Z0.700 F9000.000
G92 E0
G1 X72.588 Y21.538 F9000.000
G1 Z0.400 F9000.000
G1 E3.00000 F2400.000
G1 X75.260 Y24.209 E3.06784 F1800.000
G1 X74.733 Y24.209 E3.07729
G1 X72.062 Y21.538 E3.14513
G1 X71.536 Y21.538 E3.15458
G1 X74.207 Y24.209 E3.22242
G1 X73.681 Y24.209 E3.23187
G1 X71.009 Y21.538 E3.29971
G1 X70.483 Y21.538 E3.30916
G1 X73.154 Y24.209 E3.37700
G1 X72.628 Y24.209 E3.38645
G1 X69.957 Y21.538 E3.45429
G1 X69.431 Y21.538 E3.46374
G1 X72.102 Y24.209 E3.53158
G1 X71.575 Y24.209 E3.54104
G1 X68.904 Y21.538 E3.60887
G1 X68.378 Y21.538 E3.61833
G1 X71.049 Y24.209 E3.68617
G1 X70.523 Y24.209 E3.69562
G1 X67.852 Y21.538 E3.76346
G1 X67.325 Y21.538 E3.77291
G1 X69.997 Y24.209 E3.84075
G1 X69.470 Y24.209 E3.85020
G1 X66.799 Y21.538 E3.91804
G1 X66.273 Y21.538 E3.92749
G1 X68.944 Y24.209 E3.99533
G1 X68.418 Y24.209 E4.00478
G1 X65.746 Y21.538 E4.07262
G1 X65.220 Y21.538 E4.08207
G1 X67.891 Y24.209 E4.14991
G1 X67.365 Y24.209 E4.15936
G1 X64.694 Y21.538 E4.22720
G1 X64.167 Y21.538 E4.23665
G1 X66.839 Y24.209 E4.30449
G1 X66.312 Y24.209 E4.31394
G1 X63.641 Y21.538 E4.38178
G1 X63.115 Y21.538 E4.39123
G1 X65.786 Y24.209 E4.45907
G1 X65.260 Y24.209 E4.46852
G1 X62.589 Y21.538 E4.53636
G1 X62.062 Y21.538 E4.54582
G1 X64.733 Y24.209 E4.61365
G1 X64.207 Y24.209 E4.62311
G1 X61.536 Y21.538 E4.69095
G1 X61.010 Y21.538 E4.70040
G1 X63.681 Y24.209 E4.76824
G1 X63.418 Y24.472 E4.77492
G1 X60.746 Y21.801 E4.84276
G1 X60.746 Y22.327 E4.85221
G1 X63.418 Y24.998 E4.92005
G1 X63.418 Y25.525 E4.92950
G1 X60.746 Y22.853 E4.99734
G1 X60.746 Y23.380 E5.00679
G1 X63.418 Y26.051 E5.07463
G1 X63.418 Y26.577 E5.08408
G1 X60.746 Y23.906 E5.15192
G1 X60.746 Y24.432 E5.16137
G1 X63.418 Y27.103 E5.22921
G1 X63.418 Y27.630 E5.23866
G1 X60.746 Y24.958 E5.30650
G1 X60.746 Y25.485 E5.31595
G1 X63.418 Y28.156 E5.38379
G1 X63.418 Y28.682 E5.39325
G1 X60.746 Y26.011 E5.46109
G1 X60.746 Y26.537 E5.47054
G1 X63.418 Y29.209 E5.53838
G1 X63.418 Y29.735 E5.54783
G1 X60.746 Y27.064 E5.61567
G1 X60.746 Y27.590 E5.62512
G1 X63.418 Y30.261 E5.69296
G1 X63.418 Y30.788 E5.70241
G1 X60.746 Y28.116 E5.77025
G1 X60.746 Y28.643 E5.77970
G1 X63.418 Y31.314 E5.84754
G1 X63.418 Y31.840 E5.85699
G1 X60.746 Y29.169 E5.92483
G1 X60.746 Y29.695 E5.93428
G1 X63.418 Y32.367 E6.00212
G1 X63.418 Y32.893 E6.01157
G1 X60.746 Y30.222 E6.07941
G1 X60.746 Y30.748 E6.08886
G1 X63.418 Y33.419 E6.15670
G1 X63.418 Y33.945 E6.16615
G1 X60.746 Y31.274 E6.23399
G1 X60.746 Y31.800 E6.24344
G1 X63.418 Y34.472 E6.31128
G1 X63.418 Y34.998 E6.32073
G1 X60.746 Y32.327 E6.38857
G1 X60.746 Y32.853 E6.39803
G1 X63.418 Y35.524 E6.46586
G1 X63.418 Y36.051 E6.47532
G1 X60.746 Y33.379 E6.54316
G1 X60.746 Y33.906 E6.55261
G1 X66.050 Y39.209 E6.68728
G1 X66.576 Y39.209 E6.69674
G1 X63.905 Y36.538 E6.76457
G1 X64.431 Y36.538 E6.77403
G1 X67.102 Y39.209 E6.84187
G1 X67.628 Y39.209 E6.85132
G1 X64.957 Y36.538 E6.91916
G1 X65.483 Y36.538 E6.92861
G1 X68.155 Y39.209 E6.99645
G1 X68.681 Y39.209 E7.00590
G1 X66.010 Y36.538 E7.07374
G1 X66.536 Y36.538 E7.08319
G1 X69.207 Y39.209 E7.15103
G1 X69.734 Y39.209 E7.16048
G1 X67.062 Y36.538 E7.22832
G1 X67.589 Y36.538 E7.23777
G1 X70.260 Y39.209 E7.30561
G1 X70.786 Y39.209 E7.31506
G1 X68.115 Y36.538 E7.38290
G1 X68.641 Y36.538 E7.39235
G1 X71.313 Y39.209 E7.46019
G1 X71.839 Y39.209 E7.46964
G1 X69.168 Y36.538 E7.53748
G1 X69.694 Y36.538 E7.54693
G1 X72.365 Y39.209 E7.61477
G1 X72.892 Y39.209 E7.62422
G1 X70.220 Y36.538 E7.69206
G1 X70.747 Y36.538 E7.70152
G1 X73.418 Y39.209 E7.76935
G1 X73.944 Y39.209 E7.77881
G1 X71.273 Y36.538 E7.84665
G1 X71.799 Y36.538 E7.85610
G1 X74.470 Y39.209 E7.92394
G1 X74.997 Y39.209 E7.93339
G1 X72.325 Y36.538 E8.00123
G1 X72.852 Y36.538 E8.01068
G1 X75.523 Y39.209 E8.07852
G1 X76.049 Y39.209 E8.08797
G1 X73.378 Y36.538 E8.15581
G1 X73.904 Y36.538 E8.16526
G1 X76.576 Y39.209 E8.23310
G1 X77.102 Y39.209 E8.24255
G1 X74.431 Y36.538 E8.31039
G1 X74.957 Y36.538 E8.31984
G1 X77.628 Y39.209 E8.38768
G1 X78.155 Y39.209 E8.39713
G1 X75.483 Y36.538 E8.46497
G1 X75.746 Y36.274 E8.47166
G1 X78.418 Y38.946 E8.53949
G1 X78.418 Y38.419 E8.54895
G1 X75.746 Y35.748 E8.61679
G1 X75.746 Y35.222 E8.62624
G1 X78.418 Y37.893 E8.69408
G1 X78.418 Y37.367 E8.70353
G1 X75.746 Y34.695 E8.77137
G1 X75.746 Y34.169 E8.78082
G1 X78.418 Y36.840 E8.84866
G1 X78.418 Y36.314 E8.85811
G1 X75.746 Y33.643 E8.92595
G1 X75.746 Y33.117 E8.93540
G1 X78.418 Y35.788 E9.00324
G1 X78.418 Y35.261 E9.01269
G1 X75.746 Y32.590 E9.08053
G1 X75.746 Y32.064 E9.08998
G1 X78.418 Y34.735 E9.15782
G1 X78.418 Y34.209 E9.16727
G1 X75.746 Y31.538 E9.23511
G1 X75.746 Y31.011 E9.24456
G1 X78.418 Y33.683 E9.31240
G1 X78.418 Y33.156 E9.32185
G1 X75.746 Y30.485 E9.38969
G1 X75.746 Y29.959 E9.39914
G1 X78.418 Y32.630 E9.46698
G1 X78.418 Y32.104 E9.47644
G1 X75.746 Y29.432 E9.54427
G1 X75.746 Y28.906 E9.55373
G1 X78.418 Y31.577 E9.62157
G1 X78.418 Y31.051 E9.63102
G1 X75.746 Y28.380 E9.69886
G1 X75.746 Y27.853 E9.70831
G1 X78.418 Y30.525 E9.77615
G1 X78.418 Y29.998 E9.78560
G1 X75.746 Y27.327 E9.85344
G1 X75.746 Y26.801 E9.86289
G1 X78.418 Y29.472 E9.93073
