; generated by Slic3r 1.1.7 on 2014-11-28 at 15:42:28

; perimeters extrusion width = 0.40mm
; infill extrusion width = 0.42mm
; solid infill extrusion width = 0.42mm
; top infill extrusion width = 0.42mm

; perimeters extrusion width = 0.50mm
; infill extrusion width = 0.70mm
; solid infill extrusion width = 0.70mm
; top infill extrusion width = 0.70mm

G21 ; set units to millimeters
M190 S65 ; wait for bed temperature to be reached
M104 S200 T0 ; set temperature
M104 S180 T1 ; set temperature
G28 ; home all axes
M109 S200 T0 ; wait for temperature to be reached
M109 S180 T1 ; wait for temperature to be reached
G90 ; use absolute coordinates
G92 E0
M82 ; use absolute distances for extrusion
T0
G92 E0
M106 S89
G1 F2400.000 E-3.00000
G1 Z0.700 F9000.000
G92 E0
G1 X82.742 Y18.715 F9000.000
G1 Z0.400 F9000.000
G1 E3.00000 F2400.000
G1 X83.903 Y16.193 E3.04986 F1800.000
G1 X85.732 Y14.104 E3.09972
G1 X88.078 Y12.620 E3.14958
G1 X92.030 Y11.777 E3.22213
G1 X112.030 Y11.777 E3.58129
G1 X114.778 Y12.175 E3.63115
G1 X117.300 Y13.336 E3.68101 F1800.000
G1 X119.389 Y15.165 E3.73086
G1 X120.873 Y17.511 E3.78072
G1 X121.716 Y21.463 E3.85328
G1 X121.716 Y41.463 E4.21244
G1 X121.318 Y44.210 E4.26229
G1 X120.157 Y46.732 E4.31215
G1 X118.328 Y48.821 E4.36201
G1 X115.981 Y50.306 E4.41187
G1 X112.030 Y51.149 E4.48443
G1 X92.030 Y51.149 E4.84358
G1 X89.282 Y50.751 E4.89344
G1 X86.760 Y49.589 E4.94330
G1 X84.671 Y47.761 E4.99316
G1 X83.187 Y45.414 E5.04302
G1 X82.344 Y41.463 E5.11557
G1 X82.344 Y21.463 E5.47473
G1 X82.733 Y18.774 E5.52351
G1 X83.102 Y18.829 F9000.000
G1 X83.110 Y18.769 E5.52459 F1800.000
G1 X84.270 Y16.306 E5.57349
G1 X86.092 Y14.282 E5.62238
G1 X88.422 Y12.872 E5.67128
G1 X92.030 Y12.145 E5.73738
G1 X112.030 Y12.145 E6.09653
G1 X114.723 Y12.543 E6.14543
G1 X117.187 Y13.703 E6.19432 F1800.000
G1 X119.210 Y15.525 E6.24322
G1 X120.620 Y17.855 E6.29212
G1 X121.347 Y21.463 E6.35821
G1 X121.347 Y41.463 E6.71737
G1 X120.949 Y44.156 E6.76626
G1 X119.790 Y46.620 E6.81516
G1 X117.967 Y48.643 E6.86406
G1 X115.638 Y50.053 E6.91295
G1 X112.030 Y50.780 E6.97905
G1 X92.030 Y50.780 E7.33820
G1 X89.336 Y50.382 E7.38710
G1 X86.873 Y49.223 E7.43600
G1 X84.850 Y47.400 E7.48489
G1 X83.440 Y45.071 E7.53379
G1 X82.713 Y41.463 E7.59988
G1 X82.713 Y21.463 E7.95904
G1 X83.093 Y18.888 E8.00578
G1 F2400.000 E-1.99422
G1 Z0.700 F9000.000
G92 E0
T1
G92 E0
G1 X36.811 Y17.944 F9000.000
G1 Z0.400 F9000.000
G1 X36.829 Y17.824 E0.00189 F1800.000
G1 X37.987 Y15.421 E0.04362
G1 X39.802 Y13.465 E0.08536
G1 X42.113 Y12.132 E0.12710
G1 X45.380 Y11.514 E0.17911
G1 X65.380 Y11.514 E0.49197
G1 X68.018 Y11.912 E0.53371
G1 X70.422 Y13.070 E0.57545 F1800.000
G1 X72.377 Y14.885 E0.61719
G1 X73.711 Y17.196 E0.65892
G1 X74.329 Y20.463 E0.71093
G1 X74.329 Y40.463 E1.02380
G1 X73.931 Y43.101 E1.06553
G1 X72.773 Y45.505 E1.10727
G1 X70.958 Y47.460 E1.14901
G1 X68.647 Y48.794 E1.19075
G1 X65.380 Y49.411 E1.24276
G1 X45.380 Y49.411 E1.55562
G1 X42.742 Y49.014 E1.59736
G1 X40.338 Y47.856 E1.63910
G1 X38.382 Y46.040 E1.68084
G1 X37.049 Y43.729 E1.72257
G1 X36.431 Y40.463 E1.77458
G1 X36.431 Y20.463 E2.08745
G1 X36.800 Y18.018 E2.12613
G1 X37.168 Y18.074 F9000.000
G1 X37.197 Y17.881 E2.12919 F1800.000
G1 X38.354 Y15.538 E2.17005
G1 X40.161 Y13.652 E2.21092
G1 X42.452 Y12.398 E2.25178
G1 X45.380 Y11.883 E2.29828
G1 X65.380 Y11.883 E2.61115
G1 X67.962 Y12.280 E2.65201
G1 X70.304 Y13.436 E2.69288 F1800.000
G1 X72.190 Y15.244 E2.73374
G1 X73.445 Y17.535 E2.77460
G1 X73.960 Y20.463 E2.82110
G1 X73.960 Y40.463 E3.13397
G1 X73.562 Y43.045 E3.17483
G1 X72.406 Y45.387 E3.21570
G1 X70.599 Y47.273 E3.25656
G1 X68.307 Y48.528 E3.29743
G1 X65.380 Y49.043 E3.34393
G1 X45.380 Y49.043 E3.65679
G1 X42.798 Y48.645 E3.69766
G1 X40.455 Y47.489 E3.73852
G1 X38.569 Y45.682 E3.77938
G1 X37.315 Y43.390 E3.82025
G1 X36.800 Y40.463 E3.86675
G1 X36.800 Y20.463 E4.17961
G1 X37.156 Y18.148 E4.21624
G1 F3600.000 E-5.78376
G1 Z0.700 F9000.000
G92 E0
T0
G92 E0
G1 X84.174 Y19.206 F9000.000
G1 Z0.400 F9000.000
G1 E10.00000 F2400.000
G1 X84.216 Y18.939 E10.00487 F1800.000
G1 X85.370 Y16.659 E10.05075
G1 X87.169 Y14.844 E10.09664
G1 X89.439 Y13.671 E10.14253
G1 X92.030 Y13.251 E10.18966
G1 X112.030 Y13.251 E10.54882
G1 X114.554 Y13.649 E10.59470
G1 X116.834 Y14.803 E10.64059 F1800.000
G1 X118.648 Y16.602 E10.68647
G1 X119.822 Y18.872 E10.73236
G1 X120.241 Y21.463 E10.77949
G1 X120.241 Y41.463 E11.13865
G1 X119.844 Y43.987 E11.18453
G1 X118.690 Y46.266 E11.23042
G1 X116.891 Y48.081 E11.27631
G1 X114.621 Y49.255 E11.32219
G1 X112.030 Y49.674 E11.36933
G1 X92.030 Y49.674 E11.72848
G1 X89.506 Y49.277 E11.77437
G1 X87.226 Y48.122 E11.82025
G1 X85.411 Y46.323 E11.86614
G1 X84.238 Y44.054 E11.91203
G1 X83.818 Y41.463 E11.95916
G1 X83.818 Y21.463 E12.31831
G1 X84.164 Y19.266 E12.35826
G1 X84.532 Y19.325 F9000.000
G1 X84.584 Y18.998 E12.36421 F1800.000
G1 X85.736 Y16.782 E12.40904
G1 X87.526 Y15.042 E12.45388
G1 X89.773 Y13.952 E12.49872
G1 X92.030 Y13.620 E12.53969
G1 X112.030 Y13.620 E12.89884
G1 X114.495 Y14.017 E12.94368
G1 X116.710 Y15.169 E12.98852 F1800.000
G1 X118.451 Y16.959 E13.03336
G1 X119.541 Y19.206 E13.07820
G1 X119.873 Y21.463 E13.11917
G1 X119.873 Y41.463 E13.47832
G1 X119.475 Y43.928 E13.52316
G1 X118.323 Y46.143 E13.56800
G1 X116.533 Y47.884 E13.61283
G1 X114.287 Y48.974 E13.65767
G1 X112.030 Y49.306 E13.69864
G1 X92.030 Y49.306 E14.05780
G1 X89.565 Y48.908 E14.10263
G1 X87.350 Y47.756 E14.14747
G1 X85.609 Y45.966 E14.19231
G1 X84.519 Y43.720 E14.23715
G1 X84.187 Y41.463 E14.27812
G1 X84.187 Y21.463 E14.63727
G1 X84.522 Y19.384 E14.67508
G1 F2400.000 E4.67508
G1 Z0.700 F9000.000
G92 E0
T1
G92 E0
G1 X38.239 Y18.445 F9000.000
G1 Z0.400 F9000.000
G1 E10.00000 F3600.000
G1 X38.303 Y18.058 E10.00613 F1800.000
G1 X39.453 Y15.909 E10.04425
G1 X41.232 Y14.245 E10.08238
G1 X43.453 Y13.241 E10.12050
G1 X45.380 Y12.988 E10.15090
G1 X65.380 Y12.988 E10.46376
G1 X67.784 Y13.386 E10.50188
G1 X69.933 Y14.535 E10.54001 F1800.000
G1 X71.598 Y16.315 E10.57813
G1 X72.602 Y18.536 E10.61626
G1 X72.854 Y20.463 E10.64665
G1 X72.854 Y40.463 E10.95951
G1 X72.457 Y42.867 E10.99764
G1 X71.307 Y45.016 E11.03576
G1 X69.527 Y46.681 E11.07389
G1 X67.306 Y47.684 E11.11201
G1 X65.380 Y47.937 E11.14241
G1 X45.380 Y47.937 E11.45527
G1 X42.975 Y47.540 E11.49339
G1 X40.826 Y46.390 E11.53152
G1 X39.162 Y44.610 E11.56964
G1 X38.158 Y42.389 E11.60777
G1 X37.906 Y40.463 E11.63816
G1 X37.906 Y20.463 E11.95103
G1 X38.227 Y18.519 E11.98185
G1 X38.593 Y18.581 F9000.000
G1 X38.671 Y18.120 E11.98916 F1800.000
G1 X39.818 Y16.040 E12.02632
G1 X41.587 Y14.454 E12.06349
G1 X43.780 Y13.539 E12.10065
G1 X45.380 Y13.357 E12.12584
G1 X65.380 Y13.357 E12.43870
G1 X67.722 Y13.754 E12.47587
G1 X69.803 Y14.901 E12.51303 F1800.000
G1 X71.389 Y16.670 E12.55020
G1 X72.303 Y18.863 E12.58737
G1 X72.486 Y20.463 E12.61255
G1 X72.486 Y40.463 E12.92542
G1 X72.088 Y42.805 E12.96258
G1 X70.941 Y44.886 E12.99975
G1 X69.172 Y46.472 E13.03691
G1 X66.980 Y47.386 E13.07408
G1 X65.380 Y47.568 E13.09926
G1 X45.380 Y47.568 E13.41213
G1 X43.037 Y47.171 E13.44929
G1 X40.957 Y46.024 E13.48646
G1 X39.371 Y44.255 E13.52363
G1 X38.456 Y42.062 E13.56079
G1 X38.274 Y40.463 E13.58598
G1 X38.274 Y20.463 E13.89884
G1 X38.581 Y18.655 E13.92753
G1 F3600.000 E3.92753
G1 Z0.700 F9000.000
G92 E0
T0
G92 E0
G1 X85.597 Y19.719 F9000.000
G1 Z0.400 F9000.000
G1 E10.00000 F2400.000
G1 X85.690 Y19.184 E10.00974 F1800.000
G1 X86.834 Y17.174 E10.05128
G1 X88.591 Y15.669 E10.09281
G1 X90.753 Y14.848 E10.13435
G1 X92.030 Y14.726 E10.15739
G1 X112.030 Y14.726 E10.51654
G1 X114.308 Y15.123 E10.55808
G1 X116.319 Y16.267 E10.59961 F1800.000
G1 X117.823 Y18.024 E10.64115
G1 X118.645 Y20.186 E10.68268
G1 X118.767 Y21.463 E10.70572
G1 X118.767 Y41.463 E11.06488
G1 X118.370 Y43.741 E11.10641
G1 X117.226 Y45.751 E11.14795
G1 X115.469 Y47.256 E11.18948
G1 X113.307 Y48.078 E11.23102
G1 X112.030 Y48.200 E11.25406
G1 X92.030 Y48.200 E11.61321
G1 X89.751 Y47.803 E11.65475
G1 X87.741 Y46.659 E11.69628
G1 X86.237 Y44.902 E11.73782
G1 X85.415 Y42.740 E11.77935
G1 X85.293 Y41.463 E11.80239
G1 X85.293 Y21.463 E12.16155
G1 X85.586 Y19.778 E12.19226
G1 X85.952 Y19.843 F9000.000
G1 X86.058 Y19.250 E12.20309 F1800.000
G1 X87.199 Y17.312 E12.24346
G1 X88.942 Y15.893 E12.28384
G1 X92.030 Y15.094 E12.34111
G1 X112.030 Y15.094 E12.70026
G1 X114.243 Y15.491 E12.74064
G1 X116.180 Y16.632 E12.78101 F1800.000
G1 X117.600 Y18.375 E12.82138
G1 X118.398 Y21.463 E12.87865
G1 X118.398 Y41.463 E13.23781
G1 X118.002 Y43.676 E13.27818
G1 X116.860 Y45.613 E13.31856
G1 X115.117 Y47.033 E13.35893
G1 X112.030 Y47.831 E13.41620
G1 X92.030 Y47.831 E13.77535
G1 X89.817 Y47.434 E13.81573
G1 X87.880 Y46.293 E13.85610
G1 X86.460 Y44.550 E13.89648
G1 X85.661 Y41.463 E13.95374
G1 X85.661 Y21.463 E14.31290
G1 X85.941 Y19.902 E14.34137
G1 F2400.000 E11.34137
G1 Z0.700 F9000.000
G92 E0
G1 X92.210 Y21.643 F9000.000
G1 Z0.400 F9000.000
G1 E3.00000 F2400.000
G1 X111.850 Y21.643 E3.35269 F1800.000
G1 X111.850 Y31.283 E3.52580
G1 X107.184 Y31.283 E3.60960 F1800.000
G1 X106.958 Y29.861 E3.63544
G1 X106.222 Y28.417 E3.66456
G1 X105.076 Y27.270 E3.69367
G1 X103.631 Y26.534 E3.72279
G1 X102.030 Y26.280 E3.75191
G1 X100.428 Y26.534 E3.78102
G1 X98.984 Y27.270 E3.81014
G1 X97.837 Y28.417 E3.83925
G1 X97.101 Y29.861 E3.86837
G1 X96.876 Y31.283 E3.89421
G1 X92.210 Y31.283 E3.97801
G1 X92.210 Y21.703 E4.15004
G1 F2400.000 E1.15004
G1 Z0.700 F9000.000
G92 E0
G1 X112.050 Y30.936 F9000.000
G1 X111.481 Y30.914 F9000.000
G1 Z0.400 F9000.000
G1 E3.00000 F2400.000
G1 X107.498 Y30.914 E3.07152 F1800.000
G1 X107.313 Y29.746 E3.09276
G1 X106.524 Y28.197 E3.12397
G1 X105.295 Y26.968 E3.15519
G1 X103.747 Y26.179 E3.18640
G1 X102.030 Y25.907 E3.21761
G1 X100.313 Y26.179 E3.24883
G1 X98.764 Y26.968 E3.28004
G1 X97.535 Y28.197 E3.31125
G1 X96.746 Y29.746 E3.34246
G1 X96.561 Y30.914 E3.36370
G1 X92.578 Y30.914 E3.43523
G1 X92.578 Y22.011 E3.59510
G1 X111.481 Y22.011 E3.93455 F1800.000
G1 X111.481 Y30.854 E4.09335
G1 F2400.000 E1.09335
G1 Z0.700 F9000.000
G92 E0
G1 X93.937 Y22.380 F9000.000
G1 Z0.400 F9000.000
G1 E3.00000 F2400.000
G1 X111.113 Y22.380 E3.30845 F1800.000
G1 X111.113 Y30.546 E3.45508
G1 X107.813 Y30.546 E3.51433 F1800.000
G1 X107.668 Y29.631 E3.53097
G1 X106.826 Y27.978 E3.56428
G1 X105.515 Y26.666 E3.59759
G1 X103.862 Y25.824 E3.63090
G1 X102.030 Y25.534 E3.66421
G1 X100.198 Y25.824 E3.69751
G1 X98.545 Y26.666 E3.73082
G1 X97.234 Y27.978 E3.76413
G1 X96.391 Y29.631 E3.79744
G1 X96.247 Y30.546 E3.81408
G1 X92.947 Y30.546 E3.87333
G1 X92.947 Y22.380 E4.01996
G1 X93.877 Y22.380 E4.03666
G1 F2400.000 E1.03666
G1 Z0.700 F9000.000
G92 E0
G1 X93.234 Y30.298 F9000.000
G1 Z0.400 F9000.000
G1 E3.00000 F2400.000
G1 X93.194 Y30.258 E3.00102 F1800.000
G1 X93.194 Y29.732 E3.01047
G1 X93.761 Y30.298 E3.02485
G1 X94.287 Y30.298 E3.03430
G1 X93.194 Y29.206 E3.06205
G1 X93.194 Y28.679 E3.07150
G1 X94.813 Y30.298 E3.11261
G1 X95.339 Y30.298 E3.12206
G1 X93.194 Y28.153 E3.17654
G1 X93.194 Y27.627 E3.18600
G1 X95.866 Y30.298 E3.25384
G1 X96.084 Y29.990 E3.26062
G1 X93.194 Y27.101 E3.33401
G1 X93.194 Y26.574 E3.34346
G1 X96.160 Y29.540 E3.41879
G1 X96.338 Y29.191 E3.42581
G1 X93.194 Y26.048 E3.50565
G1 X93.194 Y25.522 E3.51510
G1 X96.515 Y28.843 E3.59944
G1 X96.693 Y28.494 E3.60647
G1 X93.194 Y24.995 E3.69533
G1 X93.194 Y24.469 E3.70478
G1 X96.871 Y28.145 E3.79815
G1 X97.057 Y27.805 E3.80511
G1 X93.194 Y23.943 E3.90320
G1 X93.194 Y23.416 E3.91265
G1 X97.320 Y27.542 E4.01743
G1 X97.583 Y27.279 E4.02411
G1 X93.194 Y22.890 E4.13557
G1 X93.457 Y22.627 E4.14225
G1 X97.846 Y27.016 E4.25371
G1 X98.109 Y26.753 E4.26039
G1 X93.984 Y22.627 E4.36516
G1 X94.510 Y22.627 E4.37461
G1 X98.372 Y26.489 E4.47270
G1 X98.713 Y26.303 E4.47967
G1 X95.036 Y22.627 E4.57303
G1 X95.563 Y22.627 E4.58248
G1 X99.061 Y26.126 E4.67134
G1 X99.410 Y25.948 E4.67837
G1 X96.089 Y22.627 E4.76271
G1 X96.615 Y22.627 E4.77216
G1 X99.759 Y25.771 E4.85199
G1 X100.107 Y25.593 E4.85902
G1 X97.142 Y22.627 E4.93434
G1 X97.668 Y22.627 E4.94379
G1 X100.558 Y25.517 E5.01718
G1 X101.012 Y25.445 E5.02544
G1 X98.194 Y22.627 E5.09701
G1 X98.721 Y22.627 E5.10646
G1 X101.466 Y25.373 E5.17620
G1 X101.921 Y25.301 E5.18446
G1 X99.247 Y22.627 E5.25237
G1 X99.773 Y22.627 E5.26182
G1 X102.505 Y25.359 E5.33120
G1 X103.131 Y25.458 E5.34257
G1 X100.299 Y22.627 E5.41447
G1 X100.826 Y22.627 E5.42392
G1 X103.756 Y25.557 E5.49833
G1 X104.698 Y25.973 F9000.000
G1 X101.352 Y22.627 E5.58330 F1800.000
G1 X101.878 Y22.627 E5.59275
G1 X109.550 Y30.298 E5.78757
G1 X110.076 Y30.298 E5.79702
G1 X102.405 Y22.627 E5.99184
G1 X102.931 Y22.627 E6.00129
G1 X110.602 Y30.298 E6.19611
G1 X110.865 Y30.035 E6.20279
G1 X103.457 Y22.627 E6.39093
G1 X103.984 Y22.627 E6.40039
G1 X110.865 Y29.509 E6.57516
G1 X110.865 Y28.983 E6.58461
G1 X104.510 Y22.627 E6.74602
G1 X105.036 Y22.627 E6.75547
G1 X110.865 Y28.456 E6.90351
G1 X110.865 Y27.930 E6.91296
G1 X105.562 Y22.627 E7.04764
G1 X106.089 Y22.627 E7.05709
G1 X110.865 Y27.404 E7.17840
G1 X110.865 Y26.877 E7.18785
G1 X106.615 Y22.627 E7.29580
G1 X107.141 Y22.627 E7.30525
G1 X110.865 Y26.351 E7.39983
G1 X110.865 Y25.825 E7.40928
G1 X107.668 Y22.627 E7.49049
G1 X108.194 Y22.627 E7.49994
G1 X110.865 Y25.299 E7.56779
G1 X110.865 Y24.772 E7.57724
G1 X108.720 Y22.627 E7.63172
G1 X109.247 Y22.627 E7.64117
G1 X110.865 Y24.246 E7.68228
G1 X110.865 Y23.720 E7.69173
G1 X109.773 Y22.627 E7.71948
G1 X110.299 Y22.627 E7.72893
G1 X110.865 Y23.193 E7.74331
G1 X110.865 Y22.667 E7.75277
G1 X110.825 Y22.627 E7.75378
G1 F2400.000 E4.75378
G1 Z0.700 F9000.000
G92 E0
G1 X107.520 Y28.795 F9000.000
G1 Z0.400 F9000.000
G1 E3.00000 F2400.000
G1 X109.023 Y30.298 E3.03818 F1800.000
G1 X108.497 Y30.298 E3.04763
G1 X107.935 Y29.737 E3.06189
G1 F2400.000 E-6.93811
G1 Z0.700 F9000.000
G92 E0
T1
G92 E0
G1 X61.285 Y30.643 F9000.000
G1 Z0.400 F9000.000
G1 E10.00000 F3600.000
G1 X65.200 Y30.643 E10.06480 F1800.000
G1 X65.200 Y40.283 E10.22438
G1 X45.560 Y40.283 E10.54950
G1 X45.560 Y30.643 E10.70908
G1 X50.226 Y30.643 E10.78633
G1 X50.444 Y32.017 E10.80935
G1 X50.451 Y32.064 E10.81015 F1800.000
G1 X51.187 Y33.509 E10.83699
G1 X52.334 Y34.655 E10.86383
G1 X53.778 Y35.391 E10.89067
G1 X55.380 Y35.645 E10.91751
G1 X56.981 Y35.391 E10.94435
G1 X58.426 Y34.655 E10.97119
G1 X59.572 Y33.509 E10.99803
G1 X60.308 Y32.064 E11.02487
G1 X60.534 Y30.643 E11.04869
G1 X61.210 Y30.643 E11.05990
G1 F3600.000 E6.05990
G1 Z0.700 F9000.000
G92 E0
G1 X50.396 Y32.024 F9000.000
G1 X50.058 Y32.077 F9000.000
G1 Z0.400 F9000.000
G1 E5.00000 F3600.000
G1 X50.076 Y32.186 E5.00182 F1800.000
G1 X50.868 Y33.741 E5.03071
G1 X52.102 Y34.975 E5.05959
G1 X53.656 Y35.767 E5.08848
G1 X55.380 Y36.040 E5.11737
G1 X57.103 Y35.767 E5.14625
G1 X58.658 Y34.975 E5.17514
G1 X59.892 Y33.741 E5.20402
G1 X60.684 Y32.186 E5.23291
G1 X60.867 Y31.033 E5.25224
G1 X64.810 Y31.033 E5.31751
G1 X64.810 Y39.893 E5.46418
G1 X45.950 Y39.893 E5.77639
G1 X45.950 Y31.033 E5.92305
G1 X49.893 Y31.033 E5.98833 F1800.000
G1 X50.047 Y32.003 E6.00459
G1 F3600.000 E1.00459
G1 Z0.700 F9000.000
G92 E0
G1 X61.845 Y31.423 F9000.000
G1 Z0.400 F9000.000
G1 E5.00000 F3600.000
G1 X64.420 Y31.423 E5.04262 F1800.000
G1 X64.420 Y39.503 E5.17637
G1 X46.340 Y39.503 E5.47567
G1 X46.340 Y31.423 E5.60942
G1 X49.560 Y31.423 E5.66272
G1 X49.673 Y32.139 E5.67472
G1 X49.700 Y32.308 E5.67756 F1800.000
G1 X50.548 Y33.973 E5.70849
G1 X51.870 Y35.294 E5.73942
G1 X53.534 Y36.142 E5.77035
G1 X55.380 Y36.435 E5.80128
G1 X57.225 Y36.142 E5.83221
G1 X58.890 Y35.294 E5.86315
G1 X60.211 Y33.973 E5.89408
G1 X61.060 Y32.308 E5.92501
G1 X61.200 Y31.423 E5.93985
G1 X61.770 Y31.423 E5.94929
G1 F3600.000 E0.94929
G1 Z0.700 F9000.000
G92 E0
G1 X64.117 Y31.686 F9000.000
G1 Z0.400 F9000.000
G1 E5.00000 F3600.000
G1 X64.157 Y31.726 E5.00094 F1800.000
G1 X64.157 Y32.282 E5.01014
G1 X63.561 Y31.686 E5.02410
G1 X63.005 Y31.686 E5.03331
G1 X64.157 Y32.838 E5.06029
G1 X64.157 Y33.394 E5.06949
G1 X62.448 Y31.686 E5.10949
G1 X61.892 Y31.686 E5.11870
G1 X64.157 Y33.950 E5.17172
G1 X64.157 Y34.506 E5.18093
G1 X61.412 Y31.762 E5.24519
G1 X61.336 Y32.242 E5.25323
