; generated by Slic3r 1.2.2 on 2015-01-04 at 13:23:42

; external perimeters extrusion width = 0.40mm
; perimeters extrusion width = 0.48mm
; infill extrusion width = 0.48mm
; solid infill extrusion width = 0.48mm
; top infill extrusion width = 0.48mm

; external perimeters extrusion width = 0.50mm
; perimeters extrusion width = 0.72mm
; infill extrusion width = 0.72mm
; solid infill extrusion width = 0.72mm
; top infill extrusion width = 0.72mm

M190 S55 ; set bed temperature
M104 S255 T0 ; set temperature
M104 S180 T1 ; set temperature
G28 ; home all axes
M109 S255 T0 ; wait for temperature to be reached
M109 S180 T1 ; wait for temperature to be reached
G21 ; set units to millimeters
G90 ; use absolute coordinates
M82 ; use absolute distances for extrusion
G92 E0
T0
G92 E0
M106 S89.25
G1 E-3.00000 F2400.00000
G92 E0
G1 Z0.440 F9000.000
G1 X80.178 Y79.656 F9000.000
G1 Z0.140 F9000.000
G1 E3.00000 F2400.00000
G1 X82.567 Y77.971 E3.04700 F1800.000
G1 X85.321 Y76.994 E3.09400
G1 X87.500 Y76.770 E3.12922
G1 X97.500 Y76.770 E3.29001
G1 X100.396 Y77.168 E3.33701
G1 X103.077 Y78.333 E3.38401 F1800.000
G1 X105.344 Y80.178 E3.43101
G1 X107.029 Y82.567 E3.47801
G1 X108.006 Y85.321 E3.52501
G1 X108.230 Y87.500 E3.56023
G1 X108.230 Y97.500 E3.72102
G1 X107.832 Y100.396 E3.76803
G1 X106.667 Y103.077 E3.81503
G1 X104.822 Y105.344 E3.86203
G1 X102.433 Y107.029 E3.90903
G1 X99.679 Y108.006 E3.95603
G1 X97.500 Y108.230 E3.99124
G1 X87.500 Y108.230 E4.15204
G1 X84.604 Y107.832 E4.19904
G1 X81.923 Y106.667 E4.24604
G1 X79.656 Y104.822 E4.29304
G1 X77.971 Y102.433 E4.34004
G1 X76.994 Y99.679 E4.38704
G1 X76.770 Y97.500 E4.42226
G1 X76.770 Y87.500 E4.58305
G1 X77.168 Y84.604 E4.63005
G1 X78.333 Y81.923 E4.67705
G1 X80.140 Y79.703 E4.72309
G1 X80.378 Y79.900 F9000.000
G1 X80.469 Y79.791 E4.72537 F1800.000
G1 X82.846 Y78.161 E4.77172
G1 X85.578 Y77.244 E4.81806
G1 X87.500 Y77.066 E4.84909
G1 X97.500 Y77.066 E5.00989
G1 X100.355 Y77.464 E5.05623
G1 X102.991 Y78.628 E5.10258 F1800.000
G1 X105.209 Y80.469 E5.14892
G1 X106.839 Y82.846 E5.19527
G1 X107.756 Y85.578 E5.24161
G1 X107.934 Y87.500 E5.27265
G1 X107.934 Y97.500 E5.43344
G1 X107.536 Y100.355 E5.47979
G1 X106.372 Y102.991 E5.52613
G1 X104.531 Y105.209 E5.57248
G1 X102.154 Y106.839 E5.61882
G1 X99.422 Y107.756 E5.66517
G1 X97.500 Y107.934 E5.69620
G1 X87.500 Y107.934 E5.85699
G1 X84.645 Y107.536 E5.90334
G1 X82.009 Y106.372 E5.94968
G1 X79.791 Y104.531 E5.99603
G1 X78.161 Y102.154 E6.04237
G1 X77.244 Y99.422 E6.08872
G1 X77.066 Y97.500 E6.11975
G1 X77.066 Y87.500 E6.28055
G1 X77.464 Y84.645 E6.32689
G1 X78.628 Y82.009 E6.37324
G1 X80.340 Y79.946 E6.41633
G1 E-3.58367 F2400.00000
G92 E0
G1 Z0.740 F9000.000
T1
G92 E0
G1 X33.524 Y79.145 F9000.000
G1 Z0.140 F9000.000
G1 X33.709 Y78.927 E0.00358 F1800.000
G1 X36.074 Y77.354 E0.03922
G1 X38.783 Y76.499 E0.07487
G1 X40.450 Y76.361 E0.09585
G1 X50.450 Y76.361 E0.22131
G1 X53.263 Y76.759 E0.25696
G1 X55.855 Y77.922 E0.29260 F1800.000
G1 X58.023 Y79.759 E0.32824
G1 X59.596 Y82.124 E0.36389
G1 X60.451 Y84.833 E0.39953
G1 X60.589 Y86.500 E0.42051
G1 X60.589 Y96.500 E0.54598
G1 X60.191 Y99.313 E0.58162
G1 X59.028 Y101.905 E0.61727
G1 X57.191 Y104.073 E0.65291
G1 X54.826 Y105.646 E0.68855
G1 X52.117 Y106.501 E0.72420
G1 X50.450 Y106.639 E0.74518
G1 X40.450 Y106.639 E0.87064
G1 X37.637 Y106.241 E0.90629
G1 X35.045 Y105.078 E0.94193
G1 X32.877 Y103.241 E0.97757
G1 X31.304 Y100.876 E1.01322
G1 X30.449 Y98.167 E1.04886
G1 X30.311 Y96.500 E1.06984
G1 X30.311 Y86.500 E1.19531
G1 X30.709 Y83.687 E1.23095
G1 X31.872 Y81.095 E1.26660
G1 X33.476 Y79.202 E1.29772
G1 X33.707 Y79.403 F9000.000
G1 X33.998 Y79.066 E1.30330 F1800.000
G1 X36.351 Y77.551 E1.33842
G1 X39.036 Y76.759 E1.37353
G1 X40.450 Y76.657 E1.39132
G1 X50.450 Y76.657 E1.51678
G1 X53.221 Y77.055 E1.55190
G1 X55.767 Y78.217 E1.58702 F1800.000
G1 X57.884 Y80.048 E1.62214
G1 X59.399 Y82.401 E1.65726
G1 X60.191 Y85.086 E1.69237
G1 X60.293 Y86.500 E1.71016
G1 X60.293 Y96.500 E1.83562
G1 X59.895 Y99.271 E1.87074
G1 X58.733 Y101.817 E1.90586
G1 X56.902 Y103.934 E1.94098
G1 X54.549 Y105.449 E1.97609
G1 X51.864 Y106.241 E2.01121
G1 X50.450 Y106.343 E2.02900
G1 X40.450 Y106.343 E2.15446
G1 X37.679 Y105.945 E2.18958
G1 X35.133 Y104.783 E2.22470
G1 X33.016 Y102.952 E2.25982
G1 X31.501 Y100.599 E2.29493
G1 X30.709 Y97.914 E2.33005
G1 X30.607 Y96.500 E2.34784
G1 X30.607 Y86.500 E2.47330
G1 X31.005 Y83.729 E2.50842
G1 X32.167 Y81.183 E2.54354
G1 X33.658 Y79.459 E2.57213
G1 E-7.42787 F3600.00000
G92 E0
G1 Z0.740 F9000.000
T0
G92 E0
G1 X80.936 Y80.661 F9000.000
G1 Z0.140 F9000.000
G1 E10.00000 F2400.00000
G1 X81.337 Y80.208 E10.00973 F1800.000
G1 X83.678 Y78.751 E10.05406
G1 X87.500 Y77.953 E10.11685
G1 X97.500 Y77.953 E10.27764
G1 X100.228 Y78.350 E10.32196
G1 X102.728 Y79.511 E10.36628 F1800.000
G1 X104.792 Y81.337 E10.41061
G1 X106.249 Y83.678 E10.45493
G1 X107.047 Y87.500 E10.51772
G1 X107.047 Y97.500 E10.67851
G1 X106.650 Y100.228 E10.72284
G1 X105.489 Y102.728 E10.76716
G1 X103.663 Y104.792 E10.81148
G1 X101.322 Y106.249 E10.85580
G1 X97.500 Y107.047 E10.91859
G1 X87.500 Y107.047 E11.07939
G1 X84.772 Y106.650 E11.12371
G1 X82.272 Y105.489 E11.16803
G1 X80.208 Y103.663 E11.21235
G1 X78.751 Y101.322 E11.25667
G1 X77.953 Y97.500 E11.31946
G1 X77.953 Y87.500 E11.48026
G1 X78.350 Y84.772 E11.52458
G1 X79.511 Y82.272 E11.56890
G1 X80.897 Y80.706 E11.60253
G1 X81.121 Y80.910 F9000.000
G1 X81.626 Y80.352 E11.61463 F1800.000
G1 X83.953 Y78.955 E11.65825
G1 X87.500 Y78.248 E11.71642
G1 X97.500 Y78.248 E11.87721
G1 X100.184 Y78.646 E11.92084
G1 X102.637 Y79.805 E11.96446 F1800.000
G1 X104.648 Y81.626 E12.00809
G1 X106.045 Y83.953 E12.05172
G1 X106.752 Y87.500 E12.10988
G1 X106.752 Y97.500 E12.27068
G1 X106.354 Y100.184 E12.31430
G1 X105.195 Y102.637 E12.35793
G1 X103.374 Y104.648 E12.40156
G1 X101.047 Y106.045 E12.44518
G1 X97.500 Y106.752 E12.50335
G1 X87.500 Y106.752 E12.66414
G1 X84.816 Y106.354 E12.70777
G1 X82.363 Y105.195 E12.75140
G1 X80.352 Y103.374 E12.79502
G1 X78.955 Y101.047 E12.83865
G1 X78.248 Y97.500 E12.89681
G1 X78.248 Y87.500 E13.05761
G1 X78.646 Y84.816 E13.10123
G1 X79.805 Y82.363 E13.14486
G1 X81.081 Y80.954 E13.17542
G1 E3.17542 F2400.00000
G92 E0
G1 Z0.740 F9000.000
T1
G92 E0
G1 X34.252 Y80.159 F9000.000
G1 Z0.140 F9000.000
G1 E10.00000 F3600.00000
G1 X34.865 Y79.499 E10.01130 F1800.000
G1 X37.176 Y78.164 E10.04479
G1 X40.450 Y77.544 E10.08660
G1 X50.450 Y77.544 E10.21206
G1 X53.089 Y77.942 E10.24555
G1 X55.494 Y79.100 E10.27904 F1800.000
G1 X57.451 Y80.915 E10.31253
G1 X58.786 Y83.226 E10.34602
G1 X59.406 Y86.500 E10.38782
G1 X59.406 Y96.500 E10.51329
G1 X59.008 Y99.139 E10.54678
G1 X57.850 Y101.544 E10.58027
G1 X56.035 Y103.501 E10.61376
G1 X53.724 Y104.836 E10.64725
G1 X50.450 Y105.456 E10.68905
G1 X40.450 Y105.456 E10.81452
G1 X37.811 Y105.058 E10.84801
G1 X35.406 Y103.900 E10.88150
G1 X33.449 Y102.085 E10.91499
G1 X32.114 Y99.774 E10.94848
G1 X31.494 Y96.500 E10.99028
G1 X31.494 Y86.500 E11.11574
G1 X31.892 Y83.861 E11.14923
G1 X33.050 Y81.456 E11.18272
G1 X34.201 Y80.214 E11.20397
G1 X34.418 Y80.421 F9000.000
G1 X35.153 Y79.648 E11.21734 F1800.000
G1 X37.449 Y78.376 E11.25027
G1 X40.450 Y77.839 E11.28853
G1 X50.450 Y77.839 E11.41399
G1 X53.044 Y78.237 E11.44692
G1 X55.400 Y79.394 E11.47985 F1800.000
G1 X57.302 Y81.203 E11.51278
G1 X58.574 Y83.499 E11.54571
G1 X59.111 Y86.500 E11.58396
G1 X59.111 Y96.500 E11.70943
G1 X58.713 Y99.094 E11.74236
G1 X57.556 Y101.450 E11.77529
G1 X55.747 Y103.352 E11.80822
G1 X53.451 Y104.624 E11.84115
G1 X50.450 Y105.161 E11.87940
G1 X40.450 Y105.161 E12.00487
G1 X37.856 Y104.763 E12.03780
G1 X35.500 Y103.606 E12.07073
G1 X33.598 Y101.797 E12.10366
G1 X32.326 Y99.501 E12.13658
G1 X31.789 Y96.500 E12.17484
G1 X31.789 Y86.500 E12.30030
G1 X32.187 Y83.906 E12.33323
G1 X33.344 Y81.550 E12.36616
G1 X34.366 Y80.475 E12.38478
G1 E2.38478 F3600.00000
G92 E0
G1 Z0.740 F9000.000
T0
G92 E0
G1 X81.629 Y81.683 F9000.000
G1 Z0.140 F9000.000
G1 E10.00000 F2400.00000
G1 X82.490 Y80.801 E10.01982 F1800.000
G1 X84.769 Y79.593 E10.06129
G1 X87.500 Y79.135 E10.10581
G1 X97.500 Y79.135 E10.26661
G1 X100.048 Y79.533 E10.30808
G1 X102.354 Y80.688 E10.34955 F1800.000
G1 X104.199 Y82.490 E10.39102
G1 X105.407 Y84.769 E10.43249
G1 X105.865 Y87.500 E10.47702
G1 X105.865 Y97.500 E10.63781
G1 X105.467 Y100.048 E10.67928
G1 X104.312 Y102.354 E10.72075
G1 X102.510 Y104.199 E10.76223
G1 X100.231 Y105.407 E10.80370
G1 X97.500 Y105.865 E10.84822
G1 X87.500 Y105.865 E11.00902
G1 X84.952 Y105.467 E11.05049
G1 X82.646 Y104.312 E11.09196
G1 X80.801 Y102.510 E11.13343
G1 X79.593 Y100.231 E11.17490
G1 X79.135 Y97.500 E11.21943
G1 X79.135 Y87.500 E11.38022
G1 X79.533 Y84.952 E11.42169
G1 X80.688 Y82.646 E11.46316
G1 X81.587 Y81.725 E11.48385
G1 X81.795 Y81.934 F9000.000
G1 X82.777 Y80.957 E11.50613 F1800.000
G1 X85.038 Y79.815 E11.54686
G1 X87.500 Y79.431 E11.58693
G1 X97.500 Y79.431 E11.74772
G1 X100.001 Y79.828 E11.78845
G1 X102.257 Y80.982 E11.82918 F1800.000
G1 X104.043 Y82.777 E11.86990
G1 X105.185 Y85.038 E11.91063
G1 X105.569 Y87.500 E11.95070
G1 X105.569 Y97.500 E12.11149
G1 X105.172 Y100.001 E12.15222
G1 X104.018 Y102.257 E12.19295
G1 X102.223 Y104.043 E12.23367
G1 X99.962 Y105.185 E12.27440
G1 X97.500 Y105.569 E12.31447
G1 X87.500 Y105.569 E12.47526
G1 X84.999 Y105.172 E12.51599
G1 X82.743 Y104.018 E12.55672
G1 X80.957 Y102.223 E12.59744
G1 X79.815 Y99.962 E12.63817
G1 X79.431 Y97.500 E12.67824
G1 X79.431 Y87.500 E12.83903
G1 X79.828 Y84.999 E12.87976
G1 X80.982 Y82.743 E12.92049
G1 X81.752 Y81.977 E12.93797
G1 E2.93797 F2400.00000
G92 E0
G1 Z0.740 F9000.000
T1
G92 E0
G1 X34.905 Y81.187 F9000.000
G1 Z0.140 F9000.000
G1 E10.00000 F3600.00000
G1 X36.013 Y80.117 E10.01933 F1800.000
G1 X38.255 Y79.043 E10.05052
G1 X40.450 Y78.726 E10.07834
G1 X50.450 Y78.726 E10.20380
G1 X52.904 Y79.124 E10.23499
G1 X55.107 Y80.275 E10.26618 F1800.000
G1 X56.833 Y82.063 E10.29737
G1 X57.907 Y84.305 E10.32855
G1 X58.224 Y86.500 E10.35638
G1 X58.224 Y96.500 E10.48184
G1 X57.826 Y98.954 E10.51303
G1 X56.675 Y101.157 E10.54421
G1 X54.887 Y102.883 E10.57540
G1 X52.645 Y103.957 E10.60659
G1 X50.450 Y104.274 E10.63441
G1 X40.450 Y104.274 E10.75988
G1 X37.996 Y103.876 E10.79106
G1 X35.793 Y102.725 E10.82225
G1 X34.067 Y100.937 E10.85344
G1 X32.993 Y98.695 E10.88463
G1 X32.676 Y96.500 E10.91245
G1 X32.676 Y86.500 E11.03791
G1 X33.074 Y84.046 E11.06910
G1 X34.225 Y81.843 E11.10029
G1 X34.851 Y81.239 E11.11120
G1 X35.049 Y81.450 F9000.000
G1 X36.299 Y80.280 E11.13269 F1800.000
G1 X38.520 Y79.275 E11.16327
G1 X40.450 Y79.022 E11.18769
G1 X50.450 Y79.022 E11.31316
G1 X52.855 Y79.419 E11.34374
G1 X55.005 Y80.569 E11.37433 F1800.000
G1 X56.670 Y82.349 E11.40491
G1 X57.675 Y84.570 E11.43550
G1 X57.928 Y86.500 E11.45992
G1 X57.928 Y96.500 E11.58538
G1 X57.531 Y98.905 E11.61597
G1 X56.381 Y101.055 E11.64655
G1 X54.601 Y102.720 E11.67714
G1 X52.380 Y103.725 E11.70772
G1 X50.450 Y103.978 E11.73215
G1 X40.450 Y103.978 E11.85761
G1 X38.045 Y103.581 E11.88819
G1 X35.895 Y102.431 E11.91878
G1 X34.230 Y100.651 E11.94936
G1 X33.225 Y98.430 E11.97995
G1 X32.972 Y96.500 E12.00437
G1 X32.972 Y86.500 E12.12984
G1 X33.369 Y84.095 E12.16042
G1 X34.519 Y81.945 E12.19100
G1 X34.994 Y81.501 E12.19916
G1 E2.19916 F3600.00000
G92 E0
G1 Z0.740 F9000.000
T0
G92 E0
G1 X82.235 Y82.712 F9000.000
G1 Z0.140 F9000.000
G1 E10.00000 F2400.00000
G1 X83.634 Y81.447 E10.03033 F1800.000
G1 X85.833 Y80.514 E10.06874
G1 X87.500 Y80.318 E10.09573
G1 X97.500 Y80.318 E10.25653
G1 X99.855 Y80.715 E10.29494
G1 X101.950 Y81.862 E10.33335 F1800.000
G1 X103.553 Y83.634 E10.37176
G1 X104.486 Y85.833 E10.41017
G1 X104.682 Y87.500 E10.43716
G1 X104.682 Y97.500 E10.59796
G1 X104.285 Y99.855 E10.63637
G1 X103.138 Y101.950 E10.67478
G1 X101.366 Y103.553 E10.71319
G1 X99.167 Y104.486 E10.75160
G1 X97.500 Y104.682 E10.77859
G1 X87.500 Y104.682 E10.93939
G1 X85.145 Y104.285 E10.97780
G1 X83.050 Y103.138 E11.01621
G1 X81.447 Y101.366 E11.05462
G1 X80.514 Y99.167 E11.09302
G1 X80.318 Y97.500 E11.12002
G1 X80.318 Y87.500 E11.28082
G1 X80.715 Y85.145 E11.31922
G1 X81.862 Y83.050 E11.35763
G1 X82.191 Y82.753 E11.36475
G1 X82.375 Y82.964 F9000.000
G1 X83.918 Y81.618 E11.39766 F1800.000
G1 X86.092 Y80.759 E11.43527
G1 X87.500 Y80.613 E11.45802
G1 X97.500 Y80.613 E11.61882
G1 X99.805 Y81.010 E11.65642
G1 X101.844 Y82.156 E11.69403 F1800.000
G1 X103.382 Y83.918 E11.73163
G1 X104.241 Y86.092 E11.76924
G1 X104.387 Y87.500 E11.79199
G1 X104.387 Y97.500 E11.95279
G1 X103.990 Y99.805 E11.99039
G1 X102.844 Y101.844 E12.02800
G1 X101.082 Y103.382 E12.06560
G1 X98.908 Y104.241 E12.10321
G1 X97.500 Y104.387 E12.12596
G1 X87.500 Y104.387 E12.28675
G1 X85.195 Y103.990 E12.32436
G1 X83.156 Y102.844 E12.36196
G1 X81.618 Y101.082 E12.39957
G1 X80.759 Y98.908 E12.43717
G1 X80.613 Y97.500 E12.45993
G1 X80.613 Y87.500 E12.62072
G1 X81.010 Y85.195 E12.65833
G1 X82.156 Y83.156 E12.69593
G1 X82.330 Y83.004 E12.69966
G1 E2.69966 F2400.00000
G92 E0
G1 Z0.740 F9000.000
T1
G92 E0
G1 X35.458 Y82.216 F9000.000
G1 Z0.140 F9000.000
G1 E10.00000 F3600.00000
G1 X37.150 Y80.794 E10.02773 F1800.000
G1 X39.299 Y80.010 E10.05643
G1 X40.450 Y79.909 E10.07092
G1 X50.450 Y79.909 E10.19639
G1 X52.703 Y80.306 E10.22509
G1 X54.684 Y81.449 E10.25379 F1800.000
G1 X56.156 Y83.200 E10.28249
G1 X56.940 Y85.349 E10.31119
G1 X57.041 Y86.500 E10.32568
G1 X57.041 Y96.500 E10.45115
G1 X56.644 Y98.753 E10.47985
G1 X55.501 Y100.734 E10.50855
G1 X53.750 Y102.206 E10.53725
G1 X51.601 Y102.990 E10.56595
G1 X50.450 Y103.091 E10.58045
G1 X40.450 Y103.091 E10.70591
G1 X38.197 Y102.694 E10.73461
G1 X36.216 Y101.551 E10.76331
G1 X34.744 Y99.800 E10.79201
G1 X33.960 Y97.651 E10.82071
G1 X33.859 Y96.500 E10.83521
G1 X33.859 Y86.500 E10.96067
G1 X34.256 Y84.247 E10.98937
G1 X35.401 Y82.264 E11.01810
G1 X35.666 Y82.421 F9000.000
G1 X35.692 Y82.378 E11.01874 F1800.000
G1 X37.432 Y80.975 E11.04678
G1 X40.450 Y80.204 E11.08586
G1 X50.450 Y80.204 E11.21133
G1 X52.650 Y80.601 E11.23937
G1 X54.572 Y81.742 E11.26742 F1800.000
G1 X55.975 Y83.482 E11.29546
G1 X56.746 Y86.500 E11.33455
G1 X56.746 Y96.500 E11.46001
G1 X56.349 Y98.700 E11.48806
G1 X55.208 Y100.622 E11.51610
G1 X53.468 Y102.025 E11.54414
G1 X50.450 Y102.796 E11.58323
G1 X40.450 Y102.796 E11.70869
G1 X38.250 Y102.399 E11.73674
G1 X36.328 Y101.258 E11.76478
G1 X34.925 Y99.518 E11.79283
G1 X34.154 Y96.500 E11.83191
G1 X34.154 Y86.500 E11.95737
G1 X34.551 Y84.300 E11.98542
G1 X35.628 Y82.486 E12.01189
G1 E2.01189 F3600.00000
G92 E0
G1 Z0.740 F9000.000
T0
G92 E0
G1 X84.274 Y85.082 F9000.000
G1 Z0.140 F9000.000
G1 E10.00000 F2400.00000
G1 X85.847 Y83.509 E10.03577 F1800.000
G1 X99.153 Y83.509 E10.24973
G1 X101.491 Y85.847 E10.30289
G1 X101.491 Y99.153 E10.51684 F1800.000
G1 X99.153 Y101.491 E10.57000
G1 X85.847 Y101.491 E10.78396
G1 X83.509 Y99.153 E10.83712
G1 X83.509 Y85.847 E11.05108
G1 X84.232 Y85.125 E11.06750
G1 X84.441 Y85.334 F9000.000
G1 X85.969 Y83.805 E11.10227 F1800.000
G1 X99.031 Y83.805 E11.31229
G1 X101.195 Y85.969 E11.36151 F1800.000
G1 X101.195 Y99.031 E11.57153
G1 X99.031 Y101.195 E11.62075
G1 X85.969 Y101.195 E11.83077
G1 X83.805 Y99.031 E11.87999
G1 X83.805 Y85.969 E12.09001
G1 X84.398 Y85.376 E12.10350
G1 X84.607 Y85.585 F9000.000
G1 X86.092 Y84.100 E12.13726 F1800.000
G1 X98.908 Y84.100 E12.34335
G1 X100.900 Y86.092 E12.38863
G1 X100.900 Y98.908 E12.59471 F1800.000
G1 X98.908 Y100.900 E12.64000
G1 X86.092 Y100.900 E12.84608
G1 X84.100 Y98.908 E12.89136
G1 X84.100 Y86.092 E13.09744
G1 X84.565 Y85.627 E13.10800
G1 X84.774 Y85.837 F9000.000
G1 X86.214 Y84.396 E13.14076 F1800.000
G1 X98.786 Y84.396 E13.34290
G1 X100.604 Y86.214 E13.38425 F1800.000
G1 X100.604 Y98.786 E13.58639
G1 X98.786 Y100.604 E13.62774
G1 X86.214 Y100.604 E13.82988
G1 X84.396 Y98.786 E13.87123
G1 X84.396 Y86.214 E14.07337
G1 X84.731 Y85.879 E14.08100
G1 X84.940 Y86.088 F9000.000
G1 X86.337 Y84.692 E14.11275 F1800.000
G1 X98.663 Y84.692 E14.31095
G1 X100.308 Y86.337 E14.34836
G1 X100.308 Y98.663 E14.54657 F1800.000
G1 X98.663 Y100.308 E14.58398
G1 X86.337 Y100.308 E14.78218
