; generated by Slic3r 1.2.9 on 2015-12-01 at 19:15:23

; external perimeters extrusion width = 0.40mm
; perimeters extrusion width = 0.48mm
; infill extrusion width = 0.48mm
; solid infill extrusion width = 0.48mm
; top infill extrusion width = 0.48mm

M190 S75 ; set bed temperature
M104 S255 ; set temperature
; WIPE TOWER PARAMS
; forceToolChanges=true
; nozzleDiameter=0.4
; filamentDiameter=2.8
; extrusionWidth=0
; layerHeight=0.3
; firstLayerHeight=100%
; extrusionMultiplier=1
; firstLayerExtrusionMultiplier=4
; retractionLength=4
; toolChangeRetractionLength=10
; bedWidth=[bed_size_X]
; bedDepth=[bed_size_Y]
; extruders=2
; wipeTowerX=80
; wipeTowerY=155
; wipeTowerW=10
; wipeTowerH=10
; wipeTowerSpacing=20
; wipeTowerLoops=5
; wipeTowerBrimLoops=7
; wipeOffset=2
; purgeOffset=1.33
; wipeLift=5
; travelLift=1
; purgeAmount=0.5
; retractionFeedrate=80
; travelFeedrate=130
; printFeedrate=60
; extrusionFeedrate=25



G28 ; home all axes
M109 S255 ; wait for temperature to be reached
G21 ; set units to millimeters
G90 ; use absolute coordinates
M83 ; use relative distances for extrusion
G1 Z0.300 F7800.000
; next layer
; tool change
T0
; printing square tower with layer height 0.3
G91 ; set relative positioning
G1 Z1
G90 ; set absolute positioning
G1 X73 Y148 F7800
G91 ; set relative positioning
G1 Z-1
G90 ; set absolute positioning
G1 X73 Y148 F7800
; printing brim
G1 X72.2 Y147.2 F7800
G1 E0 F4800
G1 X72.2 Y162.8 E1.2161 F3600
G1 X87.8 Y162.8 E1.2161 F3600
G1 X87.8 Y147.2 E1.2161 F3600
G1 X72.2 Y147.2 E1.2161 F3600
G1 X72.6 Y147.6 F7800
G1 X72.6 Y162.4 E1.1537 F3600
G1 X87.4 Y162.4 E1.1537 F3600
G1 X87.4 Y147.6 E1.1537 F3600
G1 X72.6 Y147.6 E1.1537 F3600
G1 X73 Y148 F7800
G1 X73 Y162 E1.0913 F3600
G1 X87 Y162 E1.0913 F3600
G1 X87 Y148 E1.0913 F3600
G1 X73 Y148 E1.0913 F3600
G1 X73.4 Y148.4 F7800
G1 X73.4 Y161.6 E1.029 F3600
G1 X86.6 Y161.6 E1.029 F3600
G1 X86.6 Y148.4 E1.029 F3600
G1 X73.4 Y148.4 E1.029 F3600
G1 X73.8 Y148.8 F7800
G1 X73.8 Y161.2 E0.9666 F3600
G1 X86.2 Y161.2 E0.9666 F3600
G1 X86.2 Y148.8 E0.9666 F3600
G1 X73.8 Y148.8 E0.9666 F3600
G1 X74.2 Y149.2 F7800
G1 X74.2 Y160.8 E0.9043 F3600
G1 X85.8 Y160.8 E0.9043 F3600
G1 X85.8 Y149.2 E0.9043 F3600
G1 X74.2 Y149.2 E0.9043 F3600
G1 X74.6 Y149.6 F7800
G1 X74.6 Y160.4 E0.8419 F3600
G1 X85.4 Y160.4 E0.8419 F3600
G1 X85.4 Y149.6 E0.8419 F3600
G1 X74.6 Y149.6 E0.8419 F3600
G1 E0 F4800
; printing loops
G1 X75 Y150 F7800
G1 E0 F4800
G1 X75 Y160 E0.7795 F3600
G1 X85 Y160 E0.7795 F3600
G1 X85 Y150 E0.7795 F3600
G1 X75 Y150 E0.7795 F3600
G1 X75.4 Y150.4 F7800
G1 X75.4 Y159.6 E0.7172 F3600
G1 X84.6 Y159.6 E0.7172 F3600
G1 X84.6 Y150.4 E0.7172 F3600
G1 X75.4 Y150.4 E0.7172 F3600
G1 X75.8 Y150.8 F7800
G1 X75.8 Y159.2 E0.6548 F3600
G1 X84.2 Y159.2 E0.6548 F3600
G1 X84.2 Y150.8 E0.6548 F3600
G1 X75.8 Y150.8 E0.6548 F3600
G1 X76.2 Y151.2 F7800
G1 X76.2 Y158.8 E0.5924 F3600
G1 X83.8 Y158.8 E0.5924 F3600
G1 X83.8 Y151.2 E0.5924 F3600
G1 X76.2 Y151.2 E0.5924 F3600
G1 X76.6 Y151.6 F7800
G1 X76.6 Y158.4 E0.5301 F3600
G1 X83.4 Y158.4 E0.5301 F3600
G1 X83.4 Y151.6 E0.5301 F3600
G1 X76.6 Y151.6 E0.5301 F3600
G1 E0 F4800
G91 ; set relative positioning
G1 Z1
G90 ; set absolute positioning
G1 X73 Y148 F7800
G91 ; set relative positioning
G1 Z-1
G90 ; set absolute positioning
G1 E-4.00000 F4800.00000
; tool change
T1
; printing square tower with layer height 0.3
G91 ; set relative positioning
G1 Z1
G90 ; set absolute positioning
G1 X93 Y148 F7800
G91 ; set relative positioning
G1 Z-1
G90 ; set absolute positioning
G1 X93 Y148 F7800
; printing brim
G1 X92.2 Y147.2 F7800
G1 E0 F4800
G1 X92.2 Y162.8 E1.2161 F3600
G1 X107.8 Y162.8 E1.2161 F3600
G1 X107.8 Y147.2 E1.2161 F3600
G1 X92.2 Y147.2 E1.2161 F3600
G1 X92.6 Y147.6 F7800
G1 X92.6 Y162.4 E1.1537 F3600
G1 X107.4 Y162.4 E1.1537 F3600
G1 X107.4 Y147.6 E1.1537 F3600
G1 X92.6 Y147.6 E1.1537 F3600
G1 X93 Y148 F7800
G1 X93 Y162 E1.0913 F3600
G1 X107 Y162 E1.0913 F3600
G1 X107 Y148 E1.0913 F3600
G1 X93 Y148 E1.0913 F3600
G1 X93.4 Y148.4 F7800
G1 X93.4 Y161.6 E1.029 F3600
G1 X106.6 Y161.6 E1.029 F3600
G1 X106.6 Y148.4 E1.029 F3600
G1 X93.4 Y148.4 E1.029 F3600
G1 X93.8 Y148.8 F7800
G1 X93.8 Y161.2 E0.9666 F3600
G1 X106.2 Y161.2 E0.9666 F3600
G1 X106.2 Y148.8 E0.9666 F3600
G1 X93.8 Y148.8 E0.9666 F3600
G1 X94.2 Y149.2 F7800
G1 X94.2 Y160.8 E0.9043 F3600
G1 X105.8 Y160.8 E0.9043 F3600
G1 X105.8 Y149.2 E0.9043 F3600
G1 X94.2 Y149.2 E0.9043 F3600
G1 X94.6 Y149.6 F7800
G1 X94.6 Y160.4 E0.8419 F3600
G1 X105.4 Y160.4 E0.8419 F3600
G1 X105.4 Y149.6 E0.8419 F3600
G1 X94.6 Y149.6 E0.8419 F3600
G1 E0 F4800
; printing loops
G1 X95 Y150 F7800
G1 E0 F4800
G1 X95 Y160 E0.7795 F3600
G1 X105 Y160 E0.7795 F3600
G1 X105 Y150 E0.7795 F3600
G1 X95 Y150 E0.7795 F3600
G1 X95.4 Y150.4 F7800
G1 X95.4 Y159.6 E0.7172 F3600
G1 X104.6 Y159.6 E0.7172 F3600
G1 X104.6 Y150.4 E0.7172 F3600
G1 X95.4 Y150.4 E0.7172 F3600
G1 X95.8 Y150.8 F7800
G1 X95.8 Y159.2 E0.6548 F3600
G1 X104.2 Y159.2 E0.6548 F3600
G1 X104.2 Y150.8 E0.6548 F3600
G1 X95.8 Y150.8 E0.6548 F3600
G1 X96.2 Y151.2 F7800
G1 X96.2 Y158.8 E0.5924 F3600
G1 X103.8 Y158.8 E0.5924 F3600
G1 X103.8 Y151.2 E0.5924 F3600
G1 X96.2 Y151.2 E0.5924 F3600
G1 X96.6 Y151.6 F7800
G1 X96.6 Y158.4 E0.5301 F3600
G1 X103.4 Y158.4 E0.5301 F3600
G1 X103.4 Y151.6 E0.5301 F3600
G1 X96.6 Y151.6 E0.5301 F3600
G1 E0 F4800
G91 ; set relative positioning
G1 Z1
G90 ; set absolute positioning
G1 X93 Y148 F7800
G91 ; set relative positioning
G1 Z-1
G90 ; set absolute positioning
G1 Z0.600 F7800.000
; next layer
; tool change
T0
; printing square tower with layer height 0.3
G91 ; set relative positioning
G1 Z1
G90 ; set absolute positioning
G1 X73 Y148 F7800
G91 ; set relative positioning
G1 Z-1
G90 ; set absolute positioning
G1 X73 Y162 F7800
; printing loops
G1 X75 Y160 F7800
G1 E4 F4800
G1 X85 Y160 E0.1949 F3600
G1 X85 Y150 E0.1949 F3600
G1 X75 Y150 E0.1949 F3600
G1 X75 Y160 E0.1949 F3600
G1 X75.4 Y159.6 F7800
G1 X84.6 Y159.6 E0.1793 F3600
G1 X84.6 Y150.4 E0.1793 F3600
G1 X75.4 Y150.4 E0.1793 F3600
G1 X75.4 Y159.6 E0.1793 F3600
G1 X75.8 Y159.2 F7800
G1 X84.2 Y159.2 E0.1637 F3600
G1 X84.2 Y150.8 E0.1637 F3600
G1 X75.8 Y150.8 E0.1637 F3600
G1 X75.8 Y159.2 E0.1637 F3600
G1 X76.2 Y158.8 F7800
G1 X83.8 Y158.8 E0.1481 F3600
G1 X83.8 Y151.2 E0.1481 F3600
G1 X76.2 Y151.2 E0.1481 F3600
G1 X76.2 Y158.8 E0.1481 F3600
G1 X76.6 Y158.4 F7800
G1 X83.4 Y158.4 E0.1325 F3600
G1 X83.4 Y151.6 E0.1325 F3600
G1 X76.6 Y151.6 E0.1325 F3600
G1 X76.6 Y158.4 E0.1325 F3600
G1 E-4 F4800
G91 ; set relative positioning
G1 Z1
G90 ; set absolute positioning
G1 X73 Y148 F7800
G91 ; set relative positioning
G1 Z-1
G90 ; set absolute positioning
G1 X60.379 Y60.379 F7800.000
; tool change
T1
; printing square tower with layer height 0.3
G91 ; set relative positioning
G1 Z1
G90 ; set absolute positioning
G1 X93 Y148 F7800
G91 ; set relative positioning
G1 Z-1
G90 ; set absolute positioning
G1 X93 Y162 F7800
; printing loops
G1 X95 Y160 F7800
G1 E0 F4800
G1 X105 Y160 E0.1949 F3600
G1 X105 Y150 E0.1949 F3600
G1 X95 Y150 E0.1949 F3600
G1 X95 Y160 E0.1949 F3600
G1 X95.4 Y159.6 F7800
G1 X104.6 Y159.6 E0.1793 F3600
G1 X104.6 Y150.4 E0.1793 F3600
G1 X95.4 Y150.4 E0.1793 F3600
G1 X95.4 Y159.6 E0.1793 F3600
G1 X95.8 Y159.2 F7800
G1 X104.2 Y159.2 E0.1637 F3600
G1 X104.2 Y150.8 E0.1637 F3600
G1 X95.8 Y150.8 E0.1637 F3600
G1 X95.8 Y159.2 E0.1637 F3600
G1 X96.2 Y158.8 F7800
G1 X103.8 Y158.8 E0.1481 F3600
G1 X103.8 Y151.2 E0.1481 F3600
G1 X96.2 Y151.2 E0.1481 F3600
G1 X96.2 Y158.8 E0.1481 F3600
G1 X96.6 Y158.4 F7800
G1 X103.4 Y158.4 E0.1325 F3600
G1 X103.4 Y151.6 E0.1325 F3600
G1 X96.6 Y151.6 E0.1325 F3600
G1 X96.6 Y158.4 E0.1325 F3600
G1 E0 F4800
G91 ; set relative positioning
G1 Z1
G90 ; set absolute positioning
G1 X93 Y148 F7800
G91 ; set relative positioning
G1 Z-1
G90 ; set absolute positioning
G1 Z0.300 F7800.000
; next layer
; tool change
T0
; omitting wipe tower due to zero layer height
G1 E4.00000 F4800.00000
G1 X62.879 Y57.879 E0.09226 F2700.000
G1 X64.745 Y56.573 E0.05944
G1 X67.500 Y55.964 E0.07362
G1 X122.500 Y55.964 E1.43527
G1 X124.743 Y56.361 E0.05944
G1 X126.713 Y57.504 E0.05944 F2700.000
G1 X128.172 Y59.253 E0.05944
G1 X129.036 Y62.500 E0.08767
G1 X129.036 Y122.500 E1.56575
G1 X128.639 Y124.743 E0.05944
G1 X127.496 Y126.713 E0.05944
G1 X125.747 Y128.172 E0.05944
G1 X122.500 Y129.036 E0.08767
G1 X62.500 Y129.036 E1.56575
G1 X60.257 Y128.639 E0.05944
G1 X58.287 Y127.496 E0.05944
G1 X56.828 Y125.747 E0.05944
G1 X55.964 Y122.500 E0.08767
G1 X55.964 Y67.500 E1.43527
G1 X56.361 Y65.257 E0.05944
G1 X57.879 Y62.879 E0.07362
G1 X60.336 Y60.421 E0.09070
G1 E-4.00000 F4800.00000
; tool change
T1
; omitting wipe tower due to zero layer height
G1 Z0.600 F7800.000
; next layer
; tool change
T0
; printing square tower with layer height 0.3
G91 ; set relative positioning
G1 Z1
G90 ; set absolute positioning
G1 X87 Y148 F7800
G91 ; set relative positioning
G1 Z-1
G90 ; set absolute positioning
G1 X87 Y148 F7800
; printing loops
G1 X85 Y150 F7800
G1 E4 F4800
G1 X75 Y150 E0.1949 F3600
G1 X75 Y160 E0.1949 F3600
G1 X85 Y160 E0.1949 F3600
G1 X85 Y150 E0.1949 F3600
G1 X84.6 Y150.4 F7800
G1 X75.4 Y150.4 E0.1793 F3600
G1 X75.4 Y159.6 E0.1793 F3600
G1 X84.6 Y159.6 E0.1793 F3600
G1 X84.6 Y150.4 E0.1793 F3600
G1 X84.2 Y150.8 F7800
G1 X75.8 Y150.8 E0.1637 F3600
G1 X75.8 Y159.2 E0.1637 F3600
G1 X84.2 Y159.2 E0.1637 F3600
G1 X84.2 Y150.8 E0.1637 F3600
G1 X83.8 Y151.2 F7800
G1 X76.2 Y151.2 E0.1481 F3600
G1 X76.2 Y158.8 E0.1481 F3600
G1 X83.8 Y158.8 E0.1481 F3600
G1 X83.8 Y151.2 E0.1481 F3600
G1 X83.4 Y151.6 F7800
G1 X76.6 Y151.6 E0.1325 F3600
G1 X76.6 Y158.4 E0.1325 F3600
G1 X83.4 Y158.4 E0.1325 F3600
G1 X83.4 Y151.6 E0.1325 F3600
G1 E-4 F4800
G91 ; set relative positioning
G1 Z1
G90 ; set absolute positioning
G1 X60.336 Y60.421 F7800
G91 ; set relative positioning
G1 Z-1
G90 ; set absolute positioning
G1 X112.568 Y101.129 F7800.000
; tool change
T1
; printing square tower with layer height 0.3
G91 ; set relative positioning
G1 Z1
G90 ; set absolute positioning
G1 X107 Y148 F7800
G91 ; set relative positioning
G1 Z-1
G90 ; set absolute positioning
G1 X107 Y148 F7800
; printing loops
G1 X105 Y150 F7800
G1 E0 F4800
G1 X95 Y150 E0.1949 F3600
G1 X95 Y160 E0.1949 F3600
G1 X105 Y160 E0.1949 F3600
G1 X105 Y150 E0.1949 F3600
G1 X104.6 Y150.4 F7800
G1 X95.4 Y150.4 E0.1793 F3600
G1 X95.4 Y159.6 E0.1793 F3600
G1 X104.6 Y159.6 E0.1793 F3600
G1 X104.6 Y150.4 E0.1793 F3600
G1 X104.2 Y150.8 F7800
G1 X95.8 Y150.8 E0.1637 F3600
G1 X95.8 Y159.2 E0.1637 F3600
G1 X104.2 Y159.2 E0.1637 F3600
G1 X104.2 Y150.8 E0.1637 F3600
G1 X103.8 Y151.2 F7800
G1 X96.2 Y151.2 E0.1481 F3600
G1 X96.2 Y158.8 E0.1481 F3600
G1 X103.8 Y158.8 E0.1481 F3600
G1 X103.8 Y151.2 E0.1481 F3600
G1 X103.4 Y151.6 F7800
G1 X96.6 Y151.6 E0.1325 F3600
G1 X96.6 Y158.4 E0.1325 F3600
G1 X103.4 Y158.4 E0.1325 F3600
G1 X103.4 Y151.6 E0.1325 F3600
G1 E0 F4800
G91 ; set relative positioning
G1 Z1
G90 ; set absolute positioning
G1 X93 Y148 F7800
G91 ; set relative positioning
G1 Z-1
G90 ; set absolute positioning
G1 Z0.300 F7800.000
; next layer
; tool change
T0
; omitting wipe tower due to zero layer height
G1 E4.00000 F4800.00000
G1 X63.871 Y101.129 E1.27079 F2700.000
G1 X63.871 Y83.871 E0.45035
G1 X121.129 Y83.871 E1.49418
G1 X121.129 Y101.129 E0.45035
G1 X112.628 Y101.129 E0.22183 F2700.000
G1 X112.628 Y101.664 F7800.000
G1 X63.336 Y101.664 E1.28633 F2700.000
G1 X63.336 Y83.336 E0.47830
G1 X121.664 Y83.336 E1.52214
G1 X121.664 Y101.664 E0.47830
G1 X112.688 Y101.664 E0.23424 F2700.000
G1 X112.688 Y102.200 F7800.000
G1 X62.800 Y102.200 E1.30187 F1890.000
G1 X62.800 Y82.800 E0.50626
G1 X122.200 Y82.800 E1.55009
G1 X122.200 Y102.200 E0.50626
G1 X112.748 Y102.200 E0.24665 F1890.000
G1 X112.488 Y101.854 F7800.000
G1 X120.807 Y84.460 F7800.000
G1 X120.540 Y84.193 E0.00996 F2700.000
G1 X119.775 Y84.193 E0.02017
G1 X120.807 Y85.225 E0.03849
G1 X120.807 Y85.991 E0.02017
G1 X119.009 Y84.193 E0.06702
G1 X118.244 Y84.193 E0.02017
G1 X120.807 Y86.756 E0.09555
G1 X120.807 Y87.521 E0.02017
G1 X117.479 Y84.193 E0.12407
G1 X116.714 Y84.193 E0.02017
G1 X120.807 Y88.286 E0.15260
G1 X120.807 Y89.051 E0.02017
G1 X115.949 Y84.193 E0.18113
G1 X115.183 Y84.193 E0.02017
G1 X120.807 Y89.817 E0.20966
G1 X120.807 Y90.582 E0.02017
G1 X114.418 Y84.193 E0.23818
G1 X113.653 Y84.193 E0.02017
G1 X120.807 Y91.347 E0.26671
G1 X120.807 Y92.112 E0.02017
G1 X112.888 Y84.193 E0.29524
G1 X112.123 Y84.193 E0.02017
G1 X120.807 Y92.877 E0.32377
G1 X120.807 Y93.643 E0.02017
G1 X111.357 Y84.193 E0.35230
G1 X110.592 Y84.193 E0.02017
G1 X120.807 Y94.408 E0.38082
G1 X120.807 Y95.173 E0.02017
G1 X109.827 Y84.193 E0.40935
G1 X109.062 Y84.193 E0.02017
G1 X120.807 Y95.938 E0.43788
G1 X120.807 Y96.703 E0.02017
G1 X108.297 Y84.193 E0.46641
G1 X107.531 Y84.193 E0.02017
G1 X120.807 Y97.469 E0.49493
G1 X120.807 Y98.234 E0.02017
G1 X106.766 Y84.193 E0.52346
G1 X106.001 Y84.193 E0.02017
G1 X120.807 Y98.999 E0.55199
G1 X120.807 Y99.764 E0.02017
G1 X105.236 Y84.193 E0.58052
G1 X104.471 Y84.193 E0.02017
G1 X120.807 Y100.529 E0.60904
G1 X120.320 Y100.807 E0.01479
G1 X103.705 Y84.193 E0.61940
G1 X102.940 Y84.193 E0.02017
G1 X119.555 Y100.807 E0.61940
G1 X118.789 Y100.807 E0.02017
G1 X102.175 Y84.193 E0.61940
G1 X101.410 Y84.193 E0.02017
G1 X118.024 Y100.807 E0.61940
G1 X117.259 Y100.807 E0.02017
G1 X100.645 Y84.193 E0.61940
G1 X99.879 Y84.193 E0.02017
G1 X116.494 Y100.807 E0.61940
G1 X115.729 Y100.807 E0.02017
G1 X99.114 Y84.193 E0.61940
G1 X98.349 Y84.193 E0.02017
G1 X114.963 Y100.807 E0.61940
G1 X114.198 Y100.807 E0.02017
G1 X97.584 Y84.193 E0.61940
G1 X96.819 Y84.193 E0.02017
G1 X113.433 Y100.807 E0.61940
G1 X112.668 Y100.807 E0.02017
G1 X96.053 Y84.193 E0.61940
G1 X95.288 Y84.193 E0.02017
G1 X111.903 Y100.807 E0.61940
G1 X111.137 Y100.807 E0.02017
G1 X94.523 Y84.193 E0.61940
G1 X93.758 Y84.193 E0.02017
G1 X110.372 Y100.807 E0.61940
G1 X109.607 Y100.807 E0.02017
G1 X92.993 Y84.193 E0.61940
G1 X92.227 Y84.193 E0.02017
G1 X108.842 Y100.807 E0.61940
G1 X108.077 Y100.807 E0.02017
G1 X91.462 Y84.193 E0.61940
G1 X90.697 Y84.193 E0.02017
G1 X107.311 Y100.807 E0.61940
G1 X106.546 Y100.807 E0.02017
G1 X89.932 Y84.193 E0.61940
G1 X89.167 Y84.193 E0.02017
G1 X105.781 Y100.807 E0.61940
G1 X105.016 Y100.807 E0.02017
G1 X88.401 Y84.193 E0.61940
G1 X87.636 Y84.193 E0.02017
G1 X104.250 Y100.807 E0.61940
G1 X103.485 Y100.807 E0.02017
G1 X86.871 Y84.193 E0.61940
G1 X86.106 Y84.193 E0.02017
G1 X102.720 Y100.807 E0.61940
G1 X101.955 Y100.807 E0.02017
G1 X85.341 Y84.193 E0.61940
G1 X84.575 Y84.193 E0.02017
G1 X101.190 Y100.807 E0.61940
G1 X100.424 Y100.807 E0.02017
G1 X83.810 Y84.193 E0.61940
G1 X83.045 Y84.193 E0.02017
G1 X99.659 Y100.807 E0.61940
G1 X98.894 Y100.807 E0.02017
G1 X82.280 Y84.193 E0.61940
G1 X81.515 Y84.193 E0.02017
G1 X98.129 Y100.807 E0.61940
G1 X97.364 Y100.807 E0.02017
G1 X80.749 Y84.193 E0.61940
G1 X79.984 Y84.193 E0.02017
G1 X96.598 Y100.807 E0.61940
G1 X95.833 Y100.807 E0.02017
G1 X79.219 Y84.193 E0.61940
G1 X78.454 Y84.193 E0.02017
G1 X95.068 Y100.807 E0.61940
G1 X94.303 Y100.807 E0.02017
G1 X77.689 Y84.193 E0.61940
G1 X76.923 Y84.193 E0.02017
G1 X93.538 Y100.807 E0.61940
G1 X92.772 Y100.807 E0.02017
G1 X76.158 Y84.193 E0.61940
G1 X75.393 Y84.193 E0.02017
G1 X92.007 Y100.807 E0.61940
G1 X91.242 Y100.807 E0.02017
G1 X74.628 Y84.193 E0.61940
G1 X73.863 Y84.193 E0.02017
G1 X90.477 Y100.807 E0.61940
G1 X89.712 Y100.807 E0.02017
G1 X73.097 Y84.193 E0.61940
G1 X72.332 Y84.193 E0.02017
G1 X88.946 Y100.807 E0.61940
G1 X88.181 Y100.807 E0.02017
G1 X71.567 Y84.193 E0.61940
G1 X70.802 Y84.193 E0.02017
G1 X87.416 Y100.807 E0.61940
G1 X86.651 Y100.807 E0.02017
G1 X70.037 Y84.193 E0.61940
G1 X69.271 Y84.193 E0.02017
G1 X85.886 Y100.807 E0.61940
G1 X85.120 Y100.807 E0.02017
G1 X68.506 Y84.193 E0.61940
G1 X67.741 Y84.193 E0.02017
G1 X84.355 Y100.807 E0.61940
G1 X83.590 Y100.807 E0.02017
G1 X66.976 Y84.193 E0.61940
G1 X66.211 Y84.193 E0.02017
G1 X82.825 Y100.807 E0.61940
G1 X82.060 Y100.807 E0.02017
G1 X65.445 Y84.193 E0.61940
G1 X64.680 Y84.193 E0.02017
G1 X81.294 Y100.807 E0.61940
G1 X80.529 Y100.807 E0.02017
