; generated by Slic3r 1.2.1-dev on 2014-11-12 at 19:40:44

; external perimeters extrusion width = 0.50mm
; perimeters extrusion width = 0.85mm
; infill extrusion width = 1.02mm
; solid infill extrusion width = 0.85mm
; top infill extrusion width = 0.85mm

M190 S65 ; wait for bed temperature to be reached
M104 S180 ; set temperature
G28 ; home all axes
M109 S180 ; wait for temperature to be reached
G21 ; set units to millimeters
G90 ; use absolute coordinates
M82 ; use absolute distances for extrusion
G92 E0
M106 S89
G1 E-2.00000 F2400.000
G92 E0
G1 Z0.300 F5400.000
G1 X70.278 Y43.016 F5400.000
G1 Z0.200 F5400.000
G1 E2.00000 F2400.000
G1 X72.021 Y41.599 E2.02605 F2700.000
G1 X75.098 Y40.805 E2.06290
G1 X105.098 Y40.805 E2.41085
G1 X107.309 Y41.202 E2.43690
G1 X109.243 Y42.343 E2.46295 F2700.000
G1 X110.661 Y44.086 E2.48901
G1 X111.455 Y47.162 E2.52586
G1 X111.455 Y77.162 E2.87380
G1 X111.058 Y79.373 E2.89985
G1 X109.917 Y81.308 E2.92591
G1 X108.174 Y82.725 E2.95196
G1 X105.098 Y83.519 E2.98881
G1 X75.098 Y83.519 E3.33675
G1 X72.887 Y83.122 E3.36281
G1 X70.952 Y81.981 E3.38886
G1 X69.535 Y80.239 E3.41491
G1 X68.741 Y77.162 E3.45176
G1 X68.741 Y47.162 E3.79971
G1 X69.137 Y44.951 E3.82576
G1 X70.240 Y43.081 E3.85094
G1 E1.85094 F2400.000
G92 E0
G1 Z0.500 F5400.000
G1 X104.183 Y55.212 F5400.000
G1 Z0.200 F5400.000
G1 E2.00000 F2400.000
G1 X104.183 Y76.248 E2.24398 F2700.000
G1 X76.012 Y76.248 E2.57072 F2700.000
G1 X76.012 Y48.076 E2.89746
G1 X104.183 Y48.076 E3.22420
G1 X104.183 Y55.137 E3.30609
G1 X104.541 Y55.137 F5400.000
G1 X104.541 Y76.605 E3.55508 F2700.000
G1 X75.655 Y76.605 E3.89010
G1 X75.655 Y47.719 E4.22512
G1 X104.541 Y47.719 E4.56014 F2700.000
G1 X104.541 Y55.062 E4.64531
G1 X104.898 Y55.062 F5400.000
G1 X104.898 Y76.962 E4.89931 F1890.000
G1 X75.298 Y76.962 E5.24261 F1890.000
G1 X75.298 Y47.362 E5.58592
G1 X104.898 Y47.362 E5.92923
G1 X104.898 Y54.987 E6.01766
G1 X104.465 Y76.712 F5400.000
G1 X103.905 Y48.315 F5400.000
G1 X103.945 Y48.355 E6.01832 F2700.000
G1 X103.945 Y48.863 E6.02420
G1 X103.397 Y48.315 E6.03318
G1 X102.890 Y48.315 E6.03907
G1 X103.945 Y49.370 E6.05637
G1 X103.945 Y49.877 E6.06225
G1 X102.382 Y48.315 E6.08788
G1 X101.875 Y48.315 E6.09376
G1 X103.945 Y50.385 E6.12771
G1 X103.945 Y50.892 E6.13360
G1 X101.368 Y48.315 E6.17586
G1 X100.860 Y48.315 E6.18175
G1 X103.945 Y51.400 E6.23234
G1 X103.945 Y51.907 E6.23823
G1 X100.353 Y48.315 E6.29714
G1 X99.845 Y48.315 E6.30303
G1 X103.945 Y52.414 E6.37027
G1 X103.945 Y52.922 E6.37615
G1 X99.338 Y48.315 E6.45171
G1 X98.830 Y48.315 E6.45760
G1 X103.945 Y53.429 E6.54148
G1 X103.945 Y53.937 E6.54736
G1 X98.323 Y48.315 E6.63957
G1 X97.816 Y48.315 E6.64546
G1 X103.945 Y54.444 E6.74598
G1 X103.945 Y54.952 E6.75187
G1 X97.308 Y48.315 E6.86072
G1 X96.801 Y48.315 E6.86661
G1 X103.945 Y55.459 E6.98378
G1 X103.945 Y55.966 E6.98966
G1 X96.293 Y48.315 E7.11516
G1 X95.786 Y48.315 E7.12105
G1 X103.945 Y56.474 E7.25487
G1 X103.945 Y56.981 E7.26075
G1 X95.279 Y48.315 E7.40289
G1 X94.771 Y48.315 E7.40878
G1 X103.945 Y57.489 E7.55924
G1 X103.945 Y57.996 E7.56513
G1 X94.264 Y48.315 E7.72392
G1 X93.756 Y48.315 E7.72980
G1 X103.945 Y58.503 E7.89691
G1 X103.945 Y59.011 E7.90280
G1 X93.249 Y48.315 E8.07823
G1 X92.742 Y48.315 E8.08411
G1 X103.945 Y59.518 E8.26787
G1 X103.945 Y60.026 E8.27376
G1 X92.234 Y48.315 E8.46583
G1 X91.727 Y48.315 E8.47172
G1 X103.945 Y60.533 E8.67212
G1 X103.945 Y61.040 E8.67801
G1 X91.219 Y48.315 E8.88673
G1 X90.712 Y48.315 E8.89261
G1 X103.945 Y61.548 E9.10966
G1 X103.945 Y62.055 E9.11555
G1 X90.204 Y48.315 E9.34092
G1 X89.697 Y48.315 E9.34680
G1 X103.945 Y62.563 E9.58049
G1 X103.945 Y63.070 E9.58638
G1 X89.190 Y48.315 E9.82839
G1 X88.682 Y48.315 E9.83428
G1 X103.945 Y63.578 E10.08462
G1 X103.945 Y64.085 E10.09050
G1 X88.175 Y48.315 E10.34916
G1 X87.667 Y48.315 E10.35505
G1 X103.945 Y64.592 E10.62203
G1 X103.945 Y65.100 E10.62791
G1 X87.160 Y48.315 E10.90322
G1 X86.653 Y48.315 E10.90910
G1 X103.945 Y65.607 E11.19273
G1 X103.945 Y66.115 E11.19862
G1 X86.145 Y48.315 E11.49057
G1 X85.638 Y48.315 E11.49645
G1 X103.945 Y66.622 E11.79673
G1 X103.945 Y67.129 E11.80261
G1 X85.130 Y48.315 E12.11121
G1 X84.623 Y48.315 E12.11709
G1 X103.945 Y67.637 E12.43401
G1 X103.945 Y68.144 E12.43990
G1 X84.116 Y48.315 E12.76514
G1 X83.608 Y48.315 E12.77103
G1 X103.945 Y68.652 E13.10459
G1 X103.945 Y69.159 E13.11048
G1 X83.101 Y48.315 E13.45236
G1 X82.593 Y48.315 E13.45825
G1 X103.945 Y69.666 E13.80846
G1 X103.945 Y70.174 E13.81434
G1 X82.086 Y48.315 E14.17288
G1 X81.578 Y48.315 E14.17876
G1 X103.945 Y70.681 E14.54562
G1 X103.945 Y71.189 E14.55150
G1 X81.071 Y48.315 E14.92668
G1 X80.564 Y48.315 E14.93256
G1 X103.945 Y71.696 E15.31607
G1 X103.945 Y72.204 E15.32195
G1 X80.056 Y48.315 E15.71377
G1 X79.549 Y48.315 E15.71966
G1 X103.945 Y72.711 E16.11981
G1 X103.945 Y73.218 E16.12569
G1 X79.041 Y48.315 E16.53416
G1 X78.534 Y48.315 E16.54004
G1 X103.945 Y73.726 E16.95684
G1 X103.945 Y74.233 E16.96272
G1 X78.027 Y48.315 E17.38784
G1 X77.519 Y48.315 E17.39372
G1 X103.945 Y74.741 E17.82716
G1 X103.945 Y75.248 E17.83304
G1 X77.012 Y48.315 E18.27480
G1 X76.504 Y48.315 E18.28069
G1 X103.945 Y75.755 E18.73077
G1 X103.691 Y76.009 E18.73493
G1 X76.251 Y48.569 E19.18502
G1 X76.251 Y49.076 E19.19090
G1 X103.183 Y76.009 E19.63266
G1 X102.676 Y76.009 E19.63855
G1 X76.251 Y49.584 E20.07198
G1 X76.251 Y50.091 E20.07787
G1 X102.169 Y76.009 E20.50298
G1 X101.661 Y76.009 E20.50887
G1 X76.251 Y50.599 E20.92566
G1 X76.251 Y51.106 E20.93154
G1 X101.154 Y76.009 E21.34001
G1 X100.646 Y76.009 E21.34590
G1 X76.251 Y51.613 E21.74604
G1 X76.251 Y52.121 E21.75193
G1 X100.139 Y76.009 E22.14375
G1 X99.632 Y76.009 E22.14964
G1 X76.251 Y52.628 E22.53314
G1 X76.251 Y53.136 E22.53902
G1 X99.124 Y76.009 E22.91420
G1 X98.617 Y76.009 E22.92009
G1 X76.251 Y53.643 E23.28694
G1 X76.251 Y54.150 E23.29283
G1 X98.109 Y76.009 E23.65136
G1 X97.602 Y76.009 E23.65725
G1 X76.251 Y54.658 E24.00746
G1 X76.251 Y55.165 E24.01334
G1 X97.095 Y76.009 E24.35523
G1 X96.587 Y76.009 E24.36111
G1 X76.251 Y55.673 E24.69468
G1 X76.251 Y56.180 E24.70056
G1 X96.080 Y76.009 E25.02580
G1 X95.572 Y76.009 E25.03169
G1 X76.251 Y56.687 E25.34861
G1 X76.251 Y57.195 E25.35449
G1 X95.065 Y76.009 E25.66309
G1 X94.557 Y76.009 E25.66898
G1 X76.251 Y57.702 E25.96925
G1 X76.251 Y58.210 E25.97513
G1 X94.050 Y76.009 E26.26709
G1 X93.543 Y76.009 E26.27297
G1 X76.251 Y58.717 E26.55660
G1 X76.251 Y59.225 E26.56248
G1 X93.035 Y76.009 E26.83779
G1 X92.528 Y76.009 E26.84368
G1 X76.251 Y59.732 E27.11066
G1 X76.251 Y60.239 E27.11654
G1 X92.020 Y76.009 E27.37520
G1 X91.513 Y76.009 E27.38109
G1 X76.251 Y60.747 E27.63143
G1 X76.251 Y61.254 E27.63731
G1 X91.006 Y76.009 E27.87933
G1 X90.498 Y76.009 E27.88521
G1 X76.251 Y61.762 E28.11890
G1 X76.251 Y62.269 E28.12479
G1 X89.991 Y76.009 E28.35016
G1 X89.483 Y76.009 E28.35604
G1 X76.251 Y62.776 E28.57309
G1 X76.251 Y63.284 E28.57897
G1 X88.976 Y76.009 E28.78770
G1 X88.469 Y76.009 E28.79358
G1 X76.251 Y63.791 E28.99398
G1 X76.251 Y64.299 E28.99987
G1 X87.961 Y76.009 E29.19195
G1 X87.454 Y76.009 E29.19783
G1 X76.251 Y64.806 E29.38159
G1 X76.251 Y65.313 E29.38747
G1 X86.946 Y76.009 E29.56291
G1 X86.439 Y76.009 E29.56879
G1 X76.251 Y65.821 E29.73590
G1 X76.251 Y66.328 E29.74179
G1 X85.931 Y76.009 E29.90057
G1 X85.424 Y76.009 E29.90646
G1 X76.251 Y66.836 E30.05692
G1 X76.251 Y67.343 E30.06281
G1 X84.917 Y76.009 E30.20495
G1 X84.409 Y76.009 E30.21084
G1 X76.251 Y67.851 E30.34466
G1 X76.251 Y68.358 E30.35054
G1 X83.902 Y76.009 E30.47604
G1 X83.394 Y76.009 E30.48192
G1 X76.251 Y68.865 E30.59910
G1 X76.251 Y69.373 E30.60498
G1 X82.887 Y76.009 E30.71383
G1 X82.380 Y76.009 E30.71972
G1 X76.251 Y69.880 E30.82025
G1 X76.251 Y70.388 E30.82613
G1 X81.872 Y76.009 E30.91834
G1 X81.365 Y76.009 E30.92422
G1 X76.251 Y70.895 E31.00811
G1 X76.251 Y71.402 E31.01399
G1 X80.857 Y76.009 E31.08955
G1 X80.350 Y76.009 E31.09544
G1 X76.251 Y71.910 E31.16268
G1 X76.251 Y72.417 E31.16856
G1 X79.843 Y76.009 E31.22748
G1 X79.335 Y76.009 E31.23336
G1 X76.251 Y72.925 E31.28395
G1 X76.251 Y73.432 E31.28984
G1 X78.828 Y76.009 E31.33211
G1 X78.320 Y76.009 E31.33799
G1 X76.251 Y73.939 E31.37194
G1 X76.251 Y74.447 E31.37782
G1 X77.813 Y76.009 E31.40345
G1 X77.305 Y76.009 E31.40933
G1 X76.251 Y74.954 E31.42664
G1 X76.251 Y75.462 E31.43252
G1 X76.798 Y76.009 E31.44150
G1 X76.291 Y76.009 E31.44738
G1 X76.251 Y75.969 E31.44804
M106 S122
G1 E29.44804 F2400.000
G92 E0
G1 Z0.500 F5400.000
G1 X93.532 Y75.473 F5400.000
G1 Z0.400 F5400.000
G1 E2.00000 F2400.000
G1 X76.787 Y75.473 E2.43897 F3600.000
G1 X76.787 Y48.851 E3.13684
G1 X103.408 Y48.851 E3.83471
G1 X103.408 Y75.473 E4.53258
G1 X93.607 Y75.473 E4.78952 F3600.000
G1 X93.607 Y76.280 F5400.000
G1 X75.980 Y76.280 E5.25161 F3600.000
G1 X75.980 Y48.044 E5.99180
G1 X104.216 Y48.044 E6.73199 F3600.000
G1 X104.216 Y76.280 E7.47217
G1 X93.682 Y76.280 E7.74830
G1 X93.682 Y76.912 F5400.000
G1 X75.348 Y76.912 E8.02050 F2520.000
G1 X75.348 Y47.412 E8.45846
G1 X104.848 Y47.412 E8.89643
G1 X104.848 Y76.912 E9.33439
G1 X93.757 Y76.912 E9.49904 F2520.000
G1 X104.848 Y76.412 F5400.000
G1 X102.804 Y74.829 F5400.000
G1 X102.764 Y74.869 E9.50053 F3600.000
G1 X101.611 Y74.869 E9.53076
G1 X102.804 Y73.675 E9.57500
G1 X102.804 Y72.522 E9.60523
G1 X100.457 Y74.869 E9.69223
G1 X99.304 Y74.869 E9.72246
G1 X102.804 Y71.369 E9.85221
G1 X102.804 Y70.215 E9.88245
G1 X98.151 Y74.869 E10.05496
G1 X96.997 Y74.869 E10.08519
G1 X102.804 Y69.062 E10.30046
G1 X102.804 Y67.909 E10.33069
G1 X95.844 Y74.869 E10.58871
G1 X94.691 Y74.869 E10.61894
G1 X102.804 Y66.755 E10.91972
G1 X102.804 Y65.602 E10.94996
G1 X93.538 Y74.869 E11.29349
G1 X92.384 Y74.869 E11.32372
G1 X102.804 Y64.449 E11.71002
G1 X102.804 Y63.295 E11.74025
G1 X91.231 Y74.869 E12.16930
G1 X90.078 Y74.869 E12.19953
G1 X102.804 Y62.142 E12.67133
G1 X102.804 Y60.989 E12.70157
G1 X88.924 Y74.869 E13.21613
G1 X87.771 Y74.869 E13.24636
G1 X102.804 Y59.836 E13.80368
G1 X102.804 Y58.682 E13.83391
G1 X86.618 Y74.869 E14.43399
G1 X85.464 Y74.869 E14.46422
G1 X102.804 Y57.529 E15.10705
G1 X102.804 Y56.376 E15.13728
G1 X84.311 Y74.869 E15.82287
G1 X83.158 Y74.869 E15.85310
G1 X102.804 Y55.222 E16.58145
G1 X102.804 Y54.069 E16.61168
G1 X82.004 Y74.869 E17.38278
G1 X80.851 Y74.869 E17.41301
G1 X102.804 Y52.916 E18.22687
G1 X102.804 Y51.762 E18.25710
G1 X79.698 Y74.869 E19.11372
G1 X78.544 Y74.869 E19.14395
G1 X102.804 Y50.609 E20.04332
G1 X102.784 Y49.476 E20.07303
G1 X77.411 Y74.849 E21.01368
G1 X77.391 Y73.715 E21.04339
G1 X101.651 Y49.456 E21.94276
G1 X100.497 Y49.456 E21.97299
G1 X77.391 Y72.562 E22.82961
G1 X77.391 Y71.409 E22.85984
G1 X99.344 Y49.456 E23.67370
G1 X98.191 Y49.456 E23.70393
G1 X77.391 Y70.255 E24.47503
G1 X77.391 Y69.102 E24.50526
G1 X97.037 Y49.456 E25.23361
G1 X95.884 Y49.456 E25.26384
G1 X77.391 Y67.949 E25.94943
G1 X77.391 Y66.795 E25.97966
G1 X94.731 Y49.456 E26.62249
G1 X93.578 Y49.456 E26.65272
G1 X77.391 Y65.642 E27.25280
G1 X77.391 Y64.489 E27.28303
G1 X92.424 Y49.456 E27.84035
G1 X91.271 Y49.456 E27.87058
G1 X77.391 Y63.335 E28.38514
G1 X77.391 Y62.182 E28.41538
G1 X90.118 Y49.456 E28.88718
G1 X88.964 Y49.456 E28.91741
G1 X77.391 Y61.029 E29.34646
G1 X77.391 Y59.876 E29.37669
G1 X87.811 Y49.456 E29.76299
G1 X86.658 Y49.456 E29.79322
G1 X77.391 Y58.722 E30.13675
G1 X77.391 Y57.569 E30.16699
G1 X85.504 Y49.456 E30.46777
G1 X84.351 Y49.456 E30.49800
G1 X77.391 Y56.416 E30.75602
G1 X77.391 Y55.262 E30.78625
G1 X83.198 Y49.456 E31.00152
G1 X82.044 Y49.456 E31.03175
G1 X77.391 Y54.109 E31.20426
G1 X77.391 Y52.956 E31.23450
G1 X80.891 Y49.456 E31.36425
G1 X79.738 Y49.456 E31.39448
G1 X77.391 Y51.802 E31.48148
G1 X77.391 Y50.649 E31.51171
G1 X78.584 Y49.456 E31.55595
G1 X77.431 Y49.456 E31.58618
G1 X77.391 Y49.496 E31.58767
M106 S122
G1 E29.58767 F2400.000
G92 E0
G1 Z0.700 F5400.000
G1 X93.594 Y48.851 F5400.000
G1 Z0.600 F5400.000
G1 E2.00000 F2400.000
G1 X103.408 Y48.851 E2.25729 F3600.000
G1 X103.408 Y75.473 E2.95516
G1 X76.787 Y75.473 E3.65303 F3600.000
G1 X76.787 Y48.851 E4.35091
G1 X93.519 Y48.851 E4.78952
G1 X93.519 Y48.044 F5400.000
G1 X104.216 Y48.044 E5.06994 F3600.000
G1 X104.216 Y76.280 E5.81012
G1 X75.980 Y76.280 E6.55031
G1 X75.980 Y48.044 E7.29050
G1 X93.444 Y48.044 E7.74830 F3600.000
G1 X93.444 Y47.412 F5400.000
G1 X104.848 Y47.412 E7.91761 F2520.000
G1 X104.848 Y76.912 E8.35557
G1 X75.348 Y76.912 E8.79354 F2520.000
G1 X75.348 Y47.412 E9.23150
G1 X93.369 Y47.412 E9.49904
G1 X104.365 Y76.783 F5400.000
G1 X102.764 Y49.456 F5400.000
G1 X102.804 Y49.496 E9.50053 F3600.000
G1 X102.804 Y50.649 E9.53076
G1 X101.611 Y49.456 E9.57500
G1 X100.457 Y49.456 E9.60523
G1 X102.804 Y51.802 E9.69223
G1 X102.804 Y52.956 E9.72246
G1 X99.304 Y49.456 E9.85221
G1 X98.151 Y49.456 E9.88245
G1 X102.804 Y54.109 E10.05496
G1 X102.804 Y55.262 E10.08519
G1 X96.997 Y49.456 E10.30046
G1 X95.844 Y49.456 E10.33069
G1 X102.804 Y56.416 E10.58871
G1 X102.804 Y57.569 E10.61894
G1 X94.691 Y49.456 E10.91972
G1 X93.538 Y49.456 E10.94996
G1 X102.804 Y58.722 E11.29349
G1 X102.804 Y59.876 E11.32372
G1 X92.384 Y49.456 E11.71002
G1 X91.231 Y49.456 E11.74025
G1 X102.804 Y61.029 E12.16930
G1 X102.804 Y62.182 E12.19953
G1 X90.078 Y49.456 E12.67133
G1 X88.924 Y49.456 E12.70157
G1 X102.804 Y63.335 E13.21613
G1 X102.804 Y64.489 E13.24636
G1 X87.771 Y49.456 E13.80368
G1 X86.618 Y49.456 E13.83391
G1 X102.804 Y65.642 E14.43399
G1 X102.804 Y66.795 E14.46422
G1 X85.464 Y49.456 E15.10705
G1 X84.311 Y49.456 E15.13728
G1 X102.804 Y67.949 E15.82287
G1 X102.804 Y69.102 E15.85310
G1 X83.158 Y49.456 E16.58145
G1 X82.004 Y49.456 E16.61168
G1 X102.804 Y70.255 E17.38278
G1 X102.804 Y71.409 E17.41301
G1 X80.851 Y49.456 E18.22687
G1 X79.698 Y49.456 E18.25710
G1 X102.804 Y72.562 E19.11372
G1 X102.804 Y73.715 E19.14395
G1 X78.544 Y49.456 E20.04332
G1 X77.411 Y49.476 E20.07303
G1 X102.784 Y74.849 E21.01368
G1 X101.651 Y74.869 E21.04339
G1 X77.391 Y50.609 E21.94276
G1 X77.391 Y51.762 E21.97299
G1 X100.497 Y74.869 E22.82961
G1 X99.344 Y74.869 E22.85984
G1 X77.391 Y52.916 E23.67370
G1 X77.391 Y54.069 E23.70393
G1 X98.191 Y74.869 E24.47503
G1 X97.037 Y74.869 E24.50526
G1 X77.391 Y55.222 E25.23361
G1 X77.391 Y56.376 E25.26384
G1 X95.884 Y74.869 E25.94943
G1 X94.731 Y74.869 E25.97966
G1 X77.391 Y57.529 E26.62249
G1 X77.391 Y58.682 E26.65272
G1 X93.578 Y74.869 E27.25280
G1 X92.424 Y74.869 E27.28303
G1 X77.391 Y59.836 E27.84035
G1 X77.391 Y60.989 E27.87058
G1 X91.271 Y74.869 E28.38514
G1 X90.118 Y74.869 E28.41537
G1 X77.391 Y62.142 E28.88718
G1 X77.391 Y63.295 E28.91741
G1 X88.964 Y74.869 E29.34646
G1 X87.811 Y74.869 E29.37669
G1 X77.391 Y64.449 E29.76299
G1 X77.391 Y65.602 E29.79322
G1 X86.658 Y74.869 E30.13675
G1 X85.504 Y74.869 E30.16699
G1 X77.391 Y66.755 E30.46777
G1 X77.391 Y67.909 E30.49800
G1 X84.351 Y74.869 E30.75602
G1 X83.198 Y74.869 E30.78625
G1 X77.391 Y69.062 E31.00152
G1 X77.391 Y70.215 E31.03175
G1 X82.044 Y74.869 E31.20426
G1 X80.891 Y74.869 E31.23449
G1 X77.391 Y71.369 E31.36425
G1 X77.391 Y72.522 E31.39448
G1 X79.738 Y74.869 E31.48148
G1 X78.584 Y74.869 E31.51171
G1 X77.391 Y73.675 E31.55595
G1 X77.391 Y74.829 E31.58618
G1 X77.431 Y74.869 E31.58767
M106 S127
G1 E29.58767 F2400.000
G92 E0
G1 Z0.900 F5400.000
G1 X89.483 Y75.473 F5400.000
G1 Z0.800 F5400.000
G1 E2.00000 F2400.000
G1 X76.787 Y75.473 E2.33282 F2337.144
G1 X76.787 Y48.851 E3.03069
G1 X103.408 Y48.851 E3.72856
G1 X103.408 Y75.473 E4.42643
G1 X89.558 Y75.473 E4.78952 F2337.144
G1 X89.558 Y76.280 F5400.000
G1 X75.980 Y76.280 E5.14546 F2337.144
G1 X75.980 Y48.044 E5.88565
G1 X104.216 Y48.044 E6.62584 F2337.144
G1 X104.216 Y76.280 E7.36602
G1 X89.633 Y76.280 E7.74830
G1 X89.633 Y76.912 F5400.000
G1 X75.348 Y76.912 E7.96038 F1636.001
G1 X75.348 Y47.412 E8.39835
G1 X104.848 Y47.412 E8.83631
G1 X104.848 Y76.912 E9.27427
G1 X89.708 Y76.912 E9.49904 F1636.001
G1 X104.848 Y76.412 F5400.000
G1 X102.784 Y69.097 F5400.000
G1 X99.913 Y68.328 E9.59383 F2337.144
G1 X95.504 Y72.737 E9.79265
G1 X96.070 Y74.849 E9.86236
G1 X86.450 Y74.849 E10.16911
G1 X90.430 Y70.869 E10.34858
G1 X94.810 Y72.043 E10.49317
G1 X99.219 Y67.634 E10.69199
G1 X98.045 Y63.254 E10.83659
