; generated by Slic3r 1.2.1-dev on 2014-11-12 at 19:39:30

; external perimeters extrusion width = 0.50mm
; perimeters extrusion width = 0.85mm
; infill extrusion width = 1.02mm
; solid infill extrusion width = 0.85mm
; top infill extrusion width = 0.85mm

M107
M190 S60 ; wait for bed temperature to be reached
M104 S230 ; set temperature
G28 ; home all axes
M109 S230 ; wait for temperature to be reached
G21 ; set units to millimeters
G90 ; use absolute coordinates
M82 ; use absolute distances for extrusion
G92 E0
G1 E-2.00000 F2400.000
G92 E0
G1 Z0.300 F5400.000
G1 X70.278 Y43.016 F5400.000
G1 Z0.200 F5400.000
G1 E2.00000 F2400.000
G1 X72.021 Y41.599 E2.02269 F2700.000
G1 X75.098 Y40.805 E2.05480
G1 X105.098 Y40.805 E2.35789
G1 X107.309 Y41.202 E2.38059
G1 X109.243 Y42.343 E2.40328 F2700.000
G1 X110.661 Y44.086 E2.42598
G1 X111.455 Y47.162 E2.45808
G1 X111.455 Y77.162 E2.76118
G1 X111.058 Y79.373 E2.78387
G1 X109.917 Y81.308 E2.80657
G1 X108.174 Y82.725 E2.82926
G1 X105.098 Y83.519 E2.86136
G1 X75.098 Y83.519 E3.16446
G1 X72.887 Y83.122 E3.18716
G1 X70.952 Y81.981 E3.20985
G1 X69.535 Y80.239 E3.23255
G1 X68.741 Y77.162 E3.26465
G1 X68.741 Y47.162 E3.56775
G1 X69.137 Y44.951 E3.59044
G1 X70.240 Y43.081 E3.61238
G1 E1.61238 F2400.000
G92 E0
G1 Z0.500 F5400.000
G1 X84.451 Y76.248 F5400.000
G1 Z0.200 F5400.000
G1 E2.00000 F2400.000
G1 X76.012 Y76.248 E2.08527 F2700.000
G1 X76.012 Y48.076 E2.36989
G1 X104.183 Y48.076 E2.65452
G1 X104.183 Y76.248 E2.93915
G1 X84.526 Y76.248 E3.13775 F2700.000
G1 X84.526 Y76.605 F5400.000
G1 X75.655 Y76.605 E3.22738 F2700.000
G1 X75.655 Y47.719 E3.51922
G1 X104.541 Y47.719 E3.81106 F2700.000
G1 X104.541 Y76.605 E4.10291
G1 X84.601 Y76.605 E4.30436
G1 X84.601 Y76.962 F5400.000
G1 X75.298 Y76.962 E4.39836 F1890.000
G1 X75.298 Y47.362 E4.69741
G1 X104.898 Y47.362 E4.99647
G1 X104.898 Y76.962 E5.29553
G1 X84.676 Y76.962 E5.49983 F1890.000
G1 X104.898 Y76.462 F5400.000
G1 X76.251 Y75.969 F5400.000
G1 X76.291 Y76.009 E5.50040 F2700.000
G1 X76.798 Y76.009 E5.50553
G1 X76.251 Y75.462 E5.51335
G1 X76.251 Y74.954 E5.51848
G1 X77.305 Y76.009 E5.53355
G1 X77.813 Y76.009 E5.53867
G1 X76.251 Y74.447 E5.56100
G1 X76.251 Y73.939 E5.56612
G1 X78.320 Y76.009 E5.59569
G1 X78.828 Y76.009 E5.60082
G1 X76.251 Y73.432 E5.63764
G1 X76.251 Y72.925 E5.64277
G1 X79.335 Y76.009 E5.68684
G1 X79.843 Y76.009 E5.69197
G1 X76.251 Y72.417 E5.74329
G1 X76.251 Y71.910 E5.74842
G1 X80.350 Y76.009 E5.80699
G1 X80.857 Y76.009 E5.81211
G1 X76.251 Y71.402 E5.87793
G1 X76.251 Y70.895 E5.88306
G1 X81.365 Y76.009 E5.95613
G1 X81.872 Y76.009 E5.96126
G1 X76.251 Y70.388 E6.04158
G1 X76.251 Y69.880 E6.04671
G1 X82.380 Y76.009 E6.13428
G1 X82.887 Y76.009 E6.13941
G1 X76.251 Y69.373 E6.23423
G1 X76.251 Y68.865 E6.23935
G1 X83.394 Y76.009 E6.34143
G1 X83.902 Y76.009 E6.34655
G1 X76.251 Y68.358 E6.45587
G1 X76.251 Y67.851 E6.46100
G1 X84.409 Y76.009 E6.57757
G1 X84.917 Y76.009 E6.58270
G1 X76.251 Y67.343 E6.70652
G1 X76.251 Y66.836 E6.71165
G1 X85.424 Y76.009 E6.84272
G1 X85.931 Y76.009 E6.84784
G1 X76.251 Y66.328 E6.98617
G1 X76.251 Y65.821 E6.99129
G1 X86.439 Y76.009 E7.13686
G1 X86.946 Y76.009 E7.14199
G1 X76.251 Y65.313 E7.29481
G1 X76.251 Y64.806 E7.29994
G1 X87.454 Y76.009 E7.46001
G1 X87.961 Y76.009 E7.46514
G1 X76.251 Y64.299 E7.63246
G1 X76.251 Y63.791 E7.63759
G1 X88.469 Y76.009 E7.81216
G1 X88.976 Y76.009 E7.81728
G1 X76.251 Y63.284 E7.99911
G1 X76.251 Y62.776 E8.00423
G1 X89.483 Y76.009 E8.19330
G1 X89.991 Y76.009 E8.19843
G1 X76.251 Y62.269 E8.39475
G1 X76.251 Y61.762 E8.39988
G1 X90.498 Y76.009 E8.60345
G1 X91.006 Y76.009 E8.60858
G1 X76.251 Y61.254 E8.81940
G1 X76.251 Y60.747 E8.82453
G1 X91.513 Y76.009 E9.04260
G1 X92.020 Y76.009 E9.04772
G1 X76.251 Y60.239 E9.27305
G1 X76.251 Y59.732 E9.27817
G1 X92.528 Y76.009 E9.51074
G1 X93.035 Y76.009 E9.51587
G1 X76.251 Y59.225 E9.75569
G1 X76.251 Y58.717 E9.76082
G1 X93.543 Y76.009 E10.00789
G1 X94.050 Y76.009 E10.01302
G1 X76.251 Y58.210 E10.26734
G1 X76.251 Y57.702 E10.27247
G1 X94.557 Y76.009 E10.53404
G1 X95.065 Y76.009 E10.53916
G1 X76.251 Y57.195 E10.80799
G1 X76.251 Y56.687 E10.81311
G1 X95.572 Y76.009 E11.08918
G1 X96.080 Y76.009 E11.09431
G1 X76.251 Y56.180 E11.37763
G1 X76.251 Y55.673 E11.38276
G1 X96.587 Y76.009 E11.67333
G1 X97.095 Y76.009 E11.67846
G1 X76.251 Y55.165 E11.97628
G1 X76.251 Y54.658 E11.98141
G1 X97.602 Y76.009 E12.28648
G1 X98.109 Y76.009 E12.29160
G1 X76.251 Y54.150 E12.60393
G1 X76.251 Y53.643 E12.60905
G1 X98.617 Y76.009 E12.92863
G1 X99.124 Y76.009 E12.93375
G1 X76.251 Y53.136 E13.26057
G1 X76.251 Y52.628 E13.26570
G1 X99.632 Y76.009 E13.59977
G1 X100.139 Y76.009 E13.60490
G1 X76.251 Y52.121 E13.94622
G1 X76.251 Y51.613 E13.95135
G1 X100.646 Y76.009 E14.29992
G1 X101.154 Y76.009 E14.30505
G1 X76.251 Y51.106 E14.66087
G1 X76.251 Y50.599 E14.66599
G1 X101.661 Y76.009 E15.02907
G1 X102.169 Y76.009 E15.03419
G1 X76.251 Y50.091 E15.40451
G1 X76.251 Y49.584 E15.40964
G1 X102.676 Y76.009 E15.78721
G1 X103.183 Y76.009 E15.79234
G1 X76.251 Y49.076 E16.17716
G1 X76.251 Y48.569 E16.18229
G1 X103.691 Y76.009 E16.57436
G1 X103.945 Y75.755 E16.57799
G1 X76.504 Y48.315 E16.97006
G1 X77.012 Y48.315 E16.97518
G1 X103.945 Y75.248 E17.36001
G1 X103.945 Y74.741 E17.36513
G1 X77.519 Y48.315 E17.74270
G1 X78.027 Y48.315 E17.74783
G1 X103.945 Y74.233 E18.11815
G1 X103.945 Y73.726 E18.12328
G1 X78.534 Y48.315 E18.48635
G1 X79.041 Y48.315 E18.49148
G1 X103.945 Y73.218 E18.84730
G1 X103.945 Y72.711 E18.85243
G1 X79.549 Y48.315 E19.20100
G1 X80.056 Y48.315 E19.20612
G1 X103.945 Y72.204 E19.54745
G1 X103.945 Y71.696 E19.55257
G1 X80.564 Y48.315 E19.88665
G1 X81.071 Y48.315 E19.89177
G1 X103.945 Y71.189 E20.21859
G1 X103.945 Y70.681 E20.22372
G1 X81.578 Y48.315 E20.54329
G1 X82.086 Y48.315 E20.54842
G1 X103.945 Y70.174 E20.86074
G1 X103.945 Y69.666 E20.86587
G1 X82.593 Y48.315 E21.17094
G1 X83.101 Y48.315 E21.17607
G1 X103.945 Y69.159 E21.47389
G1 X103.945 Y68.652 E21.47901
G1 X83.608 Y48.315 E21.76959
G1 X84.116 Y48.315 E21.77471
G1 X103.945 Y68.144 E22.05803
G1 X103.945 Y67.637 E22.06316
G1 X84.623 Y48.315 E22.33923
G1 X85.130 Y48.315 E22.34436
G1 X103.945 Y67.129 E22.61318
G1 X103.945 Y66.622 E22.61831
G1 X85.638 Y48.315 E22.87988
G1 X86.145 Y48.315 E22.88501
G1 X103.945 Y66.115 E23.13933
G1 X103.945 Y65.607 E23.14445
G1 X86.653 Y48.315 E23.39153
G1 X87.160 Y48.315 E23.39665
G1 X103.945 Y65.100 E23.63647
G1 X103.945 Y64.592 E23.64160
G1 X87.667 Y48.315 E23.87417
G1 X88.175 Y48.315 E23.87930
G1 X103.945 Y64.085 E24.10462
G1 X103.945 Y63.578 E24.10975
G1 X88.682 Y48.315 E24.32782
G1 X89.190 Y48.315 E24.33295
G1 X103.945 Y63.070 E24.54377
G1 X103.945 Y62.563 E24.54889
G1 X89.697 Y48.315 E24.75247
G1 X90.204 Y48.315 E24.75759
G1 X103.945 Y62.055 E24.95391
G1 X103.945 Y61.548 E24.95904
G1 X90.712 Y48.315 E25.14811
G1 X91.219 Y48.315 E25.15324
G1 X103.945 Y61.040 E25.33506
G1 X103.945 Y60.533 E25.34019
G1 X91.727 Y48.315 E25.51476
G1 X92.234 Y48.315 E25.51989
G1 X103.945 Y60.026 E25.68721
G1 X103.945 Y59.518 E25.69233
G1 X92.742 Y48.315 E25.85241
G1 X93.249 Y48.315 E25.85753
G1 X103.945 Y59.011 E26.01035
G1 X103.945 Y58.503 E26.01548
G1 X93.756 Y48.315 E26.16105
G1 X94.264 Y48.315 E26.16618
G1 X103.945 Y57.996 E26.30450
G1 X103.945 Y57.489 E26.30963
G1 X94.771 Y48.315 E26.44070
G1 X95.279 Y48.315 E26.44583
G1 X103.945 Y56.981 E26.56965
G1 X103.945 Y56.474 E26.57477
G1 X95.786 Y48.315 E26.69135
G1 X96.293 Y48.315 E26.69647
G1 X103.945 Y55.966 E26.80579
G1 X103.945 Y55.459 E26.81092
G1 X96.801 Y48.315 E26.91299
G1 X97.308 Y48.315 E26.91812
G1 X103.945 Y54.952 E27.01294
G1 X103.945 Y54.444 E27.01807
G1 X97.816 Y48.315 E27.10564
G1 X98.323 Y48.315 E27.11076
G1 X103.945 Y53.937 E27.19109
G1 X103.945 Y53.429 E27.19621
G1 X98.830 Y48.315 E27.26928
G1 X99.338 Y48.315 E27.27441
G1 X103.945 Y52.922 E27.34023
G1 X103.945 Y52.414 E27.34536
G1 X99.845 Y48.315 E27.40393
G1 X100.353 Y48.315 E27.40906
G1 X103.945 Y51.907 E27.46038
G1 X103.945 Y51.400 E27.46551
G1 X100.860 Y48.315 E27.50958
G1 X101.368 Y48.315 E27.51470
G1 X103.945 Y50.892 E27.55152
G1 X103.945 Y50.385 E27.55665
G1 X101.875 Y48.315 E27.58622
G1 X102.382 Y48.315 E27.59135
G1 X103.945 Y49.877 E27.61367
G1 X103.945 Y49.370 E27.61880
G1 X102.890 Y48.315 E27.63387
G1 X103.397 Y48.315 E27.63900
G1 X103.945 Y48.863 E27.64682
G1 X103.945 Y48.355 E27.65194
G1 X103.905 Y48.315 E27.65252
G1 E25.65252 F2400.000
G92 E0
G1 Z0.500 F5400.000
G1 X103.408 Y66.471 F5400.000
G1 Z0.400 F5400.000
G1 E2.00000 F2400.000
G1 X103.408 Y75.473 E2.20558 F3600.000
G1 X76.787 Y75.473 E2.81350 F3600.000
G1 X76.787 Y48.851 E3.42142
G1 X103.408 Y48.851 E4.02935
G1 X103.408 Y66.396 E4.42998
G1 X104.216 Y66.396 F5400.000
G1 X104.216 Y76.280 E4.65570 F3600.000
G1 X75.980 Y76.280 E5.30049
G1 X75.980 Y48.044 E5.94527
G1 X104.216 Y48.044 E6.59006 F3600.000
G1 X104.216 Y66.321 E7.00741
G1 X104.848 Y66.321 F5400.000
G1 X104.848 Y76.912 E7.14439 F2520.000
G1 X75.348 Y76.912 E7.52590 F2520.000
G1 X75.348 Y47.412 E7.90742
G1 X104.848 Y47.412 E8.28893
G1 X104.848 Y66.246 E8.53250
G1 X104.415 Y76.662 F5400.000
G1 X102.804 Y74.829 F5400.000
G1 X102.764 Y74.869 E8.53379 F3600.000
G1 X101.611 Y74.869 E8.56013
G1 X102.804 Y73.675 E8.59867
G1 X102.804 Y72.522 E8.62500
G1 X100.457 Y74.869 E8.70079
G1 X99.304 Y74.869 E8.72712
G1 X102.804 Y71.369 E8.84015
G1 X102.804 Y70.215 E8.86649
G1 X98.151 Y74.869 E9.01676
G1 X96.997 Y74.869 E9.04310
G1 X102.804 Y69.062 E9.23062
G1 X102.804 Y67.909 E9.25696
G1 X95.844 Y74.869 E9.48172
G1 X94.691 Y74.869 E9.50806
G1 X102.804 Y66.755 E9.77007
G1 X102.804 Y65.602 E9.79641
G1 X93.538 Y74.869 E10.09566
G1 X92.384 Y74.869 E10.12200
G1 X102.804 Y64.449 E10.45850
G1 X102.804 Y63.295 E10.48484
G1 X91.231 Y74.869 E10.85859
G1 X90.078 Y74.869 E10.88492
G1 X102.804 Y62.142 E11.29592
G1 X102.804 Y60.989 E11.32225
G1 X88.924 Y74.869 E11.77049
G1 X87.771 Y74.869 E11.79683
G1 X102.804 Y59.836 E12.28232
G1 X102.804 Y58.682 E12.30865
G1 X86.618 Y74.869 E12.83138
G1 X85.464 Y74.869 E12.85772
G1 X102.804 Y57.529 E13.41770
G1 X102.804 Y56.376 E13.44403
G1 X84.311 Y74.869 E14.04126
G1 X83.158 Y74.869 E14.06759
G1 X102.804 Y55.222 E14.70206
G1 X102.804 Y54.069 E14.72840
G1 X82.004 Y74.869 E15.40011
G1 X80.851 Y74.869 E15.42645
G1 X102.804 Y52.916 E16.13541
G1 X102.804 Y51.762 E16.16174
G1 X79.698 Y74.869 E16.90795
G1 X78.544 Y74.869 E16.93429
G1 X102.804 Y50.609 E17.71774
G1 X102.784 Y49.476 E17.74362
G1 X77.411 Y74.849 E18.56302
G1 X77.391 Y73.715 E18.58891
G1 X101.651 Y49.456 E19.37236
G1 X100.497 Y49.456 E19.39870
G1 X77.391 Y72.562 E20.14490
G1 X77.391 Y71.409 E20.17124
G1 X99.344 Y49.456 E20.88020
G1 X98.191 Y49.456 E20.90653
G1 X77.391 Y70.255 E21.57825
G1 X77.391 Y69.102 E21.60458
G1 X97.037 Y49.456 E22.23905
G1 X95.884 Y49.456 E22.26539
G1 X77.391 Y67.949 E22.86261
G1 X77.391 Y66.795 E22.88895
G1 X94.731 Y49.456 E23.44892
G1 X93.578 Y49.456 E23.47526
G1 X77.391 Y65.642 E23.99799
G1 X77.391 Y64.489 E24.02433
G1 X92.424 Y49.456 E24.50981
G1 X91.271 Y49.456 E24.53615
G1 X77.391 Y63.335 E24.98439
G1 X77.391 Y62.182 E25.01073
G1 X90.118 Y49.456 E25.42172
G1 X88.964 Y49.456 E25.44806
G1 X77.391 Y61.029 E25.82181
G1 X77.391 Y59.876 E25.84814
G1 X87.811 Y49.456 E26.18465
G1 X86.658 Y49.456 E26.21098
G1 X77.391 Y58.722 E26.51024
G1 X77.391 Y57.569 E26.53658
G1 X85.504 Y49.456 E26.79859
G1 X84.351 Y49.456 E26.82492
G1 X77.391 Y56.416 E27.04969
G1 X77.391 Y55.262 E27.07603
G1 X83.198 Y49.456 E27.26355
G1 X82.044 Y49.456 E27.28988
G1 X77.391 Y54.109 E27.44016
G1 X77.391 Y52.956 E27.46649
G1 X80.891 Y49.456 E27.57952
G1 X79.738 Y49.456 E27.60586
G1 X77.391 Y51.802 E27.68164
G1 X77.391 Y50.649 E27.70798
G1 X78.584 Y49.456 E27.74652
G1 X77.431 Y49.456 E27.77285
G1 X77.391 Y49.496 E27.77414
M106 S178
G1 E25.77414 F2400.000
G92 E0
G1 Z0.700 F5400.000
G1 X76.787 Y65.592 F5400.000
G1 Z0.600 F5400.000
G1 E2.00000 F2400.000
G1 X76.787 Y48.851 E2.38228 F3600.000
G1 X103.408 Y48.851 E2.99020
G1 X103.408 Y75.473 E3.59813
G1 X76.787 Y75.473 E4.20605 F3600.000
G1 X76.787 Y65.667 E4.42998
G1 X75.980 Y65.667 F5400.000
G1 X75.980 Y48.044 E4.83240 F3600.000
G1 X104.216 Y48.044 E5.47719 F3600.000
G1 X104.216 Y76.280 E6.12197
G1 X75.980 Y76.280 E6.76676
G1 X75.980 Y65.742 E7.00741
G1 X75.348 Y65.742 F5400.000
G1 X75.348 Y47.412 E7.24446 F2520.000
G1 X104.848 Y47.412 E7.62598
G1 X104.848 Y76.912 E8.00749
G1 X75.348 Y76.912 E8.38900 F2520.000
G1 X75.348 Y65.817 E8.53250
G1 X105.098 Y76.479 F5400.000
G1 X77.431 Y74.869 F5400.000
G1 X77.391 Y74.829 E8.53379 F3600.000
G1 X77.391 Y73.675 E8.56013
G1 X78.584 Y74.869 E8.59867
G1 X79.738 Y74.869 E8.62500
G1 X77.391 Y72.522 E8.70079
G1 X77.391 Y71.369 E8.72712
G1 X80.891 Y74.869 E8.84015
G1 X82.044 Y74.869 E8.86649
G1 X77.391 Y70.215 E9.01676
G1 X77.391 Y69.062 E9.04310
G1 X83.198 Y74.869 E9.23062
G1 X84.351 Y74.869 E9.25696
G1 X77.391 Y67.909 E9.48172
G1 X77.391 Y66.755 E9.50806
G1 X85.504 Y74.869 E9.77007
G1 X86.658 Y74.869 E9.79641
G1 X77.391 Y65.602 E10.09566
G1 X77.391 Y64.449 E10.12200
G1 X87.811 Y74.869 E10.45850
G1 X88.964 Y74.869 E10.48484
G1 X77.391 Y63.295 E10.85859
G1 X77.391 Y62.142 E10.88492
G1 X90.118 Y74.869 E11.29592
G1 X91.271 Y74.869 E11.32225
G1 X77.391 Y60.989 E11.77049
G1 X77.391 Y59.836 E11.79683
G1 X92.424 Y74.869 E12.28232
G1 X93.578 Y74.869 E12.30865
G1 X77.391 Y58.682 E12.83138
G1 X77.391 Y57.529 E12.85772
G1 X94.731 Y74.869 E13.41770
G1 X95.884 Y74.869 E13.44403
G1 X77.391 Y56.376 E14.04126
G1 X77.391 Y55.222 E14.06759
G1 X97.037 Y74.869 E14.70206
G1 X98.191 Y74.869 E14.72840
G1 X77.391 Y54.069 E15.40011
G1 X77.391 Y52.916 E15.42645
G1 X99.344 Y74.869 E16.13541
G1 X100.497 Y74.869 E16.16174
G1 X77.391 Y51.762 E16.90795
G1 X77.391 Y50.609 E16.93429
G1 X101.651 Y74.869 E17.71774
G1 X102.784 Y74.849 E17.74362
G1 X77.411 Y49.476 E18.56302
G1 X78.544 Y49.456 E18.58891
G1 X102.804 Y73.715 E19.37236
G1 X102.804 Y72.562 E19.39870
G1 X79.698 Y49.456 E20.14490
G1 X80.851 Y49.456 E20.17124
G1 X102.804 Y71.409 E20.88020
G1 X102.804 Y70.255 E20.90653
G1 X82.004 Y49.456 E21.57825
G1 X83.158 Y49.456 E21.60458
G1 X102.804 Y69.102 E22.23905
G1 X102.804 Y67.949 E22.26539
G1 X84.311 Y49.456 E22.86261
G1 X85.464 Y49.456 E22.88895
G1 X102.804 Y66.795 E23.44892
G1 X102.804 Y65.642 E23.47526
G1 X86.618 Y49.456 E23.99799
G1 X87.771 Y49.456 E24.02433
G1 X102.804 Y64.489 E24.50981
G1 X102.804 Y63.335 E24.53615
G1 X88.924 Y49.456 E24.98439
G1 X90.078 Y49.456 E25.01073
G1 X102.804 Y62.182 E25.42172
G1 X102.804 Y61.029 E25.44806
G1 X91.231 Y49.456 E25.82181
G1 X92.384 Y49.456 E25.84814
G1 X102.804 Y59.876 E26.18464
G1 X102.804 Y58.722 E26.21098
G1 X93.538 Y49.456 E26.51024
G1 X94.691 Y49.456 E26.53657
G1 X102.804 Y57.569 E26.79859
G1 X102.804 Y56.416 E26.82492
G1 X95.844 Y49.456 E27.04969
G1 X96.997 Y49.456 E27.07603
G1 X102.804 Y55.262 E27.26355
G1 X102.804 Y54.109 E27.28988
G1 X98.151 Y49.456 E27.44016
G1 X99.304 Y49.456 E27.46649
G1 X102.804 Y52.956 E27.57952
G1 X102.804 Y51.802 E27.60586
G1 X100.457 Y49.456 E27.68164
G1 X101.611 Y49.456 E27.70798
G1 X102.804 Y50.649 E27.74652
G1 X102.804 Y49.496 E27.77285
G1 X102.764 Y49.456 E27.77414
M106 S191
G1 E25.77414 F2400.000
G92 E0
G1 Z0.900 F5400.000
G1 X91.435 Y75.473 F5400.000
G1 Z0.800 F5400.000
G1 E2.00000 F2400.000
G1 X76.787 Y75.473 E2.33451 F2337.144
G1 X76.787 Y48.851 E2.94243
G1 X103.408 Y48.851 E3.55036
G1 X103.408 Y75.473 E4.15828
G1 X91.510 Y75.473 E4.42998 F2337.144
G1 X91.510 Y76.280 F5400.000
G1 X75.980 Y76.280 E4.78464 F2337.144
G1 X75.980 Y48.044 E5.42942
G1 X104.216 Y48.044 E6.07421 F2337.144
G1 X104.216 Y76.280 E6.71899
G1 X91.585 Y76.280 E7.00741
G1 X91.585 Y76.912 F5400.000
G1 X75.348 Y76.912 E7.21741 F1636.001
G1 X75.348 Y47.412 E7.59892
G1 X104.848 Y47.412 E7.98044
G1 X104.848 Y76.912 E8.36195
G1 X91.660 Y76.912 E8.53250 F1636.001
G1 X104.848 Y76.412 F5400.000
G1 X102.784 Y69.097 F5400.000
G1 X99.913 Y68.328 E8.61507 F2337.144
G1 X95.504 Y72.737 E8.78826
G1 X96.070 Y74.849 E8.84899
G1 X86.450 Y74.849 E9.11621
G1 X90.430 Y70.869 E9.27254
G1 X94.810 Y72.043 E9.39850
G1 X99.219 Y67.634 E9.57169
G1 X98.045 Y63.254 E9.69765
G1 X102.454 Y58.845 E9.87084
