; generated by Slic3r 1.2.1-dev on 2014-11-12 at 19:43:03

; external perimeters extrusion width = 0.50mm
; perimeters extrusion width = 0.85mm
; infill extrusion width = 1.02mm
; solid infill extrusion width = 0.85mm
; top infill extrusion width = 0.85mm

M190 S30 ; wait for bed temperature to be reached
M104 S220 ; set temperature
G28 ; home all axes
M109 S220 ; wait for temperature to be reached
G21 ; set units to millimeters
G90 ; use absolute coordinates
M82 ; use absolute distances for extrusion
G92 E0
M106 S89
G1 E-2.00000 F2400.000
G92 E0
G1 Z0.300 F5400.000
G1 X70.278 Y43.016 F5400.000
G1 Z0.200 F5400.000
G1 E2.00000 F2400.000
G1 X72.021 Y41.599 E2.02429 F2700.000
G1 X75.098 Y40.805 E2.05864
G1 X105.098 Y40.805 E2.38300
G1 X107.309 Y41.202 E2.40729
G1 X109.243 Y42.343 E2.43158 F2700.000
G1 X110.661 Y44.086 E2.45586
G1 X111.455 Y47.162 E2.49022
G1 X111.455 Y77.162 E2.81458
G1 X111.058 Y79.373 E2.83887
G1 X109.917 Y81.308 E2.86315
G1 X108.174 Y82.725 E2.88744
G1 X105.098 Y83.519 E2.92179
G1 X75.098 Y83.519 E3.24615
G1 X72.887 Y83.122 E3.27044
G1 X70.952 Y81.981 E3.29473
G1 X69.535 Y80.239 E3.31901
G1 X68.741 Y77.162 E3.35337
G1 X68.741 Y47.162 E3.67773
G1 X69.137 Y44.951 E3.70202
G1 X70.240 Y43.081 E3.72549
G1 E1.72549 F2400.000
G92 E0
G1 Z0.500 F5400.000
G1 X104.183 Y57.297 F5400.000
G1 Z0.200 F5400.000
G1 E2.00000 F2400.000
G1 X104.183 Y76.248 E2.20489 F2700.000
G1 X76.012 Y76.248 E2.50949 F2700.000
G1 X76.012 Y48.076 E2.81408
G1 X104.183 Y48.076 E3.11868
G1 X104.183 Y57.222 E3.21757
G1 X104.541 Y57.222 F5400.000
G1 X104.541 Y76.605 E3.42713 F2700.000
G1 X75.655 Y76.605 E3.73945
G1 X75.655 Y47.719 E4.05177
G1 X104.541 Y47.719 E4.36408 F2700.000
G1 X104.541 Y57.147 E4.46602
G1 X104.898 Y57.147 F5400.000
G1 X104.898 Y76.962 E4.68026 F1890.000
G1 X75.298 Y76.962 E5.00030 F1890.000
G1 X75.298 Y47.362 E5.32033
G1 X104.898 Y47.362 E5.64037
G1 X104.898 Y57.072 E5.74536
G1 X104.465 Y76.712 F5400.000
G1 X103.905 Y48.315 F5400.000
G1 X103.945 Y48.355 E5.74597 F2700.000
G1 X103.945 Y48.863 E5.75146
G1 X103.397 Y48.315 E5.75983
G1 X102.890 Y48.315 E5.76531
G1 X103.945 Y49.370 E5.78144
G1 X103.945 Y49.877 E5.78693
G1 X102.382 Y48.315 E5.81082
G1 X101.875 Y48.315 E5.81630
G1 X103.945 Y50.385 E5.84795
G1 X103.945 Y50.892 E5.85343
G1 X101.368 Y48.315 E5.89284
G1 X100.860 Y48.315 E5.89833
G1 X103.945 Y51.400 E5.94549
G1 X103.945 Y51.907 E5.95098
G1 X100.353 Y48.315 E6.00590
G1 X99.845 Y48.315 E6.01138
G1 X103.945 Y52.414 E6.07406
G1 X103.945 Y52.922 E6.07955
G1 X99.338 Y48.315 E6.14999
G1 X98.830 Y48.315 E6.15548
G1 X103.945 Y53.429 E6.23367
G1 X103.945 Y53.937 E6.23916
G1 X98.323 Y48.315 E6.32512
G1 X97.816 Y48.315 E6.33060
G1 X103.945 Y54.444 E6.42432
G1 X103.945 Y54.952 E6.42980
G1 X97.308 Y48.315 E6.53128
G1 X96.801 Y48.315 E6.53676
G1 X103.945 Y55.459 E6.64600
G1 X103.945 Y55.966 E6.65148
G1 X96.293 Y48.315 E6.76847
G1 X95.786 Y48.315 E6.77396
G1 X103.945 Y56.474 E6.89871
G1 X103.945 Y56.981 E6.90420
G1 X95.279 Y48.315 E7.03670
G1 X94.771 Y48.315 E7.04219
G1 X103.945 Y57.489 E7.18246
G1 X103.945 Y57.996 E7.18794
G1 X94.264 Y48.315 E7.33597
G1 X93.756 Y48.315 E7.34146
G1 X103.945 Y58.503 E7.49724
G1 X103.945 Y59.011 E7.50273
G1 X93.249 Y48.315 E7.66627
G1 X92.742 Y48.315 E7.67176
G1 X103.945 Y59.518 E7.84306
G1 X103.945 Y60.026 E7.84854
G1 X92.234 Y48.315 E8.02760
G1 X91.727 Y48.315 E8.03309
G1 X103.945 Y60.533 E8.21991
G1 X103.945 Y61.040 E8.22539
G1 X91.219 Y48.315 E8.41997
G1 X90.712 Y48.315 E8.42546
G1 X103.945 Y61.548 E8.62779
G1 X103.945 Y62.055 E8.63328
G1 X90.204 Y48.315 E8.84337
G1 X89.697 Y48.315 E8.84886
G1 X103.945 Y62.563 E9.06671
G1 X103.945 Y63.070 E9.07220
G1 X89.190 Y48.315 E9.29781
G1 X88.682 Y48.315 E9.30330
G1 X103.945 Y63.578 E9.53667
G1 X103.945 Y64.085 E9.54215
G1 X88.175 Y48.315 E9.78328
G1 X87.667 Y48.315 E9.78877
G1 X103.945 Y64.592 E10.03766
G1 X103.945 Y65.100 E10.04314
G1 X87.160 Y48.315 E10.29979
G1 X86.653 Y48.315 E10.30528
G1 X103.945 Y65.607 E10.56968
G1 X103.945 Y66.115 E10.57517
G1 X86.145 Y48.315 E10.84733
G1 X85.638 Y48.315 E10.85282
G1 X103.945 Y66.622 E11.13274
G1 X103.945 Y67.129 E11.13823
G1 X85.130 Y48.315 E11.42591
G1 X84.623 Y48.315 E11.43139
G1 X103.945 Y67.637 E11.72683
G1 X103.945 Y68.144 E11.73232
G1 X84.116 Y48.315 E12.03552
G1 X83.608 Y48.315 E12.04100
G1 X103.945 Y68.652 E12.35196
G1 X103.945 Y69.159 E12.35745
G1 X83.101 Y48.315 E12.67616
G1 X82.593 Y48.315 E12.68165
G1 X103.945 Y69.666 E13.00812
G1 X103.945 Y70.174 E13.01361
G1 X82.086 Y48.315 E13.34784
G1 X81.578 Y48.315 E13.35333
G1 X103.945 Y70.681 E13.69532
G1 X103.945 Y71.189 E13.70080
G1 X81.071 Y48.315 E14.05055
G1 X80.564 Y48.315 E14.05604
G1 X103.945 Y71.696 E14.41355
G1 X103.945 Y72.204 E14.41904
G1 X80.056 Y48.315 E14.78430
G1 X79.549 Y48.315 E14.78979
G1 X103.945 Y72.711 E15.16282
G1 X103.945 Y73.218 E15.16830
G1 X79.041 Y48.315 E15.54909
G1 X78.534 Y48.315 E15.55457
G1 X103.945 Y73.726 E15.94312
G1 X103.945 Y74.233 E15.94860
G1 X78.027 Y48.315 E16.34490
G1 X77.519 Y48.315 E16.35039
G1 X103.945 Y74.741 E16.75445
G1 X103.945 Y75.248 E16.75994
G1 X77.012 Y48.315 E17.17175
G1 X76.504 Y48.315 E17.17724
G1 X103.945 Y75.755 E17.59682
G1 X103.691 Y76.009 E17.60070
G1 X76.251 Y48.569 E18.02028
G1 X76.251 Y49.076 E18.02576
G1 X103.183 Y76.009 E18.43758
G1 X102.676 Y76.009 E18.44307
G1 X76.251 Y49.584 E18.84713
G1 X76.251 Y50.091 E18.85261
G1 X102.169 Y76.009 E19.24892
G1 X101.661 Y76.009 E19.25440
G1 X76.251 Y50.599 E19.64294
G1 X76.251 Y51.106 E19.64843
G1 X101.154 Y76.009 E20.02922
G1 X100.646 Y76.009 E20.03470
G1 X76.251 Y51.613 E20.40773
G1 X76.251 Y52.121 E20.41321
G1 X100.139 Y76.009 E20.77848
G1 X99.632 Y76.009 E20.78397
G1 X76.251 Y52.628 E21.14148
G1 X76.251 Y53.136 E21.14696
G1 X99.124 Y76.009 E21.49671
G1 X98.617 Y76.009 E21.50220
G1 X76.251 Y53.643 E21.84419
G1 X76.251 Y54.150 E21.84968
G1 X98.109 Y76.009 E22.18391
G1 X97.602 Y76.009 E22.18939
G1 X76.251 Y54.658 E22.51587
G1 X76.251 Y55.165 E22.52135
G1 X97.095 Y76.009 E22.84007
G1 X96.587 Y76.009 E22.84556
G1 X76.251 Y55.673 E23.15651
G1 X76.251 Y56.180 E23.16200
G1 X96.080 Y76.009 E23.46520
G1 X95.572 Y76.009 E23.47068
G1 X76.251 Y56.687 E23.76612
G1 X76.251 Y57.195 E23.77161
G1 X95.065 Y76.009 E24.05929
G1 X94.557 Y76.009 E24.06478
G1 X76.251 Y57.702 E24.34470
G1 X76.251 Y58.210 E24.35019
G1 X94.050 Y76.009 E24.62235
G1 X93.543 Y76.009 E24.62783
G1 X76.251 Y58.717 E24.89224
G1 X76.251 Y59.225 E24.89773
G1 X93.035 Y76.009 E25.15437
G1 X92.528 Y76.009 E25.15986
G1 X76.251 Y59.732 E25.40875
G1 X76.251 Y60.239 E25.41423
G1 X92.020 Y76.009 E25.65536
G1 X91.513 Y76.009 E25.66085
G1 X76.251 Y60.747 E25.89422
G1 X76.251 Y61.254 E25.89970
G1 X91.006 Y76.009 E26.12532
G1 X90.498 Y76.009 E26.13080
G1 X76.251 Y61.762 E26.34866
G1 X76.251 Y62.269 E26.35414
G1 X89.991 Y76.009 E26.56424
G1 X89.483 Y76.009 E26.56972
G1 X76.251 Y62.776 E26.77206
G1 X76.251 Y63.284 E26.77755
G1 X88.976 Y76.009 E26.97212
G1 X88.469 Y76.009 E26.97761
G1 X76.251 Y63.791 E27.16443
G1 X76.251 Y64.299 E27.16991
G1 X87.961 Y76.009 E27.34897
G1 X87.454 Y76.009 E27.35446
G1 X76.251 Y64.806 E27.52576
G1 X76.251 Y65.313 E27.53125
G1 X86.946 Y76.009 E27.69479
G1 X86.439 Y76.009 E27.70028
G1 X76.251 Y65.821 E27.85606
G1 X76.251 Y66.328 E27.86155
G1 X85.931 Y76.009 E28.00957
G1 X85.424 Y76.009 E28.01506
G1 X76.251 Y66.836 E28.15533
G1 X76.251 Y67.343 E28.16081
G1 X84.917 Y76.009 E28.29332
G1 X84.409 Y76.009 E28.29881
G1 X76.251 Y67.851 E28.42356
G1 X76.251 Y68.358 E28.42904
G1 X83.902 Y76.009 E28.54603
G1 X83.394 Y76.009 E28.55152
G1 X76.251 Y68.865 E28.66075
G1 X76.251 Y69.373 E28.66624
G1 X82.887 Y76.009 E28.76771
G1 X82.380 Y76.009 E28.77320
G1 X76.251 Y69.880 E28.86691
G1 X76.251 Y70.388 E28.87240
G1 X81.872 Y76.009 E28.95836
G1 X81.365 Y76.009 E28.96384
G1 X76.251 Y70.895 E29.04204
G1 X76.251 Y71.402 E29.04753
G1 X80.857 Y76.009 E29.11797
G1 X80.350 Y76.009 E29.12345
G1 X76.251 Y71.910 E29.18613
G1 X76.251 Y72.417 E29.19162
G1 X79.843 Y76.009 E29.24654
G1 X79.335 Y76.009 E29.25203
G1 X76.251 Y72.925 E29.29919
G1 X76.251 Y73.432 E29.30468
G1 X78.828 Y76.009 E29.34408
G1 X78.320 Y76.009 E29.34957
G1 X76.251 Y73.939 E29.38121
G1 X76.251 Y74.447 E29.38670
G1 X77.813 Y76.009 E29.41059
G1 X77.305 Y76.009 E29.41607
G1 X76.251 Y74.954 E29.43220
G1 X76.251 Y75.462 E29.43769
G1 X76.798 Y76.009 E29.44606
G1 X76.291 Y76.009 E29.45155
G1 X76.251 Y75.969 E29.45216
M106 S191
G1 E27.45216 F2400.000
G92 E0
G1 Z0.500 F5400.000
G1 X103.408 Y58.259 F5400.000
G1 Z0.400 F5400.000
G1 E2.00000 F2400.000
G1 X103.408 Y75.473 E2.42067 F2460.715
G1 X76.787 Y75.473 E3.07124 F2460.715
G1 X76.787 Y48.851 E3.72181
G1 X103.408 Y48.851 E4.37239
G1 X103.408 Y58.184 E4.60046
G1 X104.216 Y58.184 F5400.000
G1 X104.216 Y76.280 E5.04268 F2460.715
G1 X75.980 Y76.280 E5.73270
G1 X75.980 Y48.044 E6.42272
G1 X104.216 Y48.044 E7.11274 F2460.715
G1 X104.216 Y58.109 E7.35870
G1 X104.848 Y58.109 F5400.000
G1 X104.848 Y76.912 E7.61894 F1722.500
G1 X75.348 Y76.912 E8.02722 F1722.500
G1 X75.348 Y47.412 E8.43550
G1 X104.848 Y47.412 E8.84378
G1 X104.848 Y58.034 E8.99078
G1 X104.415 Y76.662 F5400.000
G1 X102.804 Y74.829 F5400.000
G1 X102.764 Y74.869 E8.99217 F2460.715
G1 X101.611 Y74.869 E9.02035
G1 X102.804 Y73.675 E9.06159
G1 X102.804 Y72.522 E9.08978
G1 X100.457 Y74.869 E9.17088
G1 X99.304 Y74.869 E9.19906
G1 X102.804 Y71.369 E9.32002
G1 X102.804 Y70.215 E9.34820
G1 X98.151 Y74.869 E9.50902
G1 X96.997 Y74.869 E9.53720
G1 X102.804 Y69.062 E9.73788
G1 X102.804 Y67.909 E9.76606
G1 X95.844 Y74.869 E10.00660
G1 X94.691 Y74.869 E10.03478
G1 X102.804 Y66.755 E10.31518
G1 X102.804 Y65.602 E10.34336
G1 X93.538 Y74.869 E10.66361
G1 X92.384 Y74.869 E10.69180
G1 X102.804 Y64.449 E11.05191
G1 X102.804 Y63.295 E11.08009
G1 X91.231 Y74.869 E11.48006
G1 X90.078 Y74.869 E11.50824
G1 X102.804 Y62.142 E11.94807
G1 X102.804 Y60.989 E11.97625
G1 X88.924 Y74.869 E12.45594
G1 X87.771 Y74.869 E12.48412
G1 X102.804 Y59.836 E13.00367
G1 X102.804 Y58.682 E13.03185
G1 X86.618 Y74.869 E13.59126
G1 X85.464 Y74.869 E13.61944
G1 X102.804 Y57.529 E14.21870
G1 X102.804 Y56.376 E14.24689
G1 X84.311 Y74.869 E14.88601
G1 X83.158 Y74.869 E14.91419
G1 X102.804 Y55.222 E15.59317
G1 X102.804 Y54.069 E15.62135
G1 X82.004 Y74.869 E16.34019
G1 X80.851 Y74.869 E16.36837
G1 X102.804 Y52.916 E17.12707
G1 X102.804 Y51.762 E17.15526
G1 X79.698 Y74.869 E17.95381
G1 X78.544 Y74.869 E17.98199
G1 X102.804 Y50.609 E18.82041
G1 X102.784 Y49.476 E18.84811
G1 X77.411 Y74.849 E19.72500
G1 X77.391 Y73.715 E19.75270
G1 X101.651 Y49.456 E20.59111
G1 X100.497 Y49.456 E20.61929
G1 X77.391 Y72.562 E21.41785
G1 X77.391 Y71.409 E21.44603
G1 X99.344 Y49.456 E22.20473
G1 X98.191 Y49.456 E22.23291
G1 X77.391 Y70.255 E22.95175
G1 X77.391 Y69.102 E22.97994
G1 X97.037 Y49.456 E23.65891
G1 X95.884 Y49.456 E23.68710
G1 X77.391 Y67.949 E24.32622
G1 X77.391 Y66.795 E24.35440
G1 X94.731 Y49.456 E24.95366
G1 X93.578 Y49.456 E24.98185
G1 X77.391 Y65.642 E25.54125
G1 X77.391 Y64.489 E25.56944
G1 X92.424 Y49.456 E26.08898
G1 X91.271 Y49.456 E26.11716
G1 X77.391 Y63.335 E26.59685
G1 X77.391 Y62.182 E26.62503
G1 X90.118 Y49.456 E27.06486
G1 X88.964 Y49.456 E27.09305
G1 X77.391 Y61.029 E27.49301
G1 X77.391 Y59.876 E27.52120
G1 X87.811 Y49.456 E27.88131
G1 X86.658 Y49.456 E27.90949
G1 X77.391 Y58.722 E28.22974
G1 X77.391 Y57.569 E28.25793
G1 X85.504 Y49.456 E28.53832
G1 X84.351 Y49.456 E28.56651
G1 X77.391 Y56.416 E28.80704
G1 X77.391 Y55.262 E28.83522
G1 X83.198 Y49.456 E29.03590
G1 X82.044 Y49.456 E29.06408
G1 X77.391 Y54.109 E29.22490
G1 X77.391 Y52.956 E29.25309
G1 X80.891 Y49.456 E29.37404
G1 X79.738 Y49.456 E29.40223
G1 X77.391 Y51.802 E29.48333
G1 X77.391 Y50.649 E29.51151
G1 X78.584 Y49.456 E29.55275
G1 X77.431 Y49.456 E29.58094
G1 X77.391 Y49.496 E29.58232
G1 E27.58232 F2400.000
G92 E0
G1 Z0.700 F5400.000
G1 X103.408 Y64.684 F5400.000
G1 Z0.600 F5400.000
G1 E2.00000 F2400.000
G1 X103.408 Y75.473 E2.26366 F2460.715
G1 X76.787 Y75.473 E2.91424 F2460.715
G1 X76.787 Y48.851 E3.56481
G1 X103.408 Y48.851 E4.21538
G1 X103.408 Y64.609 E4.60046
G1 X104.216 Y64.609 F5400.000
G1 X104.216 Y76.280 E4.88568 F2460.715
G1 X75.980 Y76.280 E5.57570
G1 X75.980 Y48.044 E6.26572
G1 X104.216 Y48.044 E6.95574 F2460.715
G1 X104.216 Y64.534 E7.35870
G1 X104.848 Y64.534 F5400.000
G1 X104.848 Y76.912 E7.53002 F1722.500
G1 X75.348 Y76.912 E7.93830 F1722.500
G1 X75.348 Y47.412 E8.34658
G1 X104.848 Y47.412 E8.75486
G1 X104.848 Y64.459 E8.99078
G1 X104.415 Y76.662 F5400.000
G1 X102.764 Y49.456 F5400.000
G1 X102.804 Y49.496 E8.99217 F2460.715
G1 X102.804 Y50.649 E9.02035
G1 X101.611 Y49.456 E9.06159
G1 X100.457 Y49.456 E9.08978
G1 X102.804 Y51.802 E9.17088
G1 X102.804 Y52.956 E9.19906
G1 X99.304 Y49.456 E9.32002
G1 X98.151 Y49.456 E9.34820
G1 X102.804 Y54.109 E9.50902
G1 X102.804 Y55.262 E9.53720
G1 X96.997 Y49.456 E9.73788
G1 X95.844 Y49.456 E9.76606
G1 X102.804 Y56.416 E10.00660
G1 X102.804 Y57.569 E10.03478
G1 X94.691 Y49.456 E10.31518
G1 X93.538 Y49.456 E10.34336
G1 X102.804 Y58.722 E10.66361
G1 X102.804 Y59.876 E10.69180
G1 X92.384 Y49.456 E11.05191
G1 X91.231 Y49.456 E11.08009
G1 X102.804 Y61.029 E11.48006
G1 X102.804 Y62.182 E11.50824
G1 X90.078 Y49.456 E11.94807
G1 X88.924 Y49.456 E11.97625
G1 X102.804 Y63.335 E12.45594
G1 X102.804 Y64.489 E12.48412
G1 X87.771 Y49.456 E13.00367
G1 X86.618 Y49.456 E13.03185
G1 X102.804 Y65.642 E13.59126
G1 X102.804 Y66.795 E13.61944
G1 X85.464 Y49.456 E14.21870
G1 X84.311 Y49.456 E14.24689
G1 X102.804 Y67.949 E14.88601
G1 X102.804 Y69.102 E14.91419
G1 X83.158 Y49.456 E15.59317
G1 X82.004 Y49.456 E15.62135
G1 X102.804 Y70.255 E16.34019
G1 X102.804 Y71.409 E16.36837
G1 X80.851 Y49.456 E17.12707
G1 X79.698 Y49.456 E17.15526
G1 X102.804 Y72.562 E17.95381
G1 X102.804 Y73.715 E17.98199
G1 X78.544 Y49.456 E18.82041
G1 X77.411 Y49.476 E18.84811
G1 X102.784 Y74.849 E19.72500
G1 X101.651 Y74.869 E19.75270
G1 X77.391 Y50.609 E20.59111
G1 X77.391 Y51.762 E20.61929
G1 X100.497 Y74.869 E21.41785
G1 X99.344 Y74.869 E21.44603
G1 X77.391 Y52.916 E22.20473
G1 X77.391 Y54.069 E22.23291
G1 X98.191 Y74.869 E22.95175
G1 X97.037 Y74.869 E22.97993
G1 X77.391 Y55.222 E23.65891
G1 X77.391 Y56.376 E23.68710
G1 X95.884 Y74.869 E24.32622
G1 X94.731 Y74.869 E24.35440
G1 X77.391 Y57.529 E24.95366
G1 X77.391 Y58.682 E24.98185
G1 X93.578 Y74.869 E25.54125
G1 X92.424 Y74.869 E25.56944
G1 X77.391 Y59.836 E26.08898
G1 X77.391 Y60.989 E26.11716
G1 X91.271 Y74.869 E26.59685
G1 X90.118 Y74.869 E26.62503
G1 X77.391 Y62.142 E27.06486
G1 X77.391 Y63.295 E27.09305
G1 X88.964 Y74.869 E27.49301
G1 X87.811 Y74.869 E27.52120
G1 X77.391 Y64.449 E27.88131
G1 X77.391 Y65.602 E27.90949
G1 X86.658 Y74.869 E28.22974
G1 X85.504 Y74.869 E28.25793
G1 X77.391 Y66.755 E28.53832
G1 X77.391 Y67.909 E28.56651
G1 X84.351 Y74.869 E28.80704
G1 X83.198 Y74.869 E28.83522
G1 X77.391 Y69.062 E29.03590
G1 X77.391 Y70.215 E29.06408
G1 X82.044 Y74.869 E29.22490
G1 X80.891 Y74.869 E29.25308
G1 X77.391 Y71.369 E29.37404
G1 X77.391 Y72.522 E29.40223
G1 X79.738 Y74.869 E29.48333
G1 X78.584 Y74.869 E29.51151
G1 X77.391 Y73.675 E29.55275
G1 X77.391 Y74.829 E29.58094
G1 X77.431 Y74.869 E29.58232
G1 E27.58232 F2400.000
G92 E0
G1 Z0.900 F5400.000
G1 X95.828 Y48.851 F5400.000
G1 Z0.800 F5400.000
G1 E2.00000 F2400.000
G1 X103.408 Y48.851 E2.18525 F1168.572
G1 X103.408 Y75.473 E2.83582
G1 X76.787 Y75.473 E3.48640 F1168.572
G1 X76.787 Y48.851 E4.13697
G1 X95.753 Y48.851 E4.60046
G1 X95.753 Y48.044 F5400.000
G1 X104.216 Y48.044 E4.80727 F1168.572
G1 X104.216 Y76.280 E5.49728
G1 X75.980 Y76.280 E6.18730
G1 X75.980 Y48.044 E6.87732
G1 X95.678 Y48.044 E7.35870 F1168.572
G1 X95.678 Y47.412 F5400.000
G1 X104.848 Y47.412 E7.48561 F818.001
G1 X104.848 Y76.912 E7.89389
G1 X75.348 Y76.912 E8.30217 F818.001
G1 X75.348 Y47.412 E8.71045
G1 X95.603 Y47.412 E8.99078
G1 X104.365 Y76.783 F5400.000
G1 X84.189 Y49.476 F5400.000
G1 X85.335 Y53.750 E9.12232 F1168.572
G1 X80.926 Y58.159 E9.30766
G1 X77.411 Y57.217 E9.41583
G1 X77.411 Y67.381 F5400.000
G1 X78.385 Y67.642 E9.44579 F1168.572
G1 X82.794 Y63.233 E9.63114
G1 X81.620 Y58.853 E9.76593
G1 X86.029 Y54.444 E9.95127
