; generated by Slic3r 1.2.1-dev on 2014-11-12 at 19:42:32

; external perimeters extrusion width = 0.50mm
; perimeters extrusion width = 0.85mm
; infill extrusion width = 1.02mm
; solid infill extrusion width = 0.85mm
; top infill extrusion width = 0.85mm

M190 S70 ; wait for bed temperature to be reached
M104 S250 ; set temperature
G28 ; home all axes
M109 S250 ; wait for temperature to be reached
G21 ; set units to millimeters
G90 ; use absolute coordinates
M82 ; use absolute distances for extrusion
G92 E0
G1 E-2.00000 F2400.000
G92 E0
G1 Z0.300 F5400.000
G1 X70.278 Y43.016 F5400.000
G1 Z0.200 F5400.000
G1 E2.00000 F2400.000
G1 X72.021 Y41.599 E2.02701 F2700.000
G1 X75.098 Y40.805 E2.06521
G1 X105.098 Y40.805 E2.42592
G1 X107.309 Y41.202 E2.45293
G1 X109.243 Y42.343 E2.47994 F2700.000
G1 X110.661 Y44.086 E2.50695
G1 X111.455 Y47.162 E2.54515
G1 X111.455 Y77.162 E2.90586
G1 X111.058 Y79.373 E2.93287
G1 X109.917 Y81.308 E2.95988
G1 X108.174 Y82.725 E2.98689
G1 X105.098 Y83.519 E3.02509
G1 X75.098 Y83.519 E3.38581
G1 X72.887 Y83.122 E3.41281
G1 X70.952 Y81.981 E3.43982
G1 X69.535 Y80.239 E3.46683
G1 X68.741 Y77.162 E3.50503
G1 X68.741 Y47.162 E3.86575
G1 X69.137 Y44.951 E3.89276
G1 X70.240 Y43.081 E3.91886
G1 E1.91886 F2400.000
G92 E0
G1 Z0.500 F5400.000
G1 X104.183 Y58.609 F5400.000
G1 Z0.200 F5400.000
G1 E2.00000 F2400.000
G1 X104.183 Y76.248 E2.21209 F2700.000
G1 X76.012 Y76.248 E2.55082 F2700.000
G1 X76.012 Y48.076 E2.88955
G1 X104.183 Y48.076 E3.22828
G1 X104.183 Y58.534 E3.35401
G1 X104.541 Y58.534 F5400.000
G1 X104.541 Y76.605 E3.57130 F2700.000
G1 X75.655 Y76.605 E3.91862
G1 X75.655 Y47.719 E4.26593
G1 X104.541 Y47.719 E4.61325 F2700.000
G1 X104.541 Y58.459 E4.74238
G1 X104.898 Y58.459 F5400.000
G1 X104.898 Y76.962 E4.96486 F1890.000
G1 X75.298 Y76.962 E5.32076 F1890.000
G1 X75.298 Y47.362 E5.67666
G1 X104.898 Y47.362 E6.03257
G1 X104.898 Y58.384 E6.16509
G1 X104.465 Y76.712 F5400.000
G1 X103.905 Y48.315 F5400.000
G1 X103.945 Y48.355 E6.16577 F2700.000
G1 X103.945 Y48.863 E6.17187
G1 X103.397 Y48.315 E6.18118
G1 X102.890 Y48.315 E6.18728
G1 X103.945 Y49.370 E6.20521
G1 X103.945 Y49.877 E6.21132
G1 X102.382 Y48.315 E6.23788
G1 X101.875 Y48.315 E6.24398
G1 X103.945 Y50.385 E6.27917
G1 X103.945 Y50.892 E6.28527
G1 X101.368 Y48.315 E6.32910
G1 X100.860 Y48.315 E6.33520
G1 X103.945 Y51.400 E6.38764
G1 X103.945 Y51.907 E6.39375
G1 X100.353 Y48.315 E6.45482
G1 X99.845 Y48.315 E6.46092
G1 X103.945 Y52.414 E6.53063
G1 X103.945 Y52.922 E6.53673
G1 X99.338 Y48.315 E6.61506
G1 X98.830 Y48.315 E6.62116
G1 X103.945 Y53.429 E6.70813
G1 X103.945 Y53.937 E6.71423
G1 X98.323 Y48.315 E6.80982
G1 X97.816 Y48.315 E6.81592
G1 X103.945 Y54.444 E6.92013
G1 X103.945 Y54.952 E6.92624
G1 X97.308 Y48.315 E7.03908
G1 X96.801 Y48.315 E7.04518
G1 X103.945 Y55.459 E7.16666
G1 X103.945 Y55.966 E7.17276
G1 X96.293 Y48.315 E7.30286
G1 X95.786 Y48.315 E7.30896
G1 X103.945 Y56.474 E7.44769
G1 X103.945 Y56.981 E7.45379
G1 X95.279 Y48.315 E7.60115
G1 X94.771 Y48.315 E7.60725
G1 X103.945 Y57.489 E7.76324
G1 X103.945 Y57.996 E7.76934
G1 X94.264 Y48.315 E7.93395
G1 X93.756 Y48.315 E7.94005
G1 X103.945 Y58.503 E8.11329
G1 X103.945 Y59.011 E8.11940
G1 X93.249 Y48.315 E8.30127
G1 X92.742 Y48.315 E8.30737
G1 X103.945 Y59.518 E8.49787
G1 X103.945 Y60.026 E8.50397
G1 X92.234 Y48.315 E8.70309
G1 X91.727 Y48.315 E8.70919
G1 X103.945 Y60.533 E8.91695
G1 X103.945 Y61.040 E8.92305
G1 X91.219 Y48.315 E9.13943
G1 X90.712 Y48.315 E9.14553
G1 X103.945 Y61.548 E9.37054
G1 X103.945 Y62.055 E9.37665
G1 X90.204 Y48.315 E9.61028
G1 X89.697 Y48.315 E9.61639
G1 X103.945 Y62.563 E9.85865
G1 X103.945 Y63.070 E9.86475
G1 X89.190 Y48.315 E10.11565
G1 X88.682 Y48.315 E10.12175
G1 X103.945 Y63.578 E10.38127
G1 X103.945 Y64.085 E10.38737
G1 X88.175 Y48.315 E10.65553
G1 X87.667 Y48.315 E10.66163
G1 X103.945 Y64.592 E10.93841
G1 X103.945 Y65.100 E10.94451
G1 X87.160 Y48.315 E11.22992
G1 X86.653 Y48.315 E11.23602
G1 X103.945 Y65.607 E11.53005
G1 X103.945 Y66.115 E11.53615
G1 X86.145 Y48.315 E11.83882
G1 X85.638 Y48.315 E11.84492
G1 X103.945 Y66.622 E12.15621
G1 X103.945 Y67.129 E12.16231
G1 X85.130 Y48.315 E12.48223
G1 X84.623 Y48.315 E12.48833
G1 X103.945 Y67.637 E12.81688
G1 X103.945 Y68.144 E12.82298
G1 X84.116 Y48.315 E13.16016
G1 X83.608 Y48.315 E13.16626
G1 X103.945 Y68.652 E13.51206
G1 X103.945 Y69.159 E13.51817
G1 X83.101 Y48.315 E13.87260
G1 X82.593 Y48.315 E13.87870
G1 X103.945 Y69.666 E14.24176
G1 X103.945 Y70.174 E14.24786
G1 X82.086 Y48.315 E14.61955
G1 X81.578 Y48.315 E14.62565
G1 X103.945 Y70.681 E15.00597
G1 X103.945 Y71.189 E15.01207
G1 X81.071 Y48.315 E15.40101
G1 X80.564 Y48.315 E15.40711
G1 X103.945 Y71.696 E15.80469
G1 X103.945 Y72.204 E15.81079
G1 X80.056 Y48.315 E16.21699
G1 X79.549 Y48.315 E16.22309
G1 X103.945 Y72.711 E16.63792
G1 X103.945 Y73.218 E16.64402
G1 X79.041 Y48.315 E17.06748
G1 X78.534 Y48.315 E17.07358
G1 X103.945 Y73.726 E17.50567
G1 X103.945 Y74.233 E17.51177
G1 X78.027 Y48.315 E17.95248
G1 X77.519 Y48.315 E17.95858
G1 X103.945 Y74.741 E18.40792
G1 X103.945 Y75.248 E18.41402
G1 X77.012 Y48.315 E18.87199
G1 X76.504 Y48.315 E18.87810
G1 X103.945 Y75.755 E19.34469
G1 X103.691 Y76.009 E19.34901
G1 X76.251 Y48.569 E19.81561
G1 X76.251 Y49.076 E19.82171
G1 X103.183 Y76.009 E20.27968
G1 X102.676 Y76.009 E20.28578
G1 X76.251 Y49.584 E20.73512
G1 X76.251 Y50.091 E20.74122
G1 X102.169 Y76.009 E21.18193
G1 X101.661 Y76.009 E21.18804
G1 X76.251 Y50.599 E21.62012
G1 X76.251 Y51.106 E21.62622
G1 X101.154 Y76.009 E22.04968
G1 X100.646 Y76.009 E22.05578
G1 X76.251 Y51.613 E22.47061
G1 X76.251 Y52.121 E22.47671
G1 X100.139 Y76.009 E22.88291
G1 X99.632 Y76.009 E22.88901
G1 X76.251 Y52.628 E23.28659
G1 X76.251 Y53.136 E23.29269
G1 X99.124 Y76.009 E23.68163
G1 X98.617 Y76.009 E23.68773
G1 X76.251 Y53.643 E24.06805
G1 X76.251 Y54.150 E24.07415
G1 X98.109 Y76.009 E24.44584
G1 X97.602 Y76.009 E24.45194
G1 X76.251 Y54.658 E24.81500
G1 X76.251 Y55.165 E24.82110
G1 X97.095 Y76.009 E25.17554
G1 X96.587 Y76.009 E25.18164
G1 X76.251 Y55.673 E25.52744
G1 X76.251 Y56.180 E25.53354
G1 X96.080 Y76.009 E25.87072
G1 X95.572 Y76.009 E25.87682
G1 X76.251 Y56.687 E26.20537
G1 X76.251 Y57.195 E26.21147
G1 X95.065 Y76.009 E26.53139
G1 X94.557 Y76.009 E26.53749
G1 X76.251 Y57.702 E26.84878
G1 X76.251 Y58.210 E26.85488
G1 X94.050 Y76.009 E27.15755
G1 X93.543 Y76.009 E27.16365
G1 X76.251 Y58.717 E27.45768
G1 X76.251 Y59.225 E27.46379
G1 X93.035 Y76.009 E27.74919
G1 X92.528 Y76.009 E27.75529
G1 X76.251 Y59.732 E28.03207
G1 X76.251 Y60.239 E28.03817
G1 X92.020 Y76.009 E28.30633
G1 X91.513 Y76.009 E28.31243
G1 X76.251 Y60.747 E28.57195
G1 X76.251 Y61.254 E28.57805
G1 X91.006 Y76.009 E28.82895
G1 X90.498 Y76.009 E28.83505
G1 X76.251 Y61.762 E29.07732
G1 X76.251 Y62.269 E29.08342
G1 X89.991 Y76.009 E29.31706
G1 X89.483 Y76.009 E29.32316
G1 X76.251 Y62.776 E29.54817
G1 X76.251 Y63.284 E29.55427
G1 X88.976 Y76.009 E29.77065
G1 X88.469 Y76.009 E29.77675
G1 X76.251 Y63.791 E29.98451
G1 X76.251 Y64.299 E29.99061
G1 X87.961 Y76.009 E30.18973
G1 X87.454 Y76.009 E30.19584
G1 X76.251 Y64.806 E30.38633
G1 X76.251 Y65.313 E30.39244
G1 X86.946 Y76.009 E30.57431
G1 X86.439 Y76.009 E30.58041
G1 X76.251 Y65.821 E30.75365
G1 X76.251 Y66.328 E30.75975
G1 X85.931 Y76.009 E30.92436
G1 X85.424 Y76.009 E30.93047
G1 X76.251 Y66.836 E31.08645
G1 X76.251 Y67.343 E31.09255
G1 X84.917 Y76.009 E31.23991
G1 X84.409 Y76.009 E31.24601
G1 X76.251 Y67.851 E31.38474
G1 X76.251 Y68.358 E31.39084
G1 X83.902 Y76.009 E31.52094
G1 X83.394 Y76.009 E31.52705
G1 X76.251 Y68.865 E31.64852
G1 X76.251 Y69.373 E31.65462
G1 X82.887 Y76.009 E31.76747
G1 X82.380 Y76.009 E31.77357
G1 X76.251 Y69.880 E31.87778
G1 X76.251 Y70.388 E31.88389
G1 X81.872 Y76.009 E31.97947
G1 X81.365 Y76.009 E31.98558
G1 X76.251 Y70.895 E32.07254
G1 X76.251 Y71.402 E32.07864
G1 X80.857 Y76.009 E32.15697
G1 X80.350 Y76.009 E32.16307
G1 X76.251 Y71.910 E32.23278
G1 X76.251 Y72.417 E32.23888
G1 X79.843 Y76.009 E32.29995
G1 X79.335 Y76.009 E32.30606
G1 X76.251 Y72.925 E32.35850
G1 X76.251 Y73.432 E32.36461
G1 X78.828 Y76.009 E32.40843
G1 X78.320 Y76.009 E32.41453
G1 X76.251 Y73.939 E32.44972
G1 X76.251 Y74.447 E32.45582
G1 X77.813 Y76.009 E32.48239
G1 X77.305 Y76.009 E32.48849
G1 X76.251 Y74.954 E32.50642
G1 X76.251 Y75.462 E32.51252
G1 X76.798 Y76.009 E32.52183
G1 X76.291 Y76.009 E32.52793
G1 X76.251 Y75.969 E32.52861
G1 E30.52861 F2400.000
G92 E0
G1 Z0.500 F5400.000
G1 X94.161 Y48.851 F5400.000
G1 Z0.400 F5400.000
G1 E2.00000 F2400.000
G1 X103.408 Y48.851 E2.25130 F3600.000
G1 X103.408 Y75.473 E2.97478
G1 X76.787 Y75.473 E3.69826 F3600.000
G1 X76.787 Y48.851 E4.42174
G1 X94.086 Y48.851 E4.89188
G1 X94.086 Y48.044 F5400.000
G1 X104.216 Y48.044 E5.16716 F3600.000
G1 X104.216 Y76.280 E5.93450
G1 X75.980 Y76.280 E6.70185
G1 X75.980 Y48.044 E7.46920
G1 X94.011 Y48.044 E7.95923 F3600.000
G1 X94.011 Y47.412 F5400.000
G1 X104.848 Y47.412 E8.12601 F2520.000
G1 X104.848 Y76.912 E8.58005
G1 X75.348 Y76.912 E9.03408 F2520.000
G1 X75.348 Y47.412 E9.48812
G1 X93.936 Y47.412 E9.77421
G1 X104.365 Y76.783 F5400.000
G1 X77.391 Y49.496 F5400.000
G1 X77.431 Y49.456 E9.77575 F3600.000
G1 X78.584 Y49.456 E9.80709
G1 X77.391 Y50.649 E9.85296
G1 X77.391 Y51.802 E9.88430
G1 X79.738 Y49.456 E9.97449
G1 X80.891 Y49.456 E10.00583
G1 X77.391 Y52.956 E10.14034
G1 X77.391 Y54.109 E10.17169
G1 X82.044 Y49.456 E10.35053
G1 X83.198 Y49.456 E10.38187
G1 X77.391 Y55.262 E10.60503
G1 X77.391 Y56.416 E10.63638
G1 X84.351 Y49.456 E10.90387
G1 X85.504 Y49.456 E10.93521
G1 X77.391 Y57.569 E11.24702
G1 X77.391 Y58.722 E11.27837
G1 X86.658 Y49.456 E11.63451
G1 X87.811 Y49.456 E11.66585
G1 X77.391 Y59.876 E12.06632
G1 X77.391 Y61.029 E12.09766
G1 X88.964 Y49.456 E12.54245
G1 X90.118 Y49.456 E12.57379
G1 X77.391 Y62.182 E13.06291
G1 X77.391 Y63.335 E13.09425
G1 X91.271 Y49.456 E13.62770
G1 X92.424 Y49.456 E13.65904
G1 X77.391 Y64.489 E14.23681
G1 X77.391 Y65.642 E14.26815
G1 X93.578 Y49.456 E14.89024
G1 X94.731 Y49.456 E14.92158
G1 X77.391 Y66.795 E15.58800
G1 X77.391 Y67.949 E15.61935
G1 X95.884 Y49.456 E16.33009
G1 X97.037 Y49.456 E16.36143
G1 X77.391 Y69.102 E17.11650
G1 X77.391 Y70.255 E17.14785
G1 X98.191 Y49.456 E17.94724
G1 X99.344 Y49.456 E17.97858
G1 X77.391 Y71.409 E18.82230
G1 X77.391 Y72.562 E18.85365
G1 X100.497 Y49.456 E19.74169
G1 X101.651 Y49.456 E19.77303
G1 X77.391 Y73.715 E20.70541
G1 X77.411 Y74.849 E20.73621
G1 X102.784 Y49.476 E21.71137
G1 X102.804 Y50.609 E21.74217
G1 X78.544 Y74.869 E22.67454
G1 X79.698 Y74.869 E22.70589
G1 X102.804 Y51.762 E23.59393
G1 X102.804 Y52.916 E23.62527
G1 X80.851 Y74.869 E24.46899
G1 X82.004 Y74.869 E24.50034
G1 X102.804 Y54.069 E25.29973
G1 X102.804 Y55.222 E25.33107
G1 X83.158 Y74.869 E26.08614
G1 X84.311 Y74.869 E26.11749
G1 X102.804 Y56.376 E26.82823
G1 X102.804 Y57.529 E26.85957
G1 X85.464 Y74.869 E27.52599
G1 X86.618 Y74.869 E27.55733
G1 X102.804 Y58.682 E28.17943
G1 X102.804 Y59.836 E28.21077
G1 X87.771 Y74.869 E28.78854
G1 X88.924 Y74.869 E28.81988
G1 X102.804 Y60.989 E29.35332
G1 X102.804 Y62.142 E29.38467
G1 X90.078 Y74.869 E29.87378
G1 X91.231 Y74.869 E29.90513
G1 X102.804 Y63.295 E30.34992
G1 X102.804 Y64.449 E30.38126
G1 X92.384 Y74.869 E30.78173
G1 X93.538 Y74.869 E30.81307
G1 X102.804 Y65.602 E31.16921
G1 X102.804 Y66.755 E31.20055
G1 X94.691 Y74.869 E31.51237
G1 X95.844 Y74.869 E31.54371
G1 X102.804 Y67.909 E31.81120
G1 X102.804 Y69.062 E31.84254
G1 X96.997 Y74.869 E32.06571
G1 X98.151 Y74.869 E32.09705
G1 X102.804 Y70.215 E32.27589
G1 X102.804 Y71.369 E32.30723
G1 X99.304 Y74.869 E32.44175
G1 X100.457 Y74.869 E32.47309
G1 X102.804 Y72.522 E32.56328
G1 X102.804 Y73.675 E32.59462
G1 X101.611 Y74.869 E32.64048
G1 X102.764 Y74.869 E32.67183
G1 X102.804 Y74.829 E32.67336
G1 E30.67336 F2400.000
G92 E0
G1 Z0.700 F5400.000
G1 X76.787 Y71.431 F5400.000
G1 Z0.600 F5400.000
G1 E2.00000 F2400.000
G1 X76.787 Y48.851 E2.61362 F3600.000
G1 X103.408 Y48.851 E3.33711
G1 X103.408 Y75.473 E4.06059
G1 X76.787 Y75.473 E4.78407 F3600.000
G1 X76.787 Y71.506 E4.89188
G1 X75.980 Y71.506 F5400.000
G1 X75.980 Y48.044 E5.52948 F3600.000
G1 X104.216 Y48.044 E6.29683 F3600.000
G1 X104.216 Y76.280 E7.06417
G1 X75.980 Y76.280 E7.83152
G1 X75.980 Y71.581 E7.95923
G1 X75.348 Y71.581 F5400.000
G1 X75.348 Y47.412 E8.33121 F2520.000
G1 X104.848 Y47.412 E8.78524
G1 X104.848 Y76.912 E9.23928
G1 X75.348 Y76.912 E9.69331 F2520.000
G1 X75.348 Y71.656 E9.77421
G1 X105.098 Y76.479 F5400.000
G1 X77.431 Y74.869 F5400.000
G1 X77.391 Y74.829 E9.77575 F3600.000
G1 X77.391 Y73.675 E9.80709
G1 X78.584 Y74.869 E9.85296
G1 X79.738 Y74.869 E9.88430
G1 X77.391 Y72.522 E9.97449
G1 X77.391 Y71.369 E10.00583
G1 X80.891 Y74.869 E10.14034
G1 X82.044 Y74.869 E10.17169
G1 X77.391 Y70.215 E10.35053
G1 X77.391 Y69.062 E10.38187
G1 X83.198 Y74.869 E10.60503
G1 X84.351 Y74.869 E10.63638
G1 X77.391 Y67.909 E10.90387
G1 X77.391 Y66.755 E10.93521
G1 X85.504 Y74.869 E11.24702
G1 X86.658 Y74.869 E11.27837
G1 X77.391 Y65.602 E11.63451
G1 X77.391 Y64.449 E11.66585
G1 X87.811 Y74.869 E12.06632
G1 X88.964 Y74.869 E12.09766
G1 X77.391 Y63.295 E12.54245
G1 X77.391 Y62.142 E12.57379
G1 X90.118 Y74.869 E13.06291
G1 X91.271 Y74.869 E13.09425
G1 X77.391 Y60.989 E13.62770
G1 X77.391 Y59.836 E13.65904
G1 X92.424 Y74.869 E14.23681
G1 X93.578 Y74.869 E14.26815
G1 X77.391 Y58.682 E14.89024
G1 X77.391 Y57.529 E14.92158
G1 X94.731 Y74.869 E15.58800
G1 X95.884 Y74.869 E15.61935
G1 X77.391 Y56.376 E16.33009
G1 X77.391 Y55.222 E16.36143
G1 X97.037 Y74.869 E17.11650
G1 X98.191 Y74.869 E17.14784
G1 X77.391 Y54.069 E17.94724
G1 X77.391 Y52.916 E17.97858
G1 X99.344 Y74.869 E18.82230
G1 X100.497 Y74.869 E18.85365
G1 X77.391 Y51.762 E19.74169
G1 X77.391 Y50.609 E19.77303
G1 X101.651 Y74.869 E20.70540
G1 X102.784 Y74.849 E20.73621
G1 X77.411 Y49.476 E21.71137
G1 X78.544 Y49.456 E21.74217
G1 X102.804 Y73.715 E22.67454
G1 X102.804 Y72.562 E22.70589
G1 X79.698 Y49.456 E23.59393
G1 X80.851 Y49.456 E23.62527
G1 X102.804 Y71.409 E24.46899
G1 X102.804 Y70.255 E24.50034
G1 X82.004 Y49.456 E25.29973
G1 X83.158 Y49.456 E25.33107
G1 X102.804 Y69.102 E26.08614
G1 X102.804 Y67.949 E26.11749
G1 X84.311 Y49.456 E26.82823
G1 X85.464 Y49.456 E26.85957
G1 X102.804 Y66.795 E27.52599
G1 X102.804 Y65.642 E27.55733
G1 X86.618 Y49.456 E28.17943
G1 X87.771 Y49.456 E28.21077
G1 X102.804 Y64.489 E28.78854
G1 X102.804 Y63.335 E28.81988
G1 X88.924 Y49.456 E29.35332
G1 X90.078 Y49.456 E29.38467
G1 X102.804 Y62.182 E29.87378
G1 X102.804 Y61.029 E29.90513
G1 X91.231 Y49.456 E30.34992
G1 X92.384 Y49.456 E30.38126
G1 X102.804 Y59.876 E30.78173
G1 X102.804 Y58.722 E30.81307
G1 X93.538 Y49.456 E31.16921
G1 X94.691 Y49.456 E31.20055
G1 X102.804 Y57.569 E31.51237
G1 X102.804 Y56.416 E31.54371
G1 X95.844 Y49.456 E31.81120
G1 X96.997 Y49.456 E31.84254
G1 X102.804 Y55.262 E32.06571
G1 X102.804 Y54.109 E32.09705
G1 X98.151 Y49.456 E32.27589
G1 X99.304 Y49.456 E32.30723
G1 X102.804 Y52.956 E32.44175
G1 X102.804 Y51.802 E32.47309
G1 X100.457 Y49.456 E32.56328
G1 X101.611 Y49.456 E32.59462
G1 X102.804 Y50.649 E32.64048
G1 X102.804 Y49.496 E32.67182
G1 X102.764 Y49.456 E32.67336
G1 E30.67336 F2400.000
G92 E0
G1 Z0.900 F5400.000
G1 X76.787 Y68.898 F5400.000
G1 Z0.800 F5400.000
G1 E2.00000 F2400.000
G1 X76.787 Y48.851 E2.54479 F3600.000
G1 X103.408 Y48.851 E3.26827
G1 X103.408 Y75.473 E3.99175
G1 X76.787 Y75.473 E4.71523 F3600.000
G1 X76.787 Y68.973 E4.89188
G1 X75.980 Y68.973 F5400.000
G1 X75.980 Y48.044 E5.46064 F3600.000
G1 X104.216 Y48.044 E6.22799 F3600.000
G1 X104.216 Y76.280 E6.99534
G1 X75.980 Y76.280 E7.76268
G1 X75.980 Y69.048 E7.95923
G1 X75.348 Y69.048 F5400.000
G1 X75.348 Y47.412 E8.29223 F2520.000
G1 X104.848 Y47.412 E8.74626
G1 X104.848 Y76.912 E9.20029
G1 X75.348 Y76.912 E9.65433 F2520.000
G1 X75.348 Y69.123 E9.77421
G1 X105.098 Y76.479 F5400.000
G1 X77.411 Y67.381 F5400.000
G1 X78.385 Y67.642 E9.80754 F3600.000
G1 X82.794 Y63.233 E10.01365
G1 X81.620 Y58.853 E10.16355
G1 X86.029 Y54.444 E10.36967
G1 X90.409 Y55.618 E10.51957
G1 X94.818 Y51.209 E10.72568
G1 X94.353 Y49.476 E10.78500
G1 X102.784 Y50.184 E11.06468
G1 X99.892 Y53.077 E11.19990
