; generated by Slic3r 1.2.1 on 2014-11-26 at 14:17:32

; external perimeters extrusion width = 0.50mm
; perimeters extrusion width = 0.72mm
; infill extrusion width = 0.72mm
; solid infill extrusion width = 0.72mm
; top infill extrusion width = 0.72mm

M190 S110 ; wait for bed temperature to be reached
M104 S245 ; set temperature
G28 ; home all axes
M109 S245 ; wait for temperature to be reached
G21 ; set units to millimeters
G90 ; use absolute coordinates
M82 ; use absolute distances for extrusion
G92 E0
M106 S96
G1 E-2.00000 F2400.000
G92 E0
G1 Z0.300 F6000.000
G1 Z0.400 F6000.000
G1 Z0.700 F6000.000
G1 X81.010 Y57.159 F6000.000
G1 Z0.400 F6000.000
G1 E2.00000 F2400.000
G1 X82.823 Y55.221 E2.12314 F3000.000
G1 X85.129 Y53.907 E2.24628
G1 X88.311 Y53.316 E2.39642
G1 X110.311 Y53.316 E3.41706
G1 X112.936 Y53.713 E3.54020
G1 X115.390 Y54.917 E3.66702 F3000.000
G1 X123.390 Y60.517 E4.12006
G1 X125.312 Y62.347 E4.24320
G1 X126.605 Y64.665 E4.36634
G1 X127.168 Y67.772 E4.51282
G1 X127.168 Y80.572 E5.10664
G1 X126.770 Y83.197 E5.22978
G1 X126.072 Y84.840 E5.31261
G1 X113.397 Y107.890 E6.53297
G1 X112.330 Y109.422 E6.61961
G1 X111.081 Y110.863 E6.70808
G1 X109.176 Y112.514 E6.82503
G1 X107.572 Y113.545 E6.91350
G1 X105.279 Y114.592 E7.03045
G1 X103.449 Y115.130 E7.11892
G1 X100.954 Y115.488 E7.23587
G1 X99.046 Y115.488 E7.32434
G1 X96.551 Y115.130 E7.44129
G1 X94.722 Y114.592 E7.52977
G1 X92.428 Y113.545 E7.64671
G1 X90.824 Y112.514 E7.73519
G1 X88.919 Y110.863 E7.85214
G1 X87.670 Y109.422 E7.94061
G1 X86.307 Y107.302 E8.05755
G1 X85.515 Y105.567 E8.14603
G1 X85.173 Y104.699 E8.18932
G1 X79.913 Y88.983 E8.95816
G1 X79.455 Y86.172 E9.09029
G1 X79.455 Y62.172 E10.20371
G1 X79.852 Y59.548 E10.32685
G1 X80.977 Y57.227 E10.44651
G1 X81.634 Y57.561 F6000.000
G1 X81.720 Y57.391 E10.45534 F3000.000
G1 X83.518 Y55.590 E10.57338
G1 X85.783 Y54.432 E10.69142
G1 X88.311 Y54.030 E10.81019
G1 X110.311 Y54.030 E11.83083
G1 X112.824 Y54.427 E11.94887
G1 X114.981 Y55.502 E12.06063 F3000.000
G1 X122.981 Y61.102 E12.51367
G1 X124.812 Y62.868 E12.63171
G1 X126.008 Y65.114 E12.74975
G1 X126.454 Y67.772 E12.87479
G1 X126.454 Y80.572 E13.46861
G1 X126.056 Y83.085 E13.58666
G1 X125.446 Y84.496 E13.65794
G1 X112.771 Y107.546 E14.87830
G1 X111.790 Y108.954 E14.95795
G1 X110.541 Y110.396 E15.04642
G1 X108.790 Y111.913 E15.15394
G1 X107.185 Y112.944 E15.24242
G1 X105.077 Y113.907 E15.34993
G1 X103.248 Y114.444 E15.43841
G1 X100.954 Y114.774 E15.54592
G1 X99.046 Y114.774 E15.63440
G1 X96.752 Y114.444 E15.74192
G1 X94.923 Y113.907 E15.83039
G1 X92.815 Y112.944 E15.93791
G1 X91.210 Y111.913 E16.02638
G1 X89.459 Y110.396 E16.13390
G1 X88.210 Y108.954 E16.22237
G1 X86.957 Y107.005 E16.32988
G1 X86.165 Y105.270 E16.41836
G1 X85.850 Y104.472 E16.45816
G1 X80.590 Y88.757 E17.22700
G1 X80.169 Y86.172 E17.34848
G1 X80.169 Y62.172 E18.46190
G1 X80.566 Y59.659 E18.57994
G1 X81.600 Y57.628 E18.68568
G1 X82.247 Y57.975 F6000.000
G1 X82.430 Y57.635 E18.70359 F3000.000
G1 X84.208 Y55.980 E18.81631
G1 X86.426 Y54.987 E18.92902
G1 X88.311 Y54.744 E19.01722
G1 X110.311 Y54.744 E20.03786
G1 X112.708 Y55.141 E20.15057
G1 X114.571 Y56.087 E20.24749 F3000.000
G1 X122.571 Y61.687 E20.70053
G1 X124.307 Y63.387 E20.81324
G1 X125.401 Y65.556 E20.92596
G1 X125.740 Y67.772 E21.02997
G1 X125.740 Y80.572 E21.62380
G1 X125.342 Y82.969 E21.73651
G1 X124.820 Y84.151 E21.79647
G1 X112.146 Y107.202 E23.01684
G1 X111.250 Y108.487 E23.08950
G1 X110.002 Y109.928 E23.17797
G1 X108.404 Y111.313 E23.27606
G1 X106.799 Y112.344 E23.36453
G1 X104.876 Y113.222 E23.46262
G1 X103.046 Y113.759 E23.55109
G1 X100.954 Y114.060 E23.64918
G1 X99.046 Y114.060 E23.73765
G1 X96.954 Y113.759 E23.83574
G1 X95.124 Y113.222 E23.92422
G1 X93.201 Y112.344 E24.02230
G1 X91.596 Y111.313 E24.11078
G1 X89.998 Y109.928 E24.20887
G1 X88.750 Y108.487 E24.29734
G1 X87.607 Y106.708 E24.39542
G1 X86.814 Y104.973 E24.48390
G1 X86.527 Y104.245 E24.52021
G1 X81.267 Y88.530 E25.28904
G1 X80.883 Y86.172 E25.39987
G1 X80.883 Y62.172 E26.51329
G1 X81.280 Y59.775 E26.62600
G1 X82.211 Y58.041 E26.71732
G1 X82.846 Y58.404 F6000.000
G1 X83.138 Y57.892 E26.74464 F3000.000
G1 X84.894 Y56.393 E26.85176
G1 X87.054 Y55.577 E26.95887
G1 X88.311 Y55.458 E27.01746
G1 X110.311 Y55.458 E28.03809
G1 X112.586 Y55.855 E28.14521
G1 X114.162 Y56.672 E28.22755 F3000.000
G1 X122.162 Y62.272 E28.68059
G1 X123.797 Y63.901 E28.78771
G1 X124.784 Y65.989 E28.89482
G1 X125.025 Y67.772 E28.97831
G1 X125.025 Y80.572 E29.57214
G1 X124.195 Y83.807 E29.72710
G1 X111.520 Y106.857 E30.94746
G1 X110.711 Y108.019 E31.01314
G1 X109.462 Y109.460 E31.10161
G1 X108.018 Y110.712 E31.19027
G1 X106.413 Y111.743 E31.27874
G1 X104.675 Y112.537 E31.36740
G1 X102.845 Y113.074 E31.45587
G1 X100.954 Y113.346 E31.54453
G1 X99.046 Y113.346 E31.63300
G1 X97.155 Y113.074 E31.72166
G1 X95.325 Y112.537 E31.81013
G1 X93.587 Y111.743 E31.89879
G1 X91.982 Y110.712 E31.98726
G1 X90.538 Y109.460 E32.07592
G1 X89.289 Y108.019 E32.16439
G1 X88.256 Y106.412 E32.25305
G1 X87.464 Y104.677 E32.34152
G1 X87.204 Y104.019 E32.37434
G1 X81.944 Y88.303 E33.14318
G1 X81.597 Y86.172 E33.24335
G1 X81.597 Y62.172 E34.35677
G1 X81.994 Y59.898 E34.46389
G1 X82.809 Y58.469 E34.54021
G1 E32.54021 F2400.000
G92 E0
G1 Z0.700 F6000.000
G1 X84.635 Y60.294 F6000.000
G1 Z0.400 F6000.000
G1 E2.00000 F2400.000
G1 X86.684 Y58.244 E2.13448 F3000.000
G1 X111.938 Y58.244 E3.30607
G1 X114.239 Y60.545 E3.45703
G1 X114.239 Y63.426 E3.59068 F3000.000
G1 X114.657 Y63.844 E3.61813
G1 X119.938 Y63.844 E3.86312
G1 X122.239 Y66.145 E4.01408
G1 X122.239 Y82.199 E4.75886
G1 X119.938 Y84.500 E4.90982
G1 X114.657 Y84.500 E5.15481
G1 X114.239 Y84.918 E5.18226
G1 X114.239 Y87.799 E5.31590
G1 X111.938 Y90.100 E5.46686
G1 X106.025 Y90.100 E5.74120
G1 X105.724 Y91.126 E5.79081
G1 X106.748 Y91.784 E5.84728
G1 X107.172 Y92.152 E5.87334
G1 X108.789 Y94.018 E5.98788
G1 X109.093 Y94.490 E6.01394
G1 X110.118 Y96.736 E6.12848
G1 X110.277 Y97.275 E6.15455
G1 X110.628 Y99.719 E6.26908
G1 X110.628 Y100.281 E6.29515
G1 X110.277 Y102.725 E6.40969
G1 X110.118 Y103.264 E6.43575
G1 X109.093 Y105.510 E6.55029
G1 X108.789 Y105.982 E6.57636
G1 X107.172 Y107.848 E6.69089
G1 X106.747 Y108.216 E6.71696
G1 X104.671 Y109.551 E6.83150
G1 X104.159 Y109.784 E6.85757
G1 X101.791 Y110.480 E6.97210
G1 X101.234 Y110.560 E6.99817
G1 X98.766 Y110.560 E7.11271
G1 X98.209 Y110.480 E7.13878
G1 X95.841 Y109.784 E7.25331
G1 X95.329 Y109.551 E7.27938
G1 X93.253 Y108.216 E7.39391
G1 X92.828 Y107.848 E7.41998
G1 X91.211 Y105.982 E7.53452
G1 X90.907 Y105.510 E7.56058
G1 X89.882 Y103.264 E7.67512
G1 X89.723 Y102.725 E7.70118
G1 X89.372 Y100.281 E7.81572
G1 X89.372 Y99.719 E7.84178
G1 X89.723 Y97.275 E7.95633
G1 X89.882 Y96.736 E7.98239
G1 X90.907 Y94.490 E8.09693
G1 X91.211 Y94.018 E8.12300
G1 X92.828 Y92.152 E8.23753
G1 X93.253 Y91.784 E8.26360
G1 X94.276 Y91.126 E8.32007
G1 X93.975 Y90.100 E8.36967
G1 X86.684 Y90.100 E8.70792
G1 X84.383 Y87.799 E8.85888
G1 X84.383 Y60.545 E10.12326
G1 X84.582 Y60.347 E10.13626
G1 X85.098 Y60.841 F6000.000
G1 X86.980 Y58.958 E10.25978 F3000.000
G1 X111.642 Y58.958 E11.40393
G1 X113.525 Y60.841 E11.52744 F3000.000
G1 X113.525 Y64.140 E11.68049
G1 X113.943 Y64.558 E11.70794
G1 X119.642 Y64.558 E11.97234
G1 X121.525 Y66.441 E12.09585
G1 X121.525 Y81.903 E12.81319
G1 X119.642 Y83.786 E12.93670
G1 X113.943 Y83.786 E13.20110
G1 X113.525 Y84.204 E13.22855
G1 X113.525 Y87.503 E13.38160
G1 X111.642 Y89.386 E13.50511
G1 X103.146 Y89.386 E13.89927
G1 X102.970 Y90.611 E13.95669
G1 X103.909 Y90.887 E14.00210
G1 X104.327 Y91.078 E14.02342
G1 X106.318 Y92.357 E14.13322
G1 X106.666 Y92.658 E14.15455
G1 X108.216 Y94.447 E14.26434
G1 X108.464 Y94.834 E14.28567
G1 X109.447 Y96.986 E14.39547
G1 X109.577 Y97.428 E14.41679
G1 X109.914 Y99.770 E14.52659
G1 X109.914 Y100.230 E14.54792
G1 X109.577 Y102.572 E14.65772
G1 X109.447 Y103.014 E14.67905
G1 X108.464 Y105.166 E14.78884
G1 X108.216 Y105.553 E14.81017
G1 X106.666 Y107.342 E14.91997
G1 X106.318 Y107.643 E14.94130
G1 X104.327 Y108.922 E15.05109
G1 X103.909 Y109.113 E15.07242
G1 X101.638 Y109.780 E15.18222
G1 X101.183 Y109.846 E15.20355
G1 X98.817 Y109.846 E15.31334
G1 X98.362 Y109.780 E15.33467
G1 X96.091 Y109.113 E15.44447
G1 X95.673 Y108.922 E15.46580
G1 X93.682 Y107.643 E15.57559
G1 X93.334 Y107.342 E15.59692
G1 X91.784 Y105.553 E15.70672
G1 X91.536 Y105.166 E15.72804
G1 X90.553 Y103.014 E15.83784
G1 X90.423 Y102.573 E15.85917
G1 X90.086 Y100.230 E15.96897
G1 X90.086 Y99.770 E15.99029
G1 X90.123 Y99.514 E16.00232
G1 X90.423 Y97.428 E16.10009
G1 X90.553 Y96.986 E16.12142
G1 X91.536 Y94.834 E16.23122
G1 X91.784 Y94.447 E16.25254
G1 X91.984 Y94.216 E16.26672
G1 X93.334 Y92.658 E16.36234
G1 X93.682 Y92.357 E16.38367
G1 X95.673 Y91.078 E16.49347
G1 X96.091 Y90.887 E16.51480
G1 X97.030 Y90.611 E16.56020
G1 X96.854 Y89.386 E16.61762
G1 X86.980 Y89.386 E17.07568
G1 X85.098 Y87.503 E17.19919
G1 X85.098 Y60.916 E18.43265
G1 X85.812 Y61.137 F6000.000
G1 X87.276 Y59.673 E18.52872 F3000.000
G1 X111.347 Y59.673 E19.64542
G1 X112.811 Y61.137 E19.74148
G1 X112.811 Y64.854 E19.91395 F3000.000
G1 X113.229 Y65.273 E19.94139
G1 X119.347 Y65.273 E20.22520
G1 X120.811 Y66.737 E20.32126
G1 X120.811 Y81.608 E21.01116
G1 X119.347 Y83.072 E21.10722
G1 X113.229 Y83.072 E21.39103
G1 X112.811 Y83.490 E21.41847
G1 X112.811 Y87.208 E21.59093
G1 X111.347 Y88.672 E21.68700
G1 X87.276 Y88.672 E22.80370
G1 X85.812 Y87.208 E22.89977
G1 X85.812 Y61.212 E24.10578
G1 X86.526 Y61.433 F6000.000
G1 X87.572 Y60.387 E24.17440 F3000.000
G1 X111.051 Y60.387 E25.26365
G1 X112.097 Y61.433 E25.33227 F3000.000
G1 X112.097 Y65.568 E25.52414
G1 X112.515 Y65.987 E25.55159
G1 X119.051 Y65.987 E25.85480
G1 X120.097 Y67.033 E25.92342
G1 X120.097 Y81.312 E26.58586
G1 X119.051 Y82.358 E26.65448
G1 X112.515 Y82.358 E26.95769
G1 X112.097 Y82.776 E26.98514
G1 X112.097 Y86.912 E27.17701
G1 X111.051 Y87.958 E27.24563
G1 X87.572 Y87.958 E28.33489
G1 X86.526 Y86.912 E28.40350
G1 X86.526 Y61.508 E29.58207
G1 X87.240 Y61.728 F6000.000
G1 X87.868 Y61.101 E29.62324 F3000.000
G1 X110.755 Y61.101 E30.68505
G1 X111.382 Y61.728 E30.72622
G1 X111.382 Y66.283 E30.93750 F3000.000
G1 X111.801 Y66.701 E30.96494
G1 X118.755 Y66.701 E31.28756
G1 X119.382 Y67.328 E31.32873
G1 X119.382 Y81.016 E31.96373
G1 X118.755 Y81.643 E32.00490
G1 X111.801 Y81.643 E32.32752
G1 X111.382 Y82.062 E32.35497
G1 X111.382 Y86.616 E32.56625
G1 X110.755 Y87.243 E32.60742
G1 X87.868 Y87.243 E33.66923
G1 X87.240 Y86.616 E33.71040
G1 X87.240 Y61.803 E34.86151
G1 X87.954 Y62.024 F6000.000
G1 X88.163 Y61.815 E34.87524 F3000.000
G1 X110.459 Y61.815 E35.90960
G1 X110.668 Y62.024 E35.92332 F3000.000
G1 X110.668 Y66.997 E36.15401
G1 X111.087 Y67.415 E36.18146
G1 X118.459 Y67.415 E36.52349
G1 X118.668 Y67.624 E36.53721
G1 X118.668 Y80.720 E37.14476
G1 X118.459 Y80.929 E37.15848
G1 X111.087 Y80.929 E37.50051
G1 X110.668 Y81.348 E37.52796
G1 X110.668 Y86.320 E37.75865
G1 X110.459 Y86.529 E37.77237
G1 X88.163 Y86.529 E38.80673
G1 X87.954 Y86.320 E38.82045
G1 X87.954 Y62.099 E39.94412
G1 E37.94412 F2400.000
G92 E0
G1 Z0.700 F6000.000
G1 X15.400 Y15.264 F6000.000
G1 X96.583 Y91.486 F6000.000
G1 Z0.400 F6000.000
G1 E2.00000 F2400.000
G1 X98.514 Y90.920 E2.09336 F3000.000
G1 X98.868 Y90.869 E2.10994
G1 X101.132 Y90.869 E2.21500
G1 X101.486 Y90.920 E2.23159
G1 X103.659 Y91.558 E2.33665 F3000.000
G1 X103.984 Y91.706 E2.35324
G1 X105.889 Y92.930 E2.45829
G1 X106.160 Y93.165 E2.47488
G1 X107.642 Y94.876 E2.57994
G1 X107.836 Y95.177 E2.59653
G1 X108.777 Y97.237 E2.70158
G1 X108.877 Y97.580 E2.71817
G1 X109.200 Y99.821 E2.82323
G1 X109.200 Y100.179 E2.83982
G1 X108.877 Y102.420 E2.94488
G1 X108.777 Y102.763 E2.96147
G1 X107.836 Y104.823 E3.06653
G1 X107.643 Y105.124 E3.08311
G1 X106.160 Y106.835 E3.18817
G1 X105.889 Y107.070 E3.20476
G1 X103.984 Y108.294 E3.30982
G1 X103.659 Y108.442 E3.32641
G1 X103.459 Y108.501 E3.33606
G1 X101.486 Y109.080 E3.43146
G1 X101.132 Y109.131 E3.44805
G1 X98.868 Y109.131 E3.55311
G1 X98.514 Y109.080 E3.56970
G1 X96.341 Y108.442 E3.67476
G1 X96.016 Y108.294 E3.69135
G1 X94.111 Y107.070 E3.79640
G1 X93.840 Y106.835 E3.81299
G1 X92.357 Y105.124 E3.91805
G1 X92.164 Y104.823 E3.93464
G1 X91.223 Y102.763 E4.03970
G1 X91.123 Y102.420 E4.05628
G1 X90.800 Y100.179 E4.16134
G1 X90.800 Y99.821 E4.17793
G1 X90.830 Y99.615 E4.18758
G1 X91.123 Y97.580 E4.28299
G1 X91.223 Y97.237 E4.29958
G1 X92.164 Y95.177 E4.40464
G1 X92.357 Y94.876 E4.42122
G1 X92.524 Y94.684 E4.43303
G1 X93.840 Y93.165 E4.52628
G1 X94.111 Y92.930 E4.54287
G1 X96.016 Y91.706 E4.64793
G1 X96.341 Y91.558 E4.66452
G1 X96.511 Y91.508 E4.67274
G1 X96.712 Y92.193 F6000.000
G1 X98.666 Y91.619 E4.76721 F3000.000
G1 X98.919 Y91.583 E4.77906
G1 X101.081 Y91.583 E4.87937
G1 X101.334 Y91.619 E4.89122 F3000.000
G1 X103.409 Y92.228 E4.99154
G1 X103.641 Y92.334 E5.00339
G1 X105.328 Y93.419 E5.09642
G1 X105.460 Y93.504 E5.10371
G1 X105.653 Y93.671 E5.11556
G1 X107.069 Y95.305 E5.21588
G1 X107.207 Y95.520 E5.22773
G1 X108.106 Y97.487 E5.32804
G1 X108.178 Y97.732 E5.33989
G1 X108.485 Y99.872 E5.44021
G1 X108.485 Y100.128 E5.45206
G1 X108.178 Y102.268 E5.55238
G1 X108.106 Y102.513 E5.56423
G1 X107.207 Y104.480 E5.66455
G1 X107.069 Y104.695 E5.67640
G1 X105.653 Y106.329 E5.77672
G1 X105.460 Y106.496 E5.78857
G1 X103.641 Y107.666 E5.88888
G1 X103.409 Y107.772 E5.90073
G1 X101.334 Y108.381 E6.00105
G1 X101.081 Y108.417 E6.01290
G1 X98.919 Y108.417 E6.11322
G1 X98.666 Y108.381 E6.12507
G1 X96.591 Y107.772 E6.22539
G1 X96.359 Y107.666 E6.23724
G1 X94.540 Y106.496 E6.33756
G1 X94.347 Y106.329 E6.34940
G1 X92.931 Y104.695 E6.44972
G1 X92.793 Y104.480 E6.46157
G1 X91.894 Y102.513 E6.56189
G1 X91.822 Y102.268 E6.57374
G1 X91.515 Y100.128 E6.67406
G1 X91.515 Y99.872 E6.68591
G1 X91.537 Y99.717 E6.69319
G1 X91.822 Y97.732 E6.78623
G1 X91.894 Y97.487 E6.79808
G1 X92.793 Y95.520 E6.89840
G1 X92.931 Y95.305 E6.91024
G1 X93.064 Y95.151 E6.91968
G1 X94.347 Y93.671 E7.01056
G1 X94.540 Y93.504 E7.02241
G1 X96.359 Y92.334 E7.12274
G1 X96.640 Y92.214 E7.13694
G1 X96.842 Y92.899 F6000.000
G1 X98.818 Y92.319 E7.23251 F3000.000
G1 X98.970 Y92.297 E7.23962
G1 X101.030 Y92.297 E7.33520
G1 X101.182 Y92.319 E7.34231
G1 X103.159 Y92.899 E7.43789 F3000.000
G1 X103.298 Y92.963 E7.44500
G1 X104.942 Y94.019 E7.53566
G1 X105.147 Y94.177 E7.54766
G1 X106.496 Y95.734 E7.64324
G1 X106.579 Y95.863 E7.65035
G1 X107.435 Y97.737 E7.74593
G1 X107.478 Y97.884 E7.75304
G1 X107.771 Y99.923 E7.84862
G1 X107.771 Y100.077 E7.85573
G1 X107.478 Y102.116 E7.95131
G1 X107.435 Y102.263 E7.95841
G1 X106.579 Y104.137 E8.05399
G1 X106.496 Y104.266 E8.06110
G1 X105.147 Y105.823 E8.15668
G1 X105.031 Y105.923 E8.16379
G1 X103.298 Y107.037 E8.25937
G1 X103.159 Y107.101 E8.26648
G1 X101.182 Y107.681 E8.36206
G1 X101.030 Y107.703 E8.36917
G1 X98.970 Y107.703 E8.46475
G1 X98.818 Y107.681 E8.47186
G1 X96.841 Y107.101 E8.56744
G1 X96.702 Y107.037 E8.57455
G1 X94.969 Y105.923 E8.67013
G1 X94.853 Y105.823 E8.67724
G1 X93.504 Y104.266 E8.77282
G1 X93.421 Y104.137 E8.77993
G1 X92.565 Y102.263 E8.87551
G1 X92.522 Y102.116 E8.88262
G1 X92.229 Y100.077 E8.97820
G1 X92.244 Y99.819 E8.99019
G1 X92.522 Y97.884 E9.08086
G1 X92.565 Y97.737 E9.08797
G1 X93.421 Y95.863 E9.18355
G1 X93.504 Y95.734 E9.19066
G1 X94.853 Y94.177 E9.28624
G1 X94.969 Y94.077 E9.29335
G1 X96.773 Y92.930 E9.39253
G1 X97.070 Y93.580 F6000.000
G1 X98.970 Y93.018 E9.48446 F3000.000
G1 X100.979 Y93.011 E9.57765
G1 X102.908 Y93.570 E9.67084 F3000.000
G1 X104.641 Y94.683 E9.76637
G1 X105.951 Y96.206 E9.85956
G1 X106.778 Y98.036 E9.95274
G1 X107.057 Y99.974 E10.04359
G1 X106.778 Y101.964 E10.13677
G1 X105.923 Y103.837 E10.23231
G1 X104.602 Y105.350 E10.32549
G1 X102.908 Y106.430 E10.41868
G1 X101.030 Y106.982 E10.50952
G1 X99.021 Y106.989 E10.60271
G1 X97.045 Y106.409 E10.69824
G1 X95.398 Y105.350 E10.78908
G1 X95.323 Y105.275 E10.79399
G1 X94.049 Y103.794 E10.88463
G1 X93.236 Y102.013 E10.97547
G1 X92.943 Y99.974 E11.07100
G1 X93.236 Y97.987 E11.16419
G1 X94.077 Y96.163 E11.25737
G1 X95.359 Y94.683 E11.34822
G1 X97.005 Y93.617 E11.43919
