; generated by Slic3r 1.2.1 on 2014-11-26 at 14:03:11

; external perimeters extrusion width = 0.50mm
; perimeters extrusion width = 0.72mm
; infill extrusion width = 0.72mm
; solid infill extrusion width = 0.72mm
; top infill extrusion width = 0.72mm

M190 S110 ; wait for bed temperature to be reached
M104 S245 ; set temperature
G28 ; home all axes
M109 S245 ; wait for temperature to be reached
G21 ; set units to millimeters
G90 ; use absolute coordinates
M82 ; use absolute distances for extrusion
G92 E0
M106 S106
G1 E-2.00000 F2400.000
G92 E0
G1 Z0.300 F6000.000
G1 Z0.400 F6000.000
G1 Z0.700 F6000.000
G1 X79.512 Y81.049 F6000.000
G1 Z0.400 F6000.000
G1 E2.00000 F2400.000
G1 X81.818 Y79.735 E2.12314 F3000.000
G1 X85.000 Y79.143 E2.27328
G1 X107.000 Y79.143 E3.29392
G1 X109.624 Y79.541 E3.41706
G1 X112.079 Y80.744 E3.54388 F3000.000
G1 X120.079 Y86.344 E3.99692
G1 X122.001 Y88.175 E4.12006
G1 X123.294 Y90.493 E4.24320
G1 X123.857 Y93.600 E4.38968
G1 X123.857 Y106.400 E4.98350
G1 X123.459 Y109.024 E5.10664
G1 X122.301 Y111.413 E5.22978
G1 X120.079 Y113.656 E5.37626
G1 X112.079 Y119.256 E5.82930
G1 X109.701 Y120.435 E5.95244
G1 X107.000 Y120.857 E6.07926
G1 X85.000 Y120.857 E7.09990
G1 X82.376 Y120.459 E7.22304
G1 X79.987 Y119.301 E7.34618
G1 X78.049 Y117.488 E7.46932
G1 X76.735 Y115.182 E7.59246
G1 X76.143 Y112.000 E7.74260
G1 X76.143 Y88.000 E8.85602
G1 X76.541 Y85.376 E8.97916
G1 X77.699 Y82.987 E9.10230
G1 X79.461 Y81.103 E9.22196
G1 X79.992 Y81.633 F6000.000
G1 X80.206 Y81.418 E9.23607 F3000.000
G1 X82.472 Y80.260 E9.35411
G1 X85.000 Y79.858 E9.47287
G1 X107.000 Y79.858 E10.49351
G1 X109.513 Y80.255 E10.61155
G1 X111.669 Y81.329 E10.72332 F3000.000
G1 X119.669 Y86.929 E11.17635
G1 X121.500 Y88.696 E11.29439
G1 X122.696 Y90.942 E11.41244
G1 X123.142 Y93.600 E11.53747
G1 X123.142 Y106.400 E12.13130
G1 X122.745 Y108.913 E12.24934
G1 X121.591 Y111.181 E12.36738
G1 X119.669 Y113.071 E12.49242
G1 X111.669 Y118.671 E12.94545
G1 X109.383 Y119.786 E13.06349
G1 X107.000 Y120.142 E13.17526
G1 X85.000 Y120.142 E14.19590
G1 X82.487 Y119.745 E14.31394
G1 X80.219 Y118.591 E14.43198
G1 X78.418 Y116.794 E14.55002
G1 X77.260 Y114.528 E14.66806
G1 X76.858 Y112.000 E14.78683
G1 X76.858 Y88.000 E15.90025
G1 X77.255 Y85.487 E16.01829
G1 X78.409 Y83.219 E16.13633
G1 X79.939 Y81.686 E16.23680
G1 X80.444 Y82.229 F6000.000
G1 X80.897 Y81.808 E16.26551 F3000.000
G1 X83.114 Y80.815 E16.37823
G1 X85.000 Y80.572 E16.46643
G1 X107.000 Y80.572 E17.48706
G1 X109.397 Y80.969 E17.59978
G1 X111.260 Y81.914 E17.69670 F3000.000
G1 X119.260 Y87.514 E18.14974
G1 X120.996 Y89.214 E18.26245
G1 X122.090 Y91.384 E18.37516
G1 X122.428 Y93.600 E18.47918
G1 X122.428 Y106.400 E19.07301
G1 X122.031 Y108.797 E19.18572
G1 X120.882 Y110.937 E19.29843
G1 X119.260 Y112.486 E19.40245
G1 X111.260 Y118.086 E19.85548
G1 X109.068 Y119.135 E19.96820
G1 X107.000 Y119.428 E20.06512
G1 X85.000 Y119.428 E21.08576
G1 X82.603 Y119.031 E21.19847
G1 X80.463 Y117.882 E21.31118
G1 X78.808 Y116.103 E21.42390
G1 X77.815 Y113.886 E21.53661
G1 X77.572 Y112.000 E21.62481
G1 X77.572 Y88.000 E22.73823
G1 X77.969 Y85.603 E22.85095
G1 X79.118 Y83.463 E22.96366
G1 X80.389 Y82.280 E23.04417
G1 X80.863 Y82.835 F6000.000
G1 X81.583 Y82.220 E23.08810 F3000.000
G1 X83.743 Y81.405 E23.19522
G1 X85.000 Y81.286 E23.25380
G1 X107.000 Y81.286 E24.27444
G1 X109.275 Y81.683 E24.38156
G1 X110.850 Y82.500 E24.46390 F3000.000
G1 X118.850 Y88.100 E24.91693
G1 X120.486 Y89.729 E25.02405
G1 X121.473 Y91.817 E25.13117
G1 X121.714 Y93.600 E25.21466
G1 X121.714 Y106.400 E25.80849
G1 X121.317 Y108.675 E25.91561
G1 X120.173 Y110.680 E26.02273
G1 X118.850 Y111.900 E26.10622
G1 X110.850 Y117.500 E26.55925
G1 X108.759 Y118.480 E26.66637
G1 X107.000 Y118.714 E26.74871
G1 X85.000 Y118.714 E27.76935
G1 X82.725 Y118.317 E27.87646
G1 X80.720 Y117.173 E27.98358
G1 X79.220 Y115.417 E28.09070
G1 X78.405 Y113.257 E28.19782
G1 X78.286 Y112.000 E28.25640
G1 X78.286 Y88.000 E29.36983
G1 X78.683 Y85.725 E29.47695
G1 X79.827 Y83.720 E29.58406
G1 X80.806 Y82.884 E29.64377
G1 E27.64377 F2400.000
G92 E0
G1 Z0.700 F6000.000
G1 X82.683 Y84.762 F6000.000
G1 Z0.400 F6000.000
G1 E2.00000 F2400.000
G1 X83.373 Y84.072 E2.04524 F3000.000
G1 X108.627 Y84.072 E3.21684
G1 X110.928 Y86.373 E3.36780
G1 X110.928 Y89.254 E3.50145 F3000.000
G1 X111.346 Y89.672 E3.52890
G1 X116.627 Y89.672 E3.77388
G1 X118.928 Y91.973 E3.92484
G1 X118.928 Y108.027 E4.66963
G1 X116.627 Y110.328 E4.82059
G1 X111.346 Y110.328 E5.06558
G1 X110.928 Y110.746 E5.09302
G1 X110.928 Y113.627 E5.22667
G1 X108.627 Y115.928 E5.37763
G1 X83.373 Y115.928 E6.54923
G1 X81.072 Y113.627 E6.70019
G1 X81.072 Y86.373 E7.96457
G1 X82.630 Y84.815 E8.06681
G1 X83.135 Y85.320 F6000.000
G1 X83.669 Y84.786 E8.10181 F3000.000
G1 X108.331 Y84.786 E9.24596
G1 X110.214 Y86.669 E9.36947 F3000.000
G1 X110.214 Y89.968 E9.52252
G1 X110.632 Y90.386 E9.54997
G1 X116.331 Y90.386 E9.81437
G1 X118.214 Y92.269 E9.93788
G1 X118.214 Y107.731 E10.65522
G1 X116.331 Y109.614 E10.77873
G1 X110.632 Y109.614 E11.04313
G1 X110.214 Y110.032 E11.07058
G1 X110.214 Y113.331 E11.22363
G1 X108.331 Y115.214 E11.34714
G1 X83.669 Y115.214 E12.49129
G1 X81.786 Y113.331 E12.61481
G1 X81.786 Y86.669 E13.85174
G1 X83.082 Y85.373 E13.93677
G1 X83.587 Y85.878 F6000.000
G1 X83.965 Y85.500 E13.96153 F3000.000
G1 X108.035 Y85.500 E15.07823
G1 X109.500 Y86.965 E15.17430
G1 X109.500 Y90.682 E15.34676 F3000.000
G1 X109.918 Y91.100 E15.37421
G1 X116.035 Y91.100 E15.65801
G1 X117.500 Y92.565 E15.75408
G1 X117.500 Y107.435 E16.44397
G1 X116.035 Y108.900 E16.54004
G1 X109.918 Y108.900 E16.82384
G1 X109.500 Y109.318 E16.85129
G1 X109.500 Y113.035 E17.02375
G1 X108.035 Y114.500 E17.11981
G1 X83.965 Y114.500 E18.23652
G1 X82.500 Y113.035 E18.33258
G1 X82.500 Y86.965 E19.54207
G1 X83.534 Y85.931 E19.60990
G1 X84.039 Y86.436 F6000.000
G1 X84.260 Y86.215 E19.62441 F3000.000
G1 X107.740 Y86.215 E20.71367
G1 X108.785 Y87.260 E20.78229 F3000.000
G1 X108.785 Y91.396 E20.97416
G1 X109.204 Y91.815 E21.00161
G1 X115.740 Y91.815 E21.30482
G1 X116.785 Y92.860 E21.37344
G1 X116.785 Y107.140 E22.03588
G1 X115.740 Y108.185 E22.10450
G1 X109.204 Y108.185 E22.40771
G1 X108.785 Y108.604 E22.43516
G1 X108.785 Y112.740 E22.62703
G1 X107.740 Y113.785 E22.69565
G1 X84.260 Y113.785 E23.78490
G1 X83.215 Y112.740 E23.85352
G1 X83.215 Y87.260 E25.03556
G1 X83.986 Y86.489 E25.08619
G1 X84.491 Y86.994 F6000.000
G1 X84.556 Y86.929 E25.09046 F3000.000
G1 X107.444 Y86.929 E26.15227
G1 X108.071 Y87.556 E26.19344
G1 X108.071 Y92.110 E26.40472 F3000.000
G1 X108.490 Y92.529 E26.43216
G1 X115.444 Y92.529 E26.75478
G1 X116.071 Y93.156 E26.79595
G1 X116.071 Y106.844 E27.43095
G1 X115.444 Y107.471 E27.47212
G1 X108.490 Y107.471 E27.79474
G1 X108.071 Y107.890 E27.82219
G1 X108.071 Y112.444 E28.03347
G1 X107.444 Y113.071 E28.07464
G1 X84.556 Y113.071 E29.13645
G1 X83.929 Y112.444 E29.17762
G1 X83.929 Y87.556 E30.33221
G1 X84.438 Y87.047 E30.36564
G1 X84.852 Y87.643 F6000.000
G1 X107.148 Y87.643 E31.40000 F3000.000
G1 X107.357 Y87.852 E31.41372 F3000.000
G1 X107.357 Y92.825 E31.64441
G1 X107.775 Y93.243 E31.67186
G1 X115.148 Y93.243 E32.01389
G1 X115.357 Y93.452 E32.02761
G1 X115.357 Y106.548 E32.63516
G1 X115.148 Y106.757 E32.64888
G1 X107.775 Y106.757 E32.99091
G1 X107.357 Y107.175 E33.01836
G1 X107.357 Y112.148 E33.24905
G1 X107.148 Y112.357 E33.26277
G1 X84.852 Y112.357 E34.29713
G1 X84.643 Y112.148 E34.31085
G1 X84.643 Y87.852 E35.43800
G1 X84.799 Y87.696 E35.44825
G1 X85.400 Y88.400 F6000.000
G1 X106.600 Y88.400 E36.43177 F3000.000
G1 X106.600 Y94.000 E36.69157
G1 X114.600 Y94.000 E37.06271 F3000.000
G1 X114.600 Y106.000 E37.61942
G1 X106.600 Y106.000 E37.99056
G1 X106.600 Y111.600 E38.25036
G1 X85.400 Y111.600 E39.23389
G1 X85.400 Y88.475 E40.30672
G1 X106.942 Y94.364 F6000.000
G1 X86.114 Y89.114 F6000.000
G1 X105.886 Y89.114 E41.22398 F3000.000
G1 X105.886 Y94.714 E41.48377
G1 X113.886 Y94.714 E41.85492
G1 X113.886 Y105.286 E42.34536
G1 X105.886 Y105.286 E42.71651
G1 X105.886 Y110.886 E42.97630
G1 X86.189 Y110.886 E43.89009
G1 X87.412 Y103.841 F6000.000
G1 X88.540 Y105.597 E43.98690 F3000.000
G1 X90.379 Y107.190 E44.09977
G1 X92.592 Y108.201 E44.21263
G1 X95.000 Y108.547 E44.32549
G1 X97.408 Y108.201 E44.43835
G1 X99.621 Y107.190 E44.55122
G1 X101.460 Y105.597 E44.66408
G1 X102.775 Y103.551 E44.77694
G1 X103.460 Y101.216 E44.88980
G1 X103.460 Y98.784 E45.00267
G1 X102.775 Y96.449 E45.11553
G1 X101.460 Y94.403 E45.22839
G1 X99.621 Y92.810 E45.34125
G1 X97.408 Y91.799 E45.45412
G1 X95.000 Y91.453 E45.56698
G1 X92.592 Y91.799 E45.67984
G1 X90.379 Y92.810 E45.79270
G1 X88.540 Y94.403 E45.90557
G1 X87.239 Y96.429 E46.01728
G1 X86.828 Y96.308 E46.03712
G1 X86.828 Y89.828 E46.33773
G1 X105.172 Y89.828 E47.18873
G1 X105.172 Y95.428 E47.44853
G1 X113.172 Y95.428 E47.81967 F3000.000
G1 X113.172 Y104.572 E48.24385
G1 X105.172 Y104.572 E48.61499
G1 X105.172 Y110.172 E48.87479
G1 X86.828 Y110.172 E49.72579
G1 X86.828 Y103.692 E50.02640
G1 X87.239 Y103.571 E50.04625
G1 X87.372 Y103.778 E50.05766
G1 X88.573 Y103.006 F6000.000
G1 X88.538 Y102.951 E50.06069 F3000.000
G1 X87.968 Y101.011 E50.15450
G1 X87.968 Y98.989 E50.24831
G1 X88.538 Y97.049 E50.34212
G1 X89.631 Y95.348 E50.43593
G1 X91.159 Y94.024 E50.52973
G1 X92.999 Y93.184 E50.62354
G1 X94.801 Y92.924 E50.70804
G1 X95.000 Y92.896 E50.71735 F3000.000
G1 X97.001 Y93.184 E50.81116
G1 X98.841 Y94.024 E50.90496
G1 X100.369 Y95.348 E50.99877
G1 X101.462 Y97.049 E51.09258
G1 X102.032 Y98.989 E51.18639
G1 X102.032 Y101.011 E51.28019
G1 X101.462 Y102.951 E51.37400
G1 X100.369 Y104.652 E51.46781
G1 X98.841 Y105.976 E51.56162
G1 X97.001 Y106.816 E51.65543
G1 X95.000 Y107.104 E51.74923
G1 X92.999 Y106.816 E51.84304
G1 X91.159 Y105.976 E51.93685
G1 X89.631 Y104.652 E52.03066
G1 X88.614 Y103.069 E52.11795
G1 E50.11795 F2400.000
G92 E0
G1 Z0.700 F6000.000
G1 X94.810 Y92.724 F6000.000
G1 X88.013 Y103.455 F6000.000
G1 Z0.400 F6000.000
G1 E2.00000 F2400.000
G1 X87.882 Y103.251 E2.01128 F3000.000
G1 X87.254 Y101.114 E2.11461
G1 X87.254 Y98.886 E2.21795
G1 X87.882 Y96.749 E2.32128
G1 X89.086 Y94.875 E2.42462
G1 X90.769 Y93.417 E2.52795
G1 X92.795 Y92.491 E2.63129
G1 X95.000 Y92.174 E2.73462
G1 X95.627 Y92.264 E2.76399
G1 X97.205 Y92.491 E2.83796 F3000.000
G1 X99.231 Y93.417 E2.94129
G1 X100.914 Y94.875 E3.04463
G1 X102.118 Y96.749 E3.14796
G1 X102.746 Y98.886 E3.25130
G1 X102.746 Y101.114 E3.35463
G1 X102.118 Y103.251 E3.45797
G1 X100.914 Y105.125 E3.56130
G1 X99.231 Y106.583 E3.66464
G1 X97.205 Y107.509 E3.76797
G1 X95.000 Y107.826 E3.87131
G1 X92.795 Y107.509 E3.97464
G1 X90.769 Y106.583 E4.07798
G1 X89.086 Y105.125 E4.18131
G1 X88.054 Y103.518 E4.26989
G1 X87.326 Y105.589 F6000.000
G1 X91.411 Y109.674 E4.53791 F3000.000
G1 X90.400 Y109.674 F6000.000
G1 X87.326 Y106.600 E4.73958 F3000.000
G1 X87.326 Y107.611 E4.78650
G1 X89.389 Y109.674 E4.92182
G1 X88.377 Y109.674 E4.96873
G1 X87.326 Y108.623 E5.03771
G1 X87.326 Y109.634 E5.08462
G1 X87.366 Y109.674 E5.08725
G1 X90.576 Y107.827 F6000.000
G1 X92.407 Y109.658 E5.20736 F3000.000
G1 X92.496 Y108.737 E5.25031
G1 X92.437 Y108.677 E5.25419
G1 X92.961 Y109.218 F6000.000
G1 X94.935 Y109.359 E5.39745 F3000.000
G1 X97.039 Y109.218 E5.55007
G1 X97.430 Y109.190 F6000.000
G1 X95.235 Y109.347 F6000.000
G1 X94.765 Y109.347 F6000.000
G1 X92.570 Y109.190 F6000.000
G1 X92.044 Y109.114 F6000.000
G1 X89.850 Y108.636 F6000.000
G1 X89.148 Y108.429 F6000.000
G1 X88.728 Y108.272 F6000.000
G1 X88.006 Y106.693 F6000.000
G1 X88.006 Y106.693 F6000.000
G1 X87.917 Y106.498 F6000.000
G1 X87.723 Y105.981 F6000.000
G1 X87.079 Y103.786 F6000.000
G1 X87.014 Y103.489 F6000.000
G1 X86.698 Y101.294 F6000.000
G1 X86.814 Y102.101 F6000.000
G1 X86.684 Y101.165 E5.56936 F3000.000
G1 X86.684 Y98.835 E5.61691
G1 X86.814 Y97.899 E5.63620
G1 X92.961 Y90.782 F6000.000
G1 X94.935 Y90.641 E5.77946 F3000.000
G1 X97.039 Y90.782 E5.93208
G1 X92.391 Y90.326 F6000.000
G1 X92.432 Y90.368 E5.93481 F3000.000
G1 X92.350 Y91.362 E5.98111
G1 X91.314 Y90.326 E6.04910
G1 X90.237 Y90.326 E6.09905
G1 X91.611 Y91.700 E6.18919
G1 X90.872 Y92.037 E6.22688
G1 X89.161 Y90.326 E6.33917
G1 X88.084 Y90.326 E6.38912
G1 X90.133 Y92.375 E6.52354
G1 X89.550 Y92.869 E6.55898
G1 X87.326 Y90.645 E6.70491
G1 X87.326 Y91.722 E6.75487
G1 X88.973 Y93.369 E6.86295
G1 X88.397 Y93.869 E6.89836
G1 X87.326 Y92.798 E6.96860
G1 X87.326 Y93.875 E7.01855
G1 X87.912 Y94.461 E7.05698
G1 X87.376 Y95.001 E7.09230
G1 X87.326 Y94.952 E7.09554
G1 X97.916 Y91.484 F6000.000
G1 X97.517 Y91.085 E7.12174 F3000.000
G1 X97.786 Y90.326 E7.15908
G1 X99.807 Y92.348 E7.29171
G1 X98.813 Y90.326 F6000.000
G1 X112.561 Y104.074 E8.19369 F3000.000
G1 X111.534 Y104.074 E8.24136
G1 X102.391 Y94.931 E8.84123
G1 X104.674 Y95.159 F6000.000
G1 X99.841 Y90.326 E9.15832 F3000.000
G1 X100.868 Y90.326 E9.20599
G1 X104.674 Y94.132 E9.45567
G1 X104.674 Y93.104 E9.50334
G1 X101.896 Y90.326 E9.68560
G1 X102.924 Y90.326 E9.73327
G1 X104.674 Y92.076 E9.84811
G1 X104.674 Y91.049 E9.89579
G1 X103.951 Y90.326 E9.94321
G1 X105.441 Y95.926 F6000.000
G1 X112.674 Y103.159 E10.41776 F3000.000
G1 X112.674 Y102.132 E10.46544
G1 X106.468 Y95.926 E10.87257
G1 X107.496 Y95.926 E10.92025
G1 X112.674 Y101.104 E11.25997
G1 X112.674 Y100.076 E11.30764
G1 X108.524 Y95.926 E11.57994
G1 X109.551 Y95.926 E11.62761
G1 X112.674 Y99.049 E11.83249
G1 X112.674 Y98.021 E11.88017
G1 X110.579 Y95.926 E12.01763
G1 X111.606 Y95.926 E12.06530
G1 X112.674 Y96.994 E12.13535
G1 X112.674 Y95.966 E12.18302
G1 X112.634 Y95.926 E12.18564
G1 X103.465 Y97.033 F6000.000
G1 X110.506 Y104.074 E12.64761 F3000.000
G1 X109.478 Y104.074 E12.69528
G1 X103.892 Y98.488 E13.06180
G1 X103.958 Y99.581 E13.11262
G1 X108.451 Y104.074 E13.40740
G1 X107.423 Y104.074 E13.45507
G1 X103.958 Y100.609 E13.68242
G1 X103.879 Y101.557 E13.72658
G1 X106.396 Y104.074 E13.89171
G1 X105.368 Y104.074 E13.93938
G1 X103.646 Y102.352 E14.05239
G1 X103.412 Y103.146 E14.09079
G1 X104.674 Y104.407 E14.17357
G1 X104.674 Y105.435 E14.22124
G1 X103.141 Y103.902 E14.32183
G1 X102.739 Y104.527 E14.35633
G1 X104.674 Y106.463 E14.48330
G1 X104.674 Y107.490 E14.53098
G1 X102.337 Y105.153 E14.68432
G1 X101.935 Y105.778 E14.71882
G1 X104.674 Y108.518 E14.89855
G1 X104.674 Y109.545 E14.94622
G1 X101.419 Y106.291 E15.15976
G1 X100.869 Y106.768 E15.19355
G1 X103.775 Y109.674 E15.38423
G1 X102.747 Y109.674 E15.43190
G1 X100.318 Y107.245 E15.59128
G1 X99.732 Y107.687 E15.62532
G1 X101.720 Y109.674 E15.75570
G1 X100.692 Y109.674 E15.80338
G1 X99.027 Y108.009 E15.91263
G1 X98.322 Y108.331 E15.94861
G1 X99.665 Y109.674 E16.03672
G1 X98.637 Y109.674 E16.08439
G1 X97.616 Y108.653 E16.15137
G1 X97.568 Y109.632 E16.19686
G1 X97.609 Y109.674 E16.19959
M106 S122
G1 E14.19959 F2400.000
G92 E0
G1 Z0.700 F6000.000
G1 X97.114 Y107.199 F6000.000
G1 E2.00000 F2400.000
G1 X95.000 Y107.503 E2.06810 F2400.000
G1 X94.554 Y107.439 E2.08246
G1 X92.886 Y107.199 E2.13621
G1 X90.943 Y106.312 E2.20430
G1 X89.329 Y104.914 E2.27240
G1 X88.175 Y103.117 E2.34051
G1 X87.573 Y101.068 E2.40861
G1 X87.573 Y98.932 E2.47671
G1 X88.175 Y96.883 E2.54481
G1 X89.329 Y95.086 E2.61291
G1 X90.944 Y93.688 E2.68101
G1 X92.886 Y92.801 E2.74910
G1 X95.000 Y92.497 E2.81721
G1 X95.503 Y92.569 E2.83341
G1 X97.114 Y92.801 E2.88532 F2400.000
G1 X99.056 Y93.688 E2.95341
G1 X100.671 Y95.086 E3.02152
G1 X101.825 Y96.883 E3.08962
G1 X102.427 Y98.932 E3.15772
G1 X102.427 Y101.068 E3.22582
G1 X101.825 Y103.117 E3.29392
G1 X100.671 Y104.914 E3.36202
G1 X99.057 Y106.312 E3.43012
G1 X97.182 Y107.168 E3.49583
G1 X96.959 Y106.671 F6000.000
G1 X95.000 Y106.953 E3.53783 F2400.000
G1 X93.041 Y106.671 E3.57983
G1 X91.241 Y105.849 E3.62183
G1 X89.746 Y104.553 E3.66383
G1 X88.676 Y102.888 E3.70583
G1 X88.118 Y100.989 E3.74783
G1 X88.118 Y99.011 E3.78983
G1 X88.676 Y97.112 E3.83183
G1 X89.746 Y95.447 E3.87383
G1 X91.241 Y94.151 E3.91583
G1 X93.041 Y93.329 E3.95782
G1 X94.575 Y93.109 E3.99071
G1 X95.000 Y93.047 E3.99983 F2400.000
G1 X96.959 Y93.329 E4.04183
G1 X98.759 Y94.151 E4.08383
G1 X100.254 Y95.447 E4.12583
G1 X101.324 Y97.112 E4.16783
