; generated by Slic3r 1.2.0 on 2014-10-17 at 11:53:07

; external perimeters extrusion width = 0.50mm
; perimeters extrusion width = 0.72mm
; infill extrusion width = 0.72mm
; solid infill extrusion width = 0.72mm
; top infill extrusion width = 0.72mm

G21 ; set units to millimeters
M107
M190 S110 ; wait for bed temperature to be reached
M104 S235 ; set temperature
G28 ; home all axes
M109 S235 ; wait for temperature to be reached
G90 ; use absolute coordinates
G92 E0
M82 ; use absolute distances for extrusion
G1 F2400.000 E-2.00000
G1 Z0.600 F9000.000
G92 E0
G1 X40.790 Y79.367 F9000.000
G1 Z0.300 F9000.000
G1 E2.00000 F2400.000
G1 X43.975 Y78.529 E2.03403 F2400.000
G1 X66.155 Y78.531 E2.26318
G1 X138.008 Y80.531 E3.00583 F2400.000
G1 X140.228 Y80.990 E3.02925
G1 X142.153 Y82.186 E3.05267
G1 X143.548 Y83.973 E3.07608
G1 X144.299 Y87.000 E3.10831
G1 X144.299 Y113.000 E3.37693
G1 X143.902 Y115.231 E3.40035
G1 X142.760 Y117.189 E3.42376
G1 X141.013 Y118.633 E3.44718
G1 X138.008 Y119.469 E3.47941
G1 X65.975 Y121.471 E4.22392
G1 X43.975 Y121.471 E4.45121
G1 X41.744 Y121.074 E4.47463
G1 X39.786 Y119.932 E4.49804
G1 X38.342 Y118.185 E4.52146
G1 X37.504 Y115.000 E4.55549
G1 X37.504 Y85.000 E4.86544
G1 X37.901 Y82.769 E4.88886
G1 X39.043 Y80.811 E4.91227
G1 X40.732 Y79.415 E4.93491
G1 X40.889 Y79.612 F9000.000
G1 X41.014 Y79.512 E4.93656 F2400.000
G1 X43.975 Y78.764 E4.96811
G1 X66.148 Y78.767 E5.19720
G1 X138.002 Y80.767 E5.93985 F2400.000
G1 X140.179 Y81.224 E5.96283
G1 X142.056 Y82.417 E5.98582
G1 X143.396 Y84.193 E6.00880
G1 X144.064 Y87.000 E6.03861
G1 X144.064 Y113.000 E6.30723
G1 X143.667 Y115.189 E6.33022
G1 X142.527 Y117.099 E6.35320
G1 X140.789 Y118.488 E6.37618
G1 X138.002 Y119.233 E6.40599
G1 X65.975 Y121.236 E7.15043
G1 X43.975 Y121.236 E7.37773
G1 X41.786 Y120.839 E7.40071
G1 X39.876 Y119.699 E7.42370
G1 X38.487 Y117.961 E7.44668
G1 X37.739 Y115.000 E7.47823
G1 X37.739 Y85.000 E7.78818
G1 X38.136 Y82.811 E7.81116
G1 X39.276 Y80.901 E7.83415
G1 X40.831 Y79.659 E7.85471
G1 F2400.000 E5.85471
G1 Z0.600 F9000.000
G92 E0
G1 X88.272 Y87.150 F9000.000
G1 Z0.300 F9000.000
G1 E2.00000 F2400.000
G1 X101.678 Y87.150 E2.13851 F2400.000
G1 X101.678 Y93.350 E2.20256
G1 X99.445 Y93.350 E2.22564 F2400.000
G1 X99.445 Y106.650 E2.36305
G1 X101.678 Y106.650 E2.38612
G1 X101.678 Y112.850 E2.45018
G1 X88.272 Y112.850 E2.58869
G1 X88.272 Y106.650 E2.65274
G1 X94.416 Y106.650 E2.71622
G1 X94.416 Y93.350 E2.85364
G1 X88.272 Y93.350 E2.91712
G1 X88.272 Y87.225 E2.98040
G1 F2400.000 E0.98040
G1 Z0.600 F9000.000
G92 E0
G1 X101.928 Y92.917 F9000.000
G1 X101.443 Y92.917 F9000.000
G1 Z0.300 F9000.000
G1 E2.00000 F2400.000
G1 X101.443 Y93.114 E2.00204 F2400.000
G1 X99.209 Y93.114 E2.02511
G1 X99.209 Y106.886 E2.16739
G1 X101.443 Y106.886 E2.19047
G1 X101.443 Y112.614 E2.24965
G1 X88.507 Y112.614 E2.38329
G1 X88.507 Y106.886 E2.44248
G1 X94.652 Y106.886 E2.50596
G1 X94.652 Y93.114 E2.64824
G1 X88.507 Y93.114 E2.71172
G1 X88.507 Y87.386 E2.77091
G1 X101.443 Y87.386 E2.90455 F2400.000
G1 X101.443 Y92.842 E2.96092
G1 X101.207 Y92.842 F9000.000
G1 X101.207 Y92.879 E2.96130 F2400.000
G1 X98.974 Y92.879 E2.98438 F2400.000
G1 X98.974 Y107.121 E3.13152
G1 X101.207 Y107.121 E3.15460
G1 X101.207 Y112.379 E3.20892
G1 X88.743 Y112.379 E3.33769
G1 X88.743 Y107.121 E3.39201
G1 X94.887 Y107.121 E3.45549
G1 X94.887 Y92.879 E3.60264
G1 X88.743 Y92.879 E3.66612
G1 X88.743 Y87.621 E3.72044
G1 X101.207 Y87.621 E3.84921
G1 X101.207 Y92.767 E3.90237
G1 F2400.000 E1.90237
G1 Z0.600 F9000.000
G92 E0
G1 X100.828 Y92.500 F9000.000
G1 X98.595 Y92.500 F9000.000
G1 X98.595 Y107.500 F9000.000
G1 X100.828 Y107.500 F9000.000
G1 X100.828 Y112.000 F9000.000
G1 X89.122 Y112.000 F9000.000
G1 X89.122 Y107.500 F9000.000
G1 X95.266 Y107.500 F9000.000
G1 X95.266 Y92.500 F9000.000
G1 X95.123 Y97.907 F9000.000
G1 Z0.300 F9000.000
G1 E2.00000 F2400.000
G1 X95.123 Y92.643 E2.05438 F2400.000
G1 X88.979 Y92.643 E2.11787
G1 X88.979 Y87.857 E2.16732
G1 X100.971 Y87.857 E2.29122 F2400.000
G1 X100.971 Y92.643 E2.34067
G1 X98.738 Y92.643 E2.36374
G1 X98.738 Y107.357 E2.51576
G1 X100.971 Y107.357 E2.53883
G1 X100.971 Y112.143 E2.58828
G1 X88.979 Y112.143 E2.71219
G1 X88.979 Y107.357 E2.76164
G1 X95.123 Y107.357 E2.82512
G1 X95.123 Y97.982 E2.92197
G1 F2400.000 E0.92197
G1 Z0.600 F9000.000
G92 E0
G1 X89.122 Y88.000 F9000.000
G1 X89.203 Y88.081 F9000.000
G1 Z0.300 F9000.000
G1 E2.00000 F2400.000
G1 X100.747 Y88.081 E2.11928 F2400.000
G1 X100.747 Y92.419 E2.16410
G1 X98.514 Y92.419 E2.18718
G1 X98.514 Y107.581 E2.34382
G1 X100.747 Y107.581 E2.36689
G1 X100.747 Y111.919 E2.41172
G1 X89.203 Y111.919 E2.53100
G1 X89.203 Y107.581 E2.57582
G1 X95.347 Y107.581 E2.63930
G1 X95.347 Y92.419 E2.79594
G1 X89.203 Y92.419 E2.85942
G1 X89.203 Y88.156 E2.90347
G1 X89.440 Y88.318 F9000.000
G1 X100.510 Y88.318 E3.01784 F2400.000
G1 X100.510 Y92.182 E3.05775
G1 X98.276 Y92.182 E3.08083
G1 X98.276 Y107.818 E3.24238
G1 X100.510 Y107.818 E3.26545
G1 X100.510 Y111.682 E3.30537
G1 X89.440 Y111.682 E3.41973
G1 X89.440 Y107.818 E3.45964
G1 X95.585 Y107.818 E3.52312
G1 X95.585 Y92.182 E3.68468
G1 X89.440 Y92.182 E3.74816
G1 X89.440 Y88.393 E3.78730
G1 X89.678 Y88.556 F9000.000
G1 X100.272 Y88.556 E3.89675 F2400.000
G1 X100.272 Y91.944 E3.93175
G1 X98.039 Y91.944 E3.95482
G1 X98.039 Y108.056 E4.12129
G1 X100.272 Y108.056 E4.14436
G1 X100.272 Y111.444 E4.17936
G1 X89.678 Y111.444 E4.28881
G1 X89.678 Y108.056 E4.32381
G1 X95.822 Y108.056 E4.38729
G1 X95.822 Y91.944 E4.55376
G1 X89.678 Y91.944 E4.61724
G1 X89.678 Y88.631 E4.65147
G1 X89.916 Y88.794 F9000.000
G1 X100.034 Y88.794 E4.75600 F2400.000
G1 X100.034 Y91.706 E4.78609
G1 X97.801 Y91.706 E4.80916
G1 X97.801 Y108.294 E4.98054
G1 X100.034 Y108.294 E5.00362
G1 X100.034 Y111.206 E5.03370
G1 X89.916 Y111.206 E5.13824
G1 X89.916 Y108.294 E5.16833
G1 X96.060 Y108.294 E5.23181
G1 X96.060 Y91.706 E5.40319
G1 X89.916 Y91.706 E5.46667
G1 X89.916 Y88.869 E5.49598
G1 X90.154 Y89.032 F9000.000
G1 X99.796 Y89.032 E5.59561 F2400.000
G1 X99.796 Y91.468 E5.62078
G1 X97.563 Y91.468 E5.64385
G1 X97.563 Y108.532 E5.82015
G1 X99.796 Y108.532 E5.84322
G1 X99.796 Y110.968 E5.86839
G1 X90.154 Y110.968 E5.96802
G1 X90.154 Y108.532 E5.99319
G1 X96.298 Y108.532 E6.05667
G1 X96.298 Y91.468 E6.23297
G1 X90.154 Y91.468 E6.29645
G1 X90.154 Y89.107 E6.32084
G1 X90.391 Y89.270 F9000.000
G1 X99.559 Y89.270 E6.41556 F2400.000
G1 X99.559 Y91.230 E6.43582
G1 X97.325 Y91.230 E6.45889
G1 X97.325 Y108.770 E6.64010
G1 X99.559 Y108.770 E6.66317
G1 X99.559 Y110.730 E6.68343
G1 X90.391 Y110.730 E6.77814
G1 X90.391 Y108.770 E6.79840
G1 X96.536 Y108.770 E6.86188
G1 X96.536 Y91.230 E7.04309
G1 X90.391 Y91.230 E7.10657
G1 X90.391 Y89.345 E7.12605
G1 X90.629 Y89.507 F9000.000
G1 X99.321 Y89.507 E7.21585 F2400.000
G1 X99.321 Y90.993 E7.23120
G1 X97.087 Y90.993 E7.25427
G1 X97.087 Y109.007 E7.44039
G1 X99.321 Y109.007 E7.46347
G1 X99.321 Y110.493 E7.47881
G1 X90.629 Y110.493 E7.56861
G1 X90.629 Y109.007 E7.58396
G1 X96.773 Y109.007 E7.64744
G1 X96.773 Y90.993 E7.83356
G1 X90.629 Y90.993 E7.89704
G1 X90.629 Y89.582 E7.91161
G1 X90.867 Y89.745 F9000.000
G1 X99.083 Y89.745 E7.99650 F2400.000
G1 X99.083 Y90.755 E8.00693
G1 X90.867 Y90.755 E8.09182
G1 X90.867 Y89.820 E8.10147
G1 X91.105 Y89.983 F9000.000
G1 X98.845 Y89.983 E8.18145 F2400.000
G1 X98.845 Y90.517 E8.18697
G1 X91.105 Y90.517 E8.26694
G1 X91.105 Y90.058 E8.27168
G1 F2400.000 E6.27168
G1 Z0.600 F9000.000
G92 E0
G1 X91.372 Y90.250 F9000.000
G1 X95.266 Y90.250 F9000.000
G1 X96.930 Y90.558 F9000.000
G1 X96.930 Y92.500 F9000.000
G1 X96.930 Y107.500 F9000.000
G1 X96.930 Y109.442 F9000.000
G1 X95.266 Y109.750 F9000.000
G1 X91.372 Y109.750 F9000.000
G1 X90.867 Y109.245 F9000.000
G1 Z0.300 F9000.000
G1 E2.00000 F2400.000
G1 X99.083 Y109.245 E2.08489 F2400.000
G1 X99.083 Y110.255 E2.09532
G1 X90.867 Y110.255 E2.18020
G1 X90.867 Y109.320 E2.18986
G1 X91.105 Y109.483 F9000.000
G1 X98.845 Y109.483 E2.26983 F2400.000
G1 X98.845 Y110.017 E2.27535
G1 X91.105 Y110.017 E2.35533
G1 X91.105 Y109.558 E2.36007
G1 F2400.000 E0.36007
G1 Z0.600 F9000.000
G92 E0
G1 X119.928 Y113.414 F9000.000
G1 X124.272 Y109.558 F9000.000
G1 Z0.300 F9000.000
G1 E2.00000 F2400.000
G1 X124.272 Y106.650 E2.03004 F2400.000
G1 X130.416 Y106.650 E2.09352
G1 X130.416 Y93.350 E2.23093
G1 X124.272 Y93.350 E2.29442
G1 X124.272 Y87.150 E2.35847
G1 X137.678 Y87.150 E2.49698
G1 X137.678 Y93.350 E2.56104
G1 X135.445 Y93.350 E2.58411 F2400.000
G1 X135.445 Y106.650 E2.72152
G1 X137.678 Y106.650 E2.74459
G1 X137.678 Y112.850 E2.80865
G1 X124.272 Y112.850 E2.94716
G1 X124.272 Y109.633 E2.98040
G1 F2400.000 E0.98040
G1 Z0.600 F9000.000
G92 E0
G1 X125.122 Y107.500 F9000.000
G1 X125.122 Y112.000 F9000.000
G1 X136.828 Y112.000 F9000.000
G1 X136.828 Y107.500 F9000.000
G1 X134.595 Y107.500 F9000.000
G1 X134.595 Y92.500 F9000.000
G1 X136.828 Y92.500 F9000.000
G1 X137.778 Y92.860 F9000.000
G1 X137.443 Y92.860 F9000.000
G1 Z0.300 F9000.000
G1 E2.00000 F2400.000
G1 X137.443 Y93.114 E2.00263 F2400.000
G1 X135.209 Y93.114 E2.02570
G1 X135.209 Y106.886 E2.16798
G1 X137.443 Y106.886 E2.19105
G1 X137.443 Y112.614 E2.25024
G1 X124.507 Y112.614 E2.38388
G1 X124.507 Y106.886 E2.44307
G1 X130.652 Y106.886 E2.50655
G1 X130.652 Y93.114 E2.64883
G1 X124.507 Y93.114 E2.71231
G1 X124.507 Y87.386 E2.77150
G1 X137.443 Y87.386 E2.90514 F2400.000
G1 X137.443 Y92.785 E2.96092
G1 X137.207 Y92.785 F9000.000
G1 X137.207 Y92.879 E2.96189 F2400.000
G1 X134.974 Y92.879 E2.98496 F2400.000
G1 X134.974 Y107.121 E3.13211
G1 X137.207 Y107.121 E3.15519
G1 X137.207 Y112.379 E3.20951
G1 X124.743 Y112.379 E3.33828
G1 X124.743 Y107.121 E3.39260
G1 X130.887 Y107.121 E3.45608
G1 X130.887 Y92.879 E3.60322
G1 X124.743 Y92.879 E3.66671
G1 X124.743 Y87.621 E3.72102
G1 X137.207 Y87.621 E3.84980
G1 X137.207 Y92.710 E3.90237
G1 F2400.000 E1.90237
G1 Z0.600 F9000.000
G92 E0
G1 X136.828 Y92.500 F9000.000
G1 X134.595 Y92.500 F9000.000
G1 X134.738 Y97.514 F9000.000
G1 Z0.300 F9000.000
G1 E2.00000 F2400.000
G1 X134.738 Y107.357 E2.10170 F2400.000
G1 X136.971 Y107.357 E2.12477
G1 X136.971 Y112.143 E2.17422
G1 X124.979 Y112.143 E2.29812
G1 X124.979 Y107.357 E2.34757
G1 X131.123 Y107.357 E2.41105
G1 X131.123 Y92.643 E2.56307
G1 X124.979 Y92.643 E2.62655
G1 X124.979 Y87.857 E2.67600
G1 X136.971 Y87.857 E2.79991 F2400.000
G1 X136.971 Y92.643 E2.84936
G1 X134.738 Y92.643 E2.87243
G1 X134.738 Y97.439 E2.92197
G1 F2400.000 E0.92197
G1 Z0.600 F9000.000
G92 E0
G1 X125.203 Y88.081 F9000.000
G1 Z0.300 F9000.000
G1 E2.00000 F2400.000
G1 X136.747 Y88.081 E2.11928 F2400.000
G1 X136.747 Y92.419 E2.16410
G1 X134.514 Y92.419 E2.18718
G1 X134.514 Y107.581 E2.34382
G1 X136.747 Y107.581 E2.36689
G1 X136.747 Y111.919 E2.41172
G1 X125.203 Y111.919 E2.53100
G1 X125.203 Y107.581 E2.57582
G1 X131.347 Y107.581 E2.63930
G1 X131.347 Y92.419 E2.79594
G1 X125.203 Y92.419 E2.85942
G1 X125.203 Y88.156 E2.90347
G1 X125.440 Y88.318 F9000.000
G1 X136.510 Y88.318 E3.01784 F2400.000
G1 X136.510 Y92.182 E3.05775
G1 X134.276 Y92.182 E3.08083
G1 X134.276 Y107.818 E3.24238
G1 X136.510 Y107.818 E3.26545
G1 X136.510 Y111.682 E3.30537
G1 X125.440 Y111.682 E3.41973
G1 X125.440 Y107.818 E3.45964
G1 X131.585 Y107.818 E3.52312
G1 X131.585 Y92.182 E3.68468
G1 X125.440 Y92.182 E3.74816
G1 X125.440 Y88.393 E3.78730
G1 X125.678 Y88.556 F9000.000
G1 X136.272 Y88.556 E3.89675 F2400.000
G1 X136.272 Y91.944 E3.93175
G1 X134.039 Y91.944 E3.95482
G1 X134.039 Y108.056 E4.12129
G1 X136.272 Y108.056 E4.14436
G1 X136.272 Y111.444 E4.17936
G1 X125.678 Y111.444 E4.28881
G1 X125.678 Y108.056 E4.32381
G1 X131.822 Y108.056 E4.38729
G1 X131.822 Y91.944 E4.55376
G1 X125.678 Y91.944 E4.61724
G1 X125.678 Y88.631 E4.65147
G1 X125.916 Y88.794 F9000.000
G1 X136.034 Y88.794 E4.75600 F2400.000
G1 X136.034 Y91.706 E4.78609
G1 X133.801 Y91.706 E4.80916
G1 X133.801 Y108.294 E4.98054
G1 X136.034 Y108.294 E5.00362
G1 X136.034 Y111.206 E5.03370
G1 X125.916 Y111.206 E5.13824
G1 X125.916 Y108.294 E5.16833
G1 X132.060 Y108.294 E5.23181
G1 X132.060 Y91.706 E5.40319
G1 X125.916 Y91.706 E5.46667
G1 X125.916 Y88.869 E5.49598
G1 X126.154 Y89.032 F9000.000
G1 X135.796 Y89.032 E5.59561 F2400.000
G1 X135.796 Y91.468 E5.62078
G1 X133.563 Y91.468 E5.64385
G1 X133.563 Y108.532 E5.82015
G1 X135.796 Y108.532 E5.84322
G1 X135.796 Y110.968 E5.86839
G1 X126.154 Y110.968 E5.96802
G1 X126.154 Y108.532 E5.99319
G1 X132.298 Y108.532 E6.05667
G1 X132.298 Y91.468 E6.23297
G1 X126.154 Y91.468 E6.29645
G1 X126.154 Y89.107 E6.32084
G1 X126.391 Y89.270 F9000.000
G1 X135.559 Y89.270 E6.41556 F2400.000
G1 X135.559 Y91.230 E6.43582
G1 X133.325 Y91.230 E6.45889
G1 X133.325 Y108.770 E6.64010
G1 X135.559 Y108.770 E6.66317
G1 X135.559 Y110.730 E6.68343
G1 X126.391 Y110.730 E6.77814
G1 X126.391 Y108.770 E6.79840
G1 X132.536 Y108.770 E6.86188
G1 X132.536 Y91.230 E7.04309
G1 X126.391 Y91.230 E7.10657
G1 X126.391 Y89.345 E7.12605
G1 X126.629 Y89.507 F9000.000
G1 X135.321 Y89.507 E7.21585 F2400.000
G1 X135.321 Y90.993 E7.23120
G1 X133.087 Y90.993 E7.25427
G1 X133.087 Y109.007 E7.44039
G1 X135.321 Y109.007 E7.46347
G1 X135.321 Y110.493 E7.47881
G1 X126.629 Y110.493 E7.56861
G1 X126.629 Y109.007 E7.58396
G1 X132.773 Y109.007 E7.64744
G1 X132.773 Y90.993 E7.83356
G1 X126.629 Y90.993 E7.89704
G1 X126.629 Y89.582 E7.91161
G1 X126.867 Y89.745 F9000.000
G1 X135.083 Y89.745 E7.99650 F2400.000
G1 X135.083 Y90.755 E8.00693
G1 X126.867 Y90.755 E8.09182
G1 X126.867 Y89.820 E8.10147
G1 X127.105 Y89.983 F9000.000
G1 X134.845 Y89.983 E8.18145 F2400.000
G1 X134.845 Y90.517 E8.18697
G1 X127.105 Y90.517 E8.26694
G1 X127.105 Y90.058 E8.27168
G1 F2400.000 E6.27168
G1 Z0.600 F9000.000
G92 E0
G1 X127.372 Y90.250 F9000.000
G1 X131.266 Y90.250 F9000.000
G1 X132.930 Y90.558 F9000.000
G1 X132.930 Y92.500 F9000.000
G1 X132.930 Y107.500 F9000.000
G1 X132.930 Y109.442 F9000.000
G1 X131.266 Y109.750 F9000.000
G1 X127.372 Y109.750 F9000.000
G1 X126.867 Y109.245 F9000.000
G1 Z0.300 F9000.000
G1 E2.00000 F2400.000
G1 X135.083 Y109.245 E2.08489 F2400.000
G1 X135.083 Y110.255 E2.09532
G1 X126.867 Y110.255 E2.18020
G1 X126.867 Y109.320 E2.18986
G1 X127.105 Y109.483 F9000.000
G1 X134.845 Y109.483 E2.26983 F2400.000
G1 X134.845 Y110.017 E2.27535
G1 X127.105 Y110.017 E2.35533
G1 X127.105 Y109.558 E2.36007
G1 F2400.000 E0.36007
G1 Z0.600 F9000.000
G92 E0
G1 X74.975 Y106.590 F9000.000
G1 X73.825 Y106.250 F9000.000
G1 Z0.300 F9000.000
G1 E2.00000 F2400.000
G1 X65.825 Y106.250 E2.08265 F2400.000
G1 X65.825 Y114.850 E2.17151
G1 X44.125 Y114.850 E2.39570
G1 X44.125 Y85.150 E2.70255
G1 X65.825 Y85.150 E2.92675
G1 X65.825 Y93.750 E3.01560
G1 X73.825 Y93.750 E3.09825 F2400.000
G1 X73.825 Y106.175 E3.22662
G1 F2400.000 E1.22662
G1 Z0.600 F9000.000
G92 E0
G1 X65.575 Y94.183 F9000.000
G1 X65.589 Y93.986 F9000.000
G1 Z0.300 F9000.000
G1 E2.00000 F2400.000
G1 X73.589 Y93.986 E2.08265 F2400.000
G1 X73.589 Y106.014 E2.20693
G1 X65.589 Y106.014 E2.28958
G1 X65.589 Y114.614 E2.37843
G1 X44.361 Y114.614 E2.59776
G1 X44.361 Y85.386 E2.89974
G1 X65.589 Y85.386 E3.11907 F2400.000
G1 X65.589 Y93.911 E3.20715
G1 X65.354 Y93.911 F9000.000
G1 X65.354 Y94.221 E3.21036 F2400.000
G1 X73.354 Y94.221 E3.29301 F2400.000
G1 X73.354 Y105.779 E3.41242
G1 X65.354 Y105.779 E3.49507
G1 X65.354 Y114.379 E3.58392
G1 X44.596 Y114.379 E3.79838
G1 X44.596 Y85.621 E4.09550
G1 X65.354 Y85.621 E4.30995
G1 X65.354 Y93.836 E4.39482
G1 F2400.000 E2.39482
G1 Z0.600 F9000.000
G92 E0
G1 X44.832 Y89.817 F9000.000
G1 Z0.300 F9000.000
G1 E2.00000 F2400.000
G1 X44.832 Y85.857 E2.04091 F2400.000
G1 X65.118 Y85.857 E2.25051 F2400.000
G1 X65.118 Y94.457 E2.33936
G1 X73.118 Y94.457 E2.42201
G1 X73.118 Y105.543 E2.53655
G1 X65.118 Y105.543 E2.61920
G1 X65.118 Y114.143 E2.70805
G1 X44.832 Y114.143 E2.91765
G1 X44.832 Y100.002 E3.06375
G1 X44.853 Y100.000 E3.06397
G1 X44.832 Y99.998 E3.06419
G1 X44.832 Y89.892 E3.16860
G1 F2400.000 E1.16860
G1 Z0.600 F9000.000
G92 E0
G1 X48.694 Y93.754 F9000.000
G1 Z0.300 F9000.000
G1 E2.00000 F2400.000
G1 X49.125 Y93.324 E2.00629 F2400.000
G1 X51.425 Y92.152 E2.03296
G1 X53.908 Y91.759 E2.05894
G1 X53.975 Y91.748 E2.05964 F2400.000
