; generated by Slic3r 1.2.0 on 2014-10-25 at 09:30:51

; external perimeters extrusion width = 0.50mm
; perimeters extrusion width = 0.72mm
; infill extrusion width = 0.72mm
; solid infill extrusion width = 0.72mm
; top infill extrusion width = 0.72mm

G21 ; set units to millimeters
M107
M190 S110 ; wait for bed temperature to be reached
M104 S235 ; set temperature
G28 ; home all axes
M109 S235 ; wait for temperature to be reached
G90 ; use absolute coordinates
G92 E0
M82 ; use absolute distances for extrusion
G1 F1800.000 E-1.00000
G1 Z0.700 F9000.000
G92 E0
G1 X39.165 Y79.367 F9000.000
G1 Z0.400 F9000.000
G1 E1.00000 F1800.000
G1 X42.350 Y78.529 E1.03403 F2400.000
G1 X64.522 Y78.531 E1.26310
G1 X139.625 Y80.531 E2.03932 F2400.000
G1 X141.846 Y80.987 E2.06273
G1 X143.772 Y82.181 E2.08615
G1 X145.169 Y83.966 E2.10957
G1 X145.924 Y87.000 E2.14187
G1 X145.924 Y113.000 E2.41049
G1 X145.527 Y115.231 E2.43391
G1 X144.385 Y117.189 E2.45733
G1 X142.638 Y118.633 E2.48074
G1 X139.625 Y119.469 E2.51305
G1 X64.350 Y121.471 E3.29104
G1 X42.350 Y121.471 E3.51834
G1 X40.119 Y121.074 E3.54175
G1 X38.161 Y119.932 E3.56517
G1 X36.717 Y118.185 E3.58859
G1 X35.879 Y115.000 E3.62262
G1 X35.879 Y85.000 E3.93256
G1 X36.276 Y82.769 E3.95598
G1 X37.418 Y80.811 E3.97940
G1 X39.107 Y79.415 E4.00204
G1 X39.264 Y79.612 F9000.000
G1 X39.389 Y79.512 E4.00369 F2400.000
G1 X42.350 Y78.764 E4.03524
G1 X64.516 Y78.767 E4.26425
G1 X139.619 Y80.767 E5.04046 F2400.000
G1 X141.797 Y81.222 E5.06345
G1 X143.676 Y82.412 E5.08643
G1 X145.018 Y84.186 E5.10941
G1 X145.689 Y87.000 E5.13930
G1 X145.689 Y113.000 E5.40792
G1 X145.292 Y115.189 E5.43091
G1 X144.152 Y117.099 E5.45389
G1 X142.414 Y118.488 E5.47687
G1 X139.619 Y119.233 E5.50676
G1 X64.350 Y121.236 E6.28469
G1 X42.350 Y121.236 E6.51198
G1 X40.161 Y120.839 E6.53497
G1 X38.251 Y119.699 E6.55795
G1 X36.862 Y117.961 E6.58093
G1 X36.114 Y115.000 E6.61248
G1 X36.114 Y85.000 E6.92243
G1 X36.511 Y82.811 E6.94542
G1 X37.651 Y80.901 E6.96840
G1 X39.206 Y79.659 E6.98896
G1 F1800.000 E5.98896
G1 Z0.700 F9000.000
G92 E0
G1 X83.397 Y87.150 F9000.000
G1 Z0.400 F9000.000
G1 E1.00000 F1800.000
G1 X103.303 Y87.150 E1.20566 F2400.000
G1 X103.303 Y93.350 E1.26972
G1 X95.570 Y93.350 E1.34962 F2400.000
G1 X95.570 Y106.650 E1.48703
G1 X103.303 Y106.650 E1.56693
G1 X103.303 Y112.850 E1.63098
G1 X83.397 Y112.850 E1.83665
G1 X83.397 Y106.650 E1.90070
G1 X89.541 Y106.650 E1.96418
G1 X89.541 Y93.350 E2.10159
G1 X83.397 Y93.350 E2.16508
G1 X83.397 Y87.225 E2.22836
G1 F1800.000 E1.22836
G1 Z0.700 F9000.000
G92 E0
G1 X103.553 Y92.917 F9000.000
G1 X103.068 Y92.917 F9000.000
G1 Z0.400 F9000.000
G1 E1.00000 F1800.000
G1 X103.068 Y93.114 E1.00204 F2400.000
G1 X95.334 Y93.114 E1.08194
G1 X95.334 Y106.886 E1.22422
G1 X103.068 Y106.886 E1.30411
G1 X103.068 Y112.614 E1.36330
G1 X83.632 Y112.614 E1.56410
G1 X83.632 Y106.886 E1.62328
G1 X89.777 Y106.886 E1.68677
G1 X89.777 Y93.114 E1.82905
G1 X83.632 Y93.114 E1.89253
G1 X83.632 Y87.386 E1.95171
G1 X103.068 Y87.386 E2.15251 F2400.000
G1 X103.068 Y92.842 E2.20888
G1 X102.832 Y92.842 F9000.000
G1 X102.832 Y92.879 E2.20926 F2400.000
G1 X95.099 Y92.879 E2.28916 F2400.000
G1 X95.099 Y107.121 E2.43631
G1 X102.832 Y107.121 E2.51621
G1 X102.832 Y112.379 E2.57052
G1 X83.868 Y112.379 E2.76645
G1 X83.868 Y107.121 E2.82077
G1 X90.012 Y107.121 E2.88425
G1 X90.012 Y92.879 E3.03140
G1 X83.868 Y92.879 E3.09488
G1 X83.868 Y87.621 E3.14920
G1 X102.832 Y87.621 E3.34513
G1 X102.832 Y92.767 E3.39829
G1 F1800.000 E2.39829
G1 Z0.700 F9000.000
G92 E0
G1 X99.494 Y92.643 F9000.000
G1 Z0.400 F9000.000
G1 E1.00000 F1800.000
G1 X94.863 Y92.643 E1.04784 F2400.000
G1 X94.863 Y107.357 E1.19986
G1 X102.596 Y107.357 E1.27976
G1 X102.596 Y112.143 E1.32921
G1 X84.104 Y112.143 E1.52027
G1 X84.104 Y107.357 E1.56972
G1 X90.248 Y107.357 E1.63320
G1 X90.248 Y92.643 E1.78521
G1 X84.104 Y92.643 E1.84870
G1 X84.104 Y87.857 E1.89815
G1 X102.596 Y87.857 E2.08920 F2400.000
G1 X102.596 Y92.643 E2.13865
G1 X99.569 Y92.643 E2.16993
G1 F1800.000 E1.16993
G1 Z0.700 F9000.000
G92 E0
G1 X84.328 Y88.081 F9000.000
G1 Z0.400 F9000.000
G1 E1.00000 F1800.000
G1 X102.372 Y88.081 E1.18643 F2400.000
G1 X102.372 Y92.419 E1.23126
G1 X94.639 Y92.419 E1.31116
G1 X94.639 Y107.581 E1.46780
G1 X102.372 Y107.581 E1.54770
G1 X102.372 Y111.919 E1.59252
G1 X84.328 Y111.919 E1.77895
G1 X84.328 Y107.581 E1.82378
G1 X90.472 Y107.581 E1.88726
G1 X90.472 Y92.419 E2.04390
G1 X84.328 Y92.419 E2.10738
G1 X84.328 Y88.156 E2.15143
G1 X84.563 Y88.316 F9000.000
G1 X102.137 Y88.316 E2.33300 F2400.000
G1 X102.137 Y92.184 E2.37295
G1 X94.403 Y92.184 E2.45285
G1 X94.403 Y107.816 E2.61436
G1 X102.137 Y107.816 E2.69426
G1 X102.137 Y111.684 E2.73421
G1 X84.563 Y111.684 E2.91578
G1 X84.563 Y107.816 E2.95573
G1 X90.708 Y107.816 E3.01921
G1 X90.708 Y92.184 E3.18072
G1 X84.563 Y92.184 E3.24420
G1 X84.563 Y88.391 E3.28338
G1 X84.799 Y88.552 F9000.000
G1 X101.901 Y88.552 E3.46008 F2400.000
G1 X101.901 Y91.948 E3.49516
G1 X94.168 Y91.948 E3.57506
G1 X94.168 Y108.052 E3.74144
G1 X101.901 Y108.052 E3.82134
G1 X101.901 Y111.448 E3.85642
G1 X84.799 Y111.448 E4.03311
G1 X84.799 Y108.052 E4.06820
G1 X90.943 Y108.052 E4.13168
G1 X90.943 Y91.948 E4.29806
G1 X84.799 Y91.948 E4.36154
G1 X84.799 Y88.627 E4.39585
G1 X85.035 Y88.788 F9000.000
G1 X101.665 Y88.788 E4.56767 F2400.000
G1 X101.665 Y91.712 E4.59788
G1 X93.932 Y91.712 E4.67778
G1 X93.932 Y108.288 E4.84904
G1 X101.665 Y108.288 E4.92893
G1 X101.665 Y111.212 E4.95915
G1 X85.035 Y111.212 E5.13097
G1 X85.035 Y108.288 E5.16118
G1 X91.179 Y108.288 E5.22466
G1 X91.179 Y91.712 E5.39591
G1 X85.035 Y91.712 E5.45940
G1 X85.035 Y88.863 E5.48883
G1 X85.270 Y89.024 F9000.000
G1 X101.430 Y89.024 E5.65578 F2400.000
G1 X101.430 Y91.476 E5.68113
G1 X93.696 Y91.476 E5.76102
G1 X93.696 Y108.524 E5.93715
G1 X101.430 Y108.524 E6.01705
G1 X101.430 Y110.976 E6.04239
G1 X85.270 Y110.976 E6.20934
G1 X85.270 Y108.524 E6.23468
G1 X91.415 Y108.524 E6.29816
G1 X91.415 Y91.476 E6.47429
G1 X85.270 Y91.476 E6.53777
G1 X85.270 Y89.099 E6.56233
G1 X85.506 Y89.259 F9000.000
G1 X101.194 Y89.259 E6.72441 F2400.000
G1 X101.194 Y91.241 E6.74488
G1 X93.460 Y91.241 E6.82478
G1 X93.460 Y108.759 E7.00578
G1 X101.194 Y108.759 E7.08567
G1 X101.194 Y110.741 E7.10615
G1 X85.506 Y110.741 E7.26822
G1 X85.506 Y108.759 E7.28870
G1 X91.650 Y108.759 E7.35218
G1 X91.650 Y91.241 E7.53317
G1 X85.506 Y91.241 E7.59665
G1 X85.506 Y89.334 E7.61635
G1 X85.742 Y89.495 F9000.000
G1 X100.958 Y89.495 E7.77356 F2400.000
G1 X100.958 Y91.005 E7.78916
G1 X93.225 Y91.005 E7.86906
G1 X93.225 Y108.995 E8.05492
G1 X100.958 Y108.995 E8.13482
G1 X100.958 Y110.505 E8.15042
G1 X85.742 Y110.505 E8.30763
G1 X85.742 Y108.995 E8.32323
G1 X91.886 Y108.995 E8.38671
G1 X91.886 Y91.005 E8.57258
G1 X85.742 Y91.005 E8.63606
G1 X85.742 Y89.570 E8.65088
G1 X85.978 Y89.731 F9000.000
G1 X100.722 Y89.731 E8.80322 F2400.000
G1 X100.722 Y90.769 E8.81395
G1 X92.989 Y90.769 E8.89385
G1 X92.989 Y109.231 E9.08458
G1 X100.722 Y109.231 E9.16448
G1 X100.722 Y110.269 E9.17521
G1 X85.978 Y110.269 E9.32755
G1 X85.978 Y109.231 E9.33828
G1 X92.122 Y109.231 E9.40176
G1 X92.122 Y90.769 E9.59250
G1 X85.978 Y90.769 E9.65598
G1 X85.978 Y89.806 E9.66593
G1 X86.213 Y89.966 F9000.000
G1 X100.487 Y89.966 E9.81340 F2400.000
G1 X100.487 Y90.534 E9.81926
G1 X92.753 Y90.534 E9.89915
G1 X92.753 Y109.466 E10.09476
G1 X100.487 Y109.466 E10.17466
G1 X100.487 Y110.034 E10.18052
G1 X86.213 Y110.034 E10.32798
G1 X86.213 Y109.466 E10.33384
G1 X92.358 Y109.466 E10.39732
G1 X92.358 Y90.534 E10.59293
G1 X86.213 Y90.534 E10.65641
G1 X86.213 Y90.041 E10.66150
G1 F1800.000 E9.66150
G1 Z0.700 F9000.000
G92 E0
G1 X115.638 Y86.000 F9000.000
G1 X119.397 Y90.041 F9000.000
G1 Z0.400 F9000.000
G1 E1.00000 F1800.000
G1 X119.397 Y87.150 E1.02987 F2400.000
G1 X139.303 Y87.150 E1.23554
G1 X139.303 Y93.350 E1.29959
G1 X131.570 Y93.350 E1.37949 F2400.000
G1 X131.570 Y106.650 E1.51690
G1 X139.303 Y106.650 E1.59680
G1 X139.303 Y112.850 E1.66086
G1 X119.397 Y112.850 E1.86652
G1 X119.397 Y106.650 E1.93058
G1 X125.541 Y106.650 E1.99406
G1 X125.541 Y93.350 E2.13147
G1 X119.397 Y93.350 E2.19495
G1 X119.397 Y90.116 E2.22836
G1 F1800.000 E1.22836
G1 Z0.700 F9000.000
G92 E0
G1 X139.453 Y93.500 F9000.000
G1 X139.553 Y92.917 F9000.000
G1 X139.068 Y92.917 F9000.000
G1 Z0.400 F9000.000
G1 E1.00000 F1800.000
G1 X139.068 Y93.114 E1.00204 F2400.000
G1 X131.334 Y93.114 E1.08194
G1 X131.334 Y106.886 E1.22422
G1 X139.068 Y106.886 E1.30411
G1 X139.068 Y112.614 E1.36330
G1 X119.632 Y112.614 E1.56410
G1 X119.632 Y106.886 E1.62328
G1 X125.777 Y106.886 E1.68677
G1 X125.777 Y93.114 E1.82905
G1 X119.632 Y93.114 E1.89253
G1 X119.632 Y87.386 E1.95171
G1 X139.068 Y87.386 E2.15251 F2400.000
G1 X139.068 Y92.842 E2.20888
G1 X138.832 Y92.842 F9000.000
G1 X138.832 Y92.879 E2.20926 F2400.000
G1 X131.099 Y92.879 E2.28916 F2400.000
G1 X131.099 Y107.121 E2.43631
G1 X138.832 Y107.121 E2.51621
G1 X138.832 Y112.379 E2.57052
G1 X119.868 Y112.379 E2.76645
G1 X119.868 Y107.121 E2.82077
G1 X126.012 Y107.121 E2.88425
G1 X126.012 Y92.879 E3.03140
G1 X119.868 Y92.879 E3.09488
G1 X119.868 Y87.621 E3.14920
G1 X138.832 Y87.621 E3.34513
G1 X138.832 Y92.767 E3.39829
G1 F1800.000 E2.39829
G1 Z0.700 F9000.000
G92 E0
G1 X138.453 Y92.500 F9000.000
G1 X130.720 Y92.500 F9000.000
G1 X130.720 Y107.500 F9000.000
G1 X138.453 Y107.500 F9000.000
G1 X138.453 Y112.000 F9000.000
G1 X120.247 Y112.000 F9000.000
G1 X120.247 Y107.500 F9000.000
G1 X120.104 Y107.357 F9000.000
G1 Z0.400 F9000.000
G1 E1.00000 F1800.000
G1 X126.248 Y107.357 E1.06348 F2400.000
G1 X126.248 Y92.643 E1.21550
G1 X120.104 Y92.643 E1.27898
G1 X120.104 Y87.857 E1.32843
G1 X138.596 Y87.857 E1.51949 F2400.000
G1 X138.596 Y92.643 E1.56894
G1 X130.863 Y92.643 E1.64883
G1 X130.863 Y107.357 E1.80085
G1 X138.596 Y107.357 E1.88075
G1 X138.596 Y112.143 E1.93020
G1 X120.104 Y112.143 E2.12126
G1 X120.104 Y107.432 E2.16993
G1 F1800.000 E1.16993
G1 Z0.700 F9000.000
G92 E0
G1 X120.247 Y88.000 F9000.000
G1 X120.328 Y88.081 F9000.000
G1 Z0.400 F9000.000
G1 E1.00000 F1800.000
G1 X138.372 Y88.081 E1.18643 F2400.000
G1 X138.372 Y92.419 E1.23126
G1 X130.639 Y92.419 E1.31116
G1 X130.639 Y107.581 E1.46780
G1 X138.372 Y107.581 E1.54770
G1 X138.372 Y111.919 E1.59252
G1 X120.328 Y111.919 E1.77895
G1 X120.328 Y107.581 E1.82378
G1 X126.472 Y107.581 E1.88726
G1 X126.472 Y92.419 E2.04390
G1 X120.328 Y92.419 E2.10738
G1 X120.328 Y88.156 E2.15143
G1 X120.563 Y88.316 F9000.000
G1 X138.137 Y88.316 E2.33300 F2400.000
G1 X138.137 Y92.184 E2.37295
G1 X130.403 Y92.184 E2.45285
G1 X130.403 Y107.816 E2.61436
G1 X138.137 Y107.816 E2.69426
G1 X138.137 Y111.684 E2.73421
G1 X120.563 Y111.684 E2.91578
G1 X120.563 Y107.816 E2.95573
G1 X126.708 Y107.816 E3.01921
G1 X126.708 Y92.184 E3.18072
G1 X120.563 Y92.184 E3.24420
G1 X120.563 Y88.391 E3.28338
G1 X120.799 Y88.552 F9000.000
G1 X137.901 Y88.552 E3.46008 F2400.000
G1 X137.901 Y91.948 E3.49516
G1 X130.168 Y91.948 E3.57506
G1 X130.168 Y108.052 E3.74144
G1 X137.901 Y108.052 E3.82134
G1 X137.901 Y111.448 E3.85642
G1 X120.799 Y111.448 E4.03311
G1 X120.799 Y108.052 E4.06820
G1 X126.943 Y108.052 E4.13168
G1 X126.943 Y91.948 E4.29806
G1 X120.799 Y91.948 E4.36154
G1 X120.799 Y88.627 E4.39585
G1 X121.035 Y88.788 F9000.000
G1 X137.665 Y88.788 E4.56767 F2400.000
G1 X137.665 Y91.712 E4.59788
G1 X129.932 Y91.712 E4.67778
G1 X129.932 Y108.288 E4.84904
G1 X137.665 Y108.288 E4.92893
G1 X137.665 Y111.212 E4.95915
G1 X121.035 Y111.212 E5.13097
G1 X121.035 Y108.288 E5.16118
G1 X127.179 Y108.288 E5.22466
G1 X127.179 Y91.712 E5.39591
G1 X121.035 Y91.712 E5.45940
G1 X121.035 Y88.863 E5.48883
G1 X121.270 Y89.024 F9000.000
G1 X137.430 Y89.024 E5.65578 F2400.000
G1 X137.430 Y91.476 E5.68113
G1 X129.696 Y91.476 E5.76102
G1 X129.696 Y108.524 E5.93715
G1 X137.430 Y108.524 E6.01705
G1 X137.430 Y110.976 E6.04239
G1 X121.270 Y110.976 E6.20934
G1 X121.270 Y108.524 E6.23468
G1 X127.415 Y108.524 E6.29816
G1 X127.415 Y91.476 E6.47429
G1 X121.270 Y91.476 E6.53777
G1 X121.270 Y89.099 E6.56233
G1 X121.506 Y89.259 F9000.000
G1 X137.194 Y89.259 E6.72441 F2400.000
G1 X137.194 Y91.241 E6.74488
G1 X129.461 Y91.241 E6.82478
G1 X129.461 Y108.759 E7.00578
G1 X137.194 Y108.759 E7.08567
G1 X137.194 Y110.741 E7.10615
G1 X121.506 Y110.741 E7.26822
G1 X121.506 Y108.759 E7.28870
G1 X127.650 Y108.759 E7.35218
G1 X127.650 Y91.241 E7.53317
G1 X121.506 Y91.241 E7.59665
G1 X121.506 Y89.334 E7.61635
G1 X121.742 Y89.495 F9000.000
G1 X136.958 Y89.495 E7.77356 F2400.000
G1 X136.958 Y91.005 E7.78916
G1 X129.225 Y91.005 E7.86906
G1 X129.225 Y108.995 E8.05492
G1 X136.958 Y108.995 E8.13482
G1 X136.958 Y110.505 E8.15042
G1 X121.742 Y110.505 E8.30763
G1 X121.742 Y108.995 E8.32323
G1 X127.886 Y108.995 E8.38671
G1 X127.886 Y91.005 E8.57258
G1 X121.742 Y91.005 E8.63606
G1 X121.742 Y89.570 E8.65088
G1 X121.978 Y89.731 F9000.000
G1 X136.722 Y89.731 E8.80322 F2400.000
G1 X136.722 Y90.769 E8.81395
G1 X128.989 Y90.769 E8.89385
G1 X128.989 Y109.231 E9.08458
G1 X136.722 Y109.231 E9.16448
G1 X136.722 Y110.269 E9.17521
G1 X121.978 Y110.269 E9.32755
G1 X121.978 Y109.231 E9.33828
G1 X128.122 Y109.231 E9.40176
G1 X128.122 Y90.769 E9.59250
G1 X121.978 Y90.769 E9.65598
G1 X121.978 Y89.806 E9.66593
G1 X122.213 Y89.966 F9000.000
G1 X136.487 Y89.966 E9.81340 F2400.000
G1 X136.487 Y90.534 E9.81926
G1 X128.753 Y90.534 E9.89915
G1 X128.753 Y109.466 E10.09476
G1 X136.487 Y109.466 E10.17466
G1 X136.487 Y110.034 E10.18052
G1 X122.213 Y110.034 E10.32798
G1 X122.213 Y109.466 E10.33384
G1 X128.358 Y109.466 E10.39732
G1 X128.358 Y90.534 E10.59293
G1 X122.213 Y90.534 E10.65641
G1 X122.213 Y90.041 E10.66150
G1 F1800.000 E9.66150
G1 Z0.700 F9000.000
G92 E0
G1 X73.350 Y93.410 F9000.000
G1 X72.200 Y93.750 F9000.000
G1 Z0.400 F9000.000
G1 E1.00000 F1800.000
G1 X72.200 Y106.250 E1.12915 F2400.000
G1 X64.200 Y106.250 E1.21180
G1 X64.200 Y114.850 E1.30065
G1 X42.500 Y114.850 E1.52485
G1 X42.500 Y85.150 E1.83170
G1 X64.200 Y85.150 E2.05589
G1 X64.200 Y93.750 E2.14474
G1 X72.125 Y93.750 E2.22662 F2400.000
G1 F1800.000 E1.22662
G1 Z0.700 F9000.000
G92 E0
G1 X64.633 Y94.000 F9000.000
G1 X64.633 Y93.986 F9000.000
G1 Z0.400 F9000.000
G1 E1.00000 F1800.000
G1 X71.964 Y93.986 E1.07574 F2400.000
G1 X71.964 Y106.014 E1.20002
G1 X63.964 Y106.014 E1.28267
G1 X63.964 Y114.614 E1.37153
G1 X42.736 Y114.614 E1.59085
G1 X42.736 Y85.386 E1.89284
G1 X63.964 Y85.386 E2.11216 F2400.000
G1 X63.964 Y93.986 E2.20102
G1 X64.558 Y93.986 E2.20715
G1 X64.558 Y94.221 F9000.000
G1 X71.729 Y94.221 E2.28123 F2400.000
G1 X71.729 Y105.779 E2.40064
G1 X63.729 Y105.779 E2.48330
G1 X63.729 Y114.379 E2.57215
G1 X42.971 Y114.379 E2.78661
G1 X42.971 Y85.621 E3.08372
G1 X63.729 Y85.621 E3.29818
G1 X63.729 Y94.221 E3.38703
G1 X64.483 Y94.221 E3.39482 F2400.000
G1 F1800.000 E2.39482
G1 Z0.700 F9000.000
G92 E0
G1 X71.493 Y98.397 F9000.000
G1 Z0.400 F9000.000
G1 E1.00000 F1800.000
G1 X71.493 Y105.543 E1.07383 F2400.000
G1 X63.493 Y105.543 E1.15649
G1 X63.493 Y114.143 E1.24534
G1 X43.207 Y114.143 E1.45493
G1 X43.207 Y101.859 E1.58184
G1 X43.376 Y101.842 E1.58359
G1 X43.589 Y102.847 E1.59421
G1 X44.373 Y104.606 E1.61411
G1 X45.504 Y106.164 E1.63400
G1 X46.936 Y107.452 E1.65390
G1 X48.603 Y108.415 E1.67379
G1 X50.435 Y109.010 E1.69369
G1 X52.350 Y109.212 E1.71359
G1 X54.265 Y109.010 E1.73348
G1 X56.097 Y108.415 E1.75338
G1 X57.764 Y107.452 E1.77327
G1 X59.196 Y106.164 E1.79317
G1 X60.327 Y104.606 E1.81307
G1 X61.111 Y102.847 E1.83296
G1 X61.511 Y100.963 E1.85286
G1 X61.511 Y99.037 E1.87275
G1 X61.111 Y97.153 E1.89265
G1 X60.327 Y95.394 E1.91255
G1 X59.196 Y93.836 E1.93244
G1 X57.764 Y92.548 E1.95234
G1 X56.097 Y91.585 E1.97223
G1 X54.265 Y90.990 E1.99213
G1 X52.350 Y90.788 E2.01203
G1 X50.435 Y90.990 E2.03192
G1 X48.603 Y91.585 E2.05182
G1 X46.936 Y92.548 E2.07172
G1 X45.504 Y93.836 E2.09161
G1 X44.373 Y95.394 E2.11151
G1 X43.589 Y97.153 E2.13140
G1 X43.376 Y98.158 E2.14202
G1 X43.207 Y98.141 E2.14377
G1 X43.207 Y85.857 E2.27068
G1 X63.493 Y85.857 E2.48027 F2400.000
G1 X63.493 Y94.457 E2.56913
G1 X71.493 Y94.457 E2.65178
G1 X71.493 Y98.322 E2.69171
G1 F1800.000 E1.69171
G1 Z0.700 F9000.000
G92 E0
