; generated by Slic3r 1.2.1 on 2014-11-27 at 08:30:43

; external perimeters extrusion width = 0.50mm
; perimeters extrusion width = 0.72mm
; infill extrusion width = 0.72mm
; solid infill extrusion width = 0.72mm
; top infill extrusion width = 0.72mm

M190 S110 ; wait for bed temperature to be reached
M104 S245 ; set temperature
G28 ; home all axes
M109 S245 ; wait for temperature to be reached
G21 ; set units to millimeters
G90 ; use absolute coordinates
M82 ; use absolute distances for extrusion
G92 E0
M106 S89
G1 E-2.00000 F2400.000
G92 E0
G1 Z0.300 F6000.000
G1 Z0.350 F6000.000
G1 Z0.650 F6000.000
G1 X67.027 Y39.084 F6000.000
G1 Z0.350 F6000.000
G1 E2.00000 F2400.000
G1 X68.824 Y37.283 E2.06640 F3000.000
G1 X71.090 Y36.125 E2.13280
G1 X72.407 Y35.813 E2.16813
G1 X109.789 Y30.192 E3.15462
G1 X110.842 Y30.103 E3.18217
G1 X134.082 Y29.650 E3.78877
G1 X146.154 Y29.648 E4.10380
G1 X149.687 Y30.455 E4.19837
G1 X151.411 Y31.285 E4.24831 F3000.000
G1 X154.244 Y33.544 E4.34287
G1 X155.402 Y34.996 E4.39131
G1 X155.438 Y35.041 E4.39281
G1 X157.010 Y38.306 E4.48738
G1 X157.436 Y40.171 E4.53732
G1 X157.637 Y41.784 E4.57974
G1 X158.567 Y79.824 E5.57272
G1 X158.569 Y100.023 E6.09983
G1 X158.365 Y101.835 E6.14741
G1 X157.939 Y103.701 E6.19734
G1 X156.367 Y106.966 E6.29191
G1 X155.174 Y108.462 E6.34185
G1 X152.340 Y110.721 E6.43642
G1 X150.616 Y111.552 E6.48636
G1 X147.083 Y112.358 E6.58092
G1 X135.009 Y112.356 E6.89600
G1 X110.840 Y111.880 E7.52685
G1 X107.467 Y111.075 E7.61733
G1 X105.360 Y110.048 E7.67853
G1 X84.447 Y98.574 E8.30099
G1 X83.501 Y97.967 E8.33033
G1 X81.946 Y96.809 E8.38092
G1 X80.571 Y95.512 E8.43026
G1 X79.325 Y94.027 E8.48085
G1 X78.491 Y92.829 E8.51894
G1 X66.546 Y71.901 E9.14775
G1 X65.646 Y69.522 E9.21415
G1 X65.475 Y67.865 E9.25760
G1 X65.475 Y43.865 E9.88390
G1 X65.873 Y41.352 E9.95030
G1 X66.993 Y39.151 E10.01474
G1 X67.482 Y39.411 F6000.000
G1 X67.559 Y39.266 E10.01901 F3000.000
G1 X69.343 Y37.574 E10.08318
G1 X72.487 Y36.343 E10.17128
G1 X109.869 Y30.722 E11.15778
G1 X110.852 Y30.639 E11.18352
G1 X134.092 Y30.186 E11.79011
G1 X146.154 Y30.184 E12.10488
G1 X149.455 Y30.937 E12.19322
G1 X151.179 Y31.768 E12.24316 F3000.000
G1 X153.826 Y33.878 E12.33150
G1 X155.019 Y35.375 E12.38145
G1 X156.488 Y38.425 E12.46979
G1 X156.914 Y40.291 E12.51973
G1 X157.102 Y41.797 E12.55936
G1 X158.031 Y79.837 E13.55234
G1 X158.033 Y100.023 E14.07911
G1 X157.843 Y101.716 E14.12356
G1 X157.417 Y103.581 E14.17350
G1 X155.948 Y106.632 E14.26184
G1 X154.755 Y108.128 E14.31178
G1 X152.108 Y110.239 E14.40013
G1 X150.384 Y111.069 E14.45007
G1 X147.083 Y111.822 E14.53841
G1 X135.020 Y111.821 E14.85322
G1 X110.850 Y111.345 E15.48407
G1 X107.700 Y110.593 E15.56859
G1 X105.617 Y109.578 E15.62905
G1 X84.705 Y98.105 E16.25151
G1 X83.821 Y97.537 E16.27892
G1 X82.266 Y96.380 E16.32951
G1 X80.981 Y95.168 E16.37560
G1 X79.735 Y93.682 E16.42619
G1 X78.956 Y92.563 E16.46178
G1 X67.011 Y71.636 E17.09059
G1 X66.154 Y69.332 E17.15475
G1 X66.011 Y67.865 E17.19320
G1 X66.011 Y43.865 E17.81950
G1 X66.408 Y41.439 E17.88366
G1 X67.447 Y39.477 E17.94160
G1 X67.931 Y39.744 F6000.000
G1 X68.091 Y39.455 E17.95023 F3000.000
G1 X69.859 Y37.876 E18.01208
G1 X72.566 Y36.873 E18.08744
G1 X109.949 Y31.251 E19.07393
G1 X110.862 Y31.174 E19.09786
G1 X134.103 Y30.721 E19.70445
G1 X146.154 Y30.720 E20.01894
G1 X149.222 Y31.420 E20.10107
G1 X150.946 Y32.250 E20.15101 F3000.000
G1 X153.407 Y34.212 E20.23313
G1 X154.600 Y35.709 E20.28307
G1 X155.966 Y38.544 E20.36520
G1 X156.391 Y40.410 E20.41514
G1 X156.567 Y41.810 E20.45198
G1 X157.496 Y79.851 E21.44496
G1 X157.498 Y100.023 E21.97138
G1 X157.321 Y101.597 E22.01270
G1 X156.895 Y103.462 E22.06264
G1 X155.529 Y106.298 E22.14477
G1 X154.336 Y107.794 E22.19471
G1 X151.876 Y109.756 E22.27683
G1 X150.151 Y110.586 E22.32677
G1 X147.083 Y111.287 E22.40889
G1 X135.031 Y111.285 E22.72342
G1 X110.861 Y110.809 E23.35427
G1 X107.932 Y110.110 E23.43285
G1 X105.875 Y109.108 E23.49256
G1 X84.962 Y97.635 E24.11503
G1 X84.141 Y97.108 E24.14050
G1 X82.586 Y95.950 E24.19110
G1 X81.392 Y94.823 E24.23394
G1 X80.145 Y93.338 E24.28454
G1 X79.421 Y92.298 E24.31761
G1 X67.477 Y71.370 E24.94643
G1 X66.663 Y69.144 E25.00827
G1 X66.547 Y67.865 E25.04179
G1 X66.547 Y43.865 E25.66809
G1 X66.944 Y41.529 E25.72994
G1 X67.894 Y39.810 E25.78120
G1 X68.370 Y40.086 F6000.000
G1 X68.622 Y39.652 E25.79429 F3000.000
G1 X70.371 Y38.193 E25.85373
G1 X72.646 Y37.402 E25.91658
G1 X110.028 Y31.781 E26.90307
G1 X110.873 Y31.710 E26.92518
G1 X134.113 Y31.257 E27.53178
G1 X146.154 Y31.255 E27.84600
G1 X148.990 Y31.903 E27.92190
G1 X150.714 Y32.733 E27.97184 F3000.000
G1 X152.988 Y34.546 E28.04774
G1 X154.181 Y36.043 E28.09768
G1 X155.443 Y38.663 E28.17359
G1 X155.869 Y40.529 E28.22353
G1 X156.031 Y41.824 E28.25758
G1 X156.960 Y79.864 E29.25056
G1 X156.962 Y100.023 E29.77664
G1 X156.798 Y101.477 E29.81483
G1 X156.373 Y103.343 E29.86477
G1 X155.111 Y105.964 E29.94068
G1 X153.917 Y107.460 E29.99062
G1 X151.643 Y109.274 E30.06652
G1 X149.919 Y110.104 E30.11646
G1 X147.083 Y110.751 E30.19236
G1 X135.041 Y110.750 E30.50662
G1 X110.871 Y110.274 E31.13746
G1 X108.165 Y109.628 E31.21009
G1 X106.132 Y108.639 E31.26906
G1 X85.220 Y97.166 E31.89153
G1 X84.461 Y96.678 E31.91507
G1 X82.906 Y95.520 E31.96567
G1 X81.802 Y94.479 E32.00527
G1 X80.556 Y92.994 E32.05586
G1 X79.886 Y92.032 E32.08643
G1 X67.942 Y71.105 E32.71525
G1 X67.082 Y67.865 E32.80271
G1 X67.082 Y43.865 E33.42901
G1 X67.479 Y41.622 E33.48845
G1 X68.333 Y40.151 E33.53285
G1 E31.53285 F2400.000
G92 E0
G1 Z0.650 F6000.000
G1 X69.992 Y41.810 F6000.000
G1 Z0.350 F6000.000
G1 E2.00000 F2400.000
G1 X71.954 Y39.848 E2.07240 F3000.000
G1 X97.282 Y39.848 E2.73336
G1 X99.635 Y42.201 E2.82020
G1 X99.635 Y45.134 E2.89674
G1 X99.949 Y45.448 E2.90832
G1 X103.326 Y45.448 E2.99645
G1 X103.640 Y45.134 E3.00803
G1 X103.640 Y42.211 E3.08433
G1 X103.690 Y41.762 E3.09611
G1 X104.267 Y39.235 E3.16375
G1 X104.660 Y38.420 E3.18737
G1 X106.418 Y36.216 E3.26093
G1 X107.125 Y35.651 E3.28456
G1 X109.665 Y34.428 E3.35812
G1 X110.548 Y34.227 E3.38174
G1 X113.366 Y34.227 E3.45530
G1 X114.249 Y34.428 E3.47892
G1 X116.835 Y35.673 E3.55382
G1 X117.079 Y35.673 E3.56020
G1 X119.665 Y34.428 E3.63510
G1 X120.548 Y34.227 E3.65872
G1 X123.366 Y34.227 E3.73228
G1 X124.249 Y34.428 E3.75590
G1 X126.789 Y35.651 E3.82946
G1 X127.497 Y36.216 E3.85309
G1 X128.139 Y37.021 E3.87996
G1 X128.655 Y37.021 E3.89343
G1 X129.658 Y35.763 E3.93542
G1 X130.366 Y35.198 E3.95905
G1 X132.906 Y33.975 E4.03261
G1 X133.788 Y33.774 E4.05623
G1 X136.607 Y33.774 E4.12979
G1 X137.489 Y33.975 E4.15341
G1 X140.075 Y35.220 E4.22831 F3000.000
G1 X140.320 Y35.220 E4.23469
G1 X142.906 Y33.975 E4.30959
G1 X143.788 Y33.774 E4.33321
G1 X146.607 Y33.774 E4.40677
G1 X147.489 Y33.975 E4.43039
G1 X150.029 Y35.198 E4.50395
G1 X150.737 Y35.763 E4.52758
G1 X152.177 Y37.568 E4.58783
G1 X152.495 Y37.967 E4.60114
G1 X152.887 Y38.782 E4.62476
G1 X153.515 Y41.531 E4.69833
G1 X153.515 Y42.436 E4.72195
G1 X152.887 Y45.184 E4.79551
G1 X152.495 Y46.000 E4.81913
G1 X150.737 Y48.204 E4.89270
G1 X150.029 Y48.768 E4.91632
G1 X149.379 Y49.081 E4.93516
G1 X149.215 Y49.343 E4.94321
G1 X149.215 Y59.624 E5.21151
G1 X149.379 Y59.885 E5.21957
G1 X150.029 Y60.198 E5.23840
G1 X150.737 Y60.763 E5.26203
G1 X152.495 Y62.967 E5.33559
G1 X152.887 Y63.782 E5.35922
G1 X153.515 Y66.531 E5.43278
G1 X153.515 Y67.436 E5.45640
G1 X152.887 Y70.184 E5.52996
G1 X152.495 Y71.000 E5.55358
G1 X151.002 Y72.872 E5.61607
G1 X151.051 Y73.313 E5.62765
G1 X151.666 Y73.803 E5.64817
G1 X153.424 Y76.007 E5.72173
G1 X153.817 Y76.822 E5.74535
G1 X154.444 Y79.571 E5.81892
G1 X154.444 Y80.476 E5.84254
G1 X153.817 Y83.224 E5.91610
G1 X153.424 Y84.040 E5.93973
G1 X151.666 Y86.244 E6.01329
G1 X150.958 Y86.808 E6.03691
G1 X150.308 Y87.121 E6.05575
G1 X150.144 Y87.383 E6.06380
G1 X150.144 Y92.664 E6.20162
G1 X150.308 Y92.925 E6.20968
G1 X150.958 Y93.238 E6.22852
G1 X151.666 Y93.803 E6.25214
G1 X153.424 Y96.007 E6.32570
G1 X153.817 Y96.822 E6.34933
G1 X154.444 Y99.571 E6.42289
G1 X154.444 Y100.476 E6.44651
G1 X153.817 Y103.224 E6.52007
G1 X153.424 Y104.040 E6.54370
G1 X151.666 Y106.244 E6.61726
G1 X150.958 Y106.808 E6.64088
G1 X148.419 Y108.031 E6.71445
G1 X147.536 Y108.233 E6.73807
G1 X144.717 Y108.233 E6.81163
G1 X143.835 Y108.031 E6.83525
G1 X141.249 Y106.786 E6.91015
G1 X141.004 Y106.786 E6.91653
G1 X138.419 Y108.031 E6.99142
G1 X137.536 Y108.233 E7.01505
G1 X134.717 Y108.233 E7.08861
G1 X133.835 Y108.031 E7.11223
G1 X131.295 Y106.808 E7.18579
G1 X130.587 Y106.244 E7.20942
G1 X129.110 Y104.391 E7.27124
G1 X128.594 Y104.391 E7.28470
G1 X127.497 Y105.767 E7.33064
G1 X126.789 Y106.332 E7.35426
G1 X124.249 Y107.555 E7.42782
G1 X123.366 Y107.756 E7.45145
G1 X120.548 Y107.756 E7.52501
G1 X119.665 Y107.555 E7.54863
G1 X117.079 Y106.310 E7.62352
G1 X116.835 Y106.310 E7.62991
G1 X114.249 Y107.555 E7.70480
G1 X113.366 Y107.756 E7.72842
G1 X110.548 Y107.756 E7.80198
G1 X109.665 Y107.555 E7.82561
G1 X107.125 Y106.332 E7.89917
G1 X106.418 Y105.767 E7.92279
G1 X104.660 Y103.564 E7.99636
G1 X104.267 Y102.748 E8.01998
G1 X103.690 Y100.221 E8.08762
G1 X103.640 Y99.773 E8.09939
G1 X103.640 Y91.119 E8.32521
G1 X102.876 Y90.890 E8.34603
G1 X102.163 Y91.975 E8.37989
G1 X101.862 Y92.333 E8.39211
G1 X100.111 Y93.985 E8.45491
G1 X99.736 Y94.264 E8.46712
G1 X97.652 Y95.467 E8.52992
G1 X97.222 Y95.653 E8.54214
G1 X94.917 Y96.343 E8.60494
G1 X94.456 Y96.424 E8.61715
G1 X92.053 Y96.564 E8.67996
G1 X91.586 Y96.537 E8.69217
G1 X89.216 Y96.119 E8.75497
G1 X88.767 Y95.985 E8.76719
G1 X86.558 Y95.032 E8.82999
G1 X86.152 Y94.798 E8.84220
G1 X84.222 Y93.360 E8.90501
G1 X83.881 Y93.039 E8.91722
G1 X82.334 Y91.196 E8.98002
G1 X82.077 Y90.805 E8.99224
G1 X80.997 Y88.654 E9.05504
G1 X80.837 Y88.214 E9.06725
G1 X80.282 Y85.873 E9.13005
G1 X80.228 Y85.408 E9.14227
G1 X80.228 Y83.001 E9.20507
G1 X80.282 Y82.536 E9.21728
G1 X80.837 Y80.194 E9.28009
G1 X80.997 Y79.755 E9.29230
G1 X82.077 Y77.604 E9.35510
G1 X82.335 Y77.213 E9.36732
G1 X83.882 Y75.369 E9.43012
G1 X84.222 Y75.048 E9.44233
G1 X86.152 Y73.611 E9.50513
G1 X86.558 Y73.377 E9.51735
G1 X88.042 Y72.737 E9.55952
G1 X87.865 Y71.882 E9.58230
G1 X71.954 Y71.882 E9.99751
G1 X69.601 Y69.529 E10.08436
G1 X69.601 Y42.201 E10.79750
G1 X69.939 Y41.863 E10.80999
G1 X70.318 Y42.242 F6000.000
G1 X72.176 Y40.384 E10.87856 F3000.000
G1 X97.060 Y40.384 E11.52793
G1 X99.099 Y42.423 E11.60320
G1 X99.099 Y45.670 E11.68793
G1 X99.413 Y45.984 E11.69950
G1 X103.862 Y45.984 E11.81559
G1 X104.176 Y45.670 E11.82717
G1 X104.176 Y42.241 E11.91667
G1 X104.219 Y41.852 E11.92687
G1 X104.776 Y39.413 E11.99215
G1 X105.116 Y38.706 E12.01262
G1 X106.799 Y36.597 E12.08304
G1 X107.412 Y36.108 E12.10351
G1 X109.843 Y34.937 E12.17392
G1 X110.608 Y34.762 E12.19440
G1 X113.306 Y34.762 E12.26481
G1 X114.071 Y34.937 E12.28528
G1 X116.502 Y36.108 E12.35569
G1 X116.770 Y36.321 E12.36462
G1 X117.144 Y36.321 E12.37441
G1 X117.412 Y36.108 E12.38334
G1 X119.843 Y34.937 E12.45375
G1 X120.608 Y34.762 E12.47422
G1 X123.306 Y34.762 E12.54463
G1 X124.071 Y34.937 E12.56511
G1 X126.502 Y36.108 E12.63552
G1 X127.115 Y36.597 E12.65599
G1 X128.139 Y37.880 E12.69882
G1 X128.655 Y37.880 E12.71228
G1 X130.039 Y36.144 E12.77023
G1 X130.652 Y35.655 E12.79071
G1 X133.084 Y34.484 E12.86112
G1 X133.848 Y34.309 E12.88159
G1 X136.547 Y34.309 E12.95200
G1 X137.311 Y34.484 E12.97247 F3000.000
G1 X139.742 Y35.655 E13.04289
G1 X140.010 Y35.868 E13.05182
G1 X140.385 Y35.868 E13.06160
G1 X140.652 Y35.655 E13.07053
G1 X143.084 Y34.484 E13.14095
G1 X143.848 Y34.309 E13.16142
G1 X146.547 Y34.309 E13.23183
G1 X147.311 Y34.484 E13.25230
G1 X149.742 Y35.655 E13.32272
G1 X150.356 Y36.144 E13.34319
G1 X151.758 Y37.902 E13.40187
G1 X152.038 Y38.253 E13.41360
G1 X152.379 Y38.960 E13.43408
G1 X152.979 Y41.591 E13.50449
G1 X152.979 Y42.375 E13.52496
G1 X152.379 Y45.006 E13.59537
G1 X152.038 Y45.713 E13.61585
G1 X150.356 Y47.822 E13.68626
G1 X149.742 Y48.312 E13.70674
G1 X148.843 Y48.745 E13.73278
G1 X148.679 Y49.006 E13.74084
G1 X148.679 Y59.960 E14.02670
G1 X148.843 Y60.222 E14.03475
G1 X149.742 Y60.655 E14.06080
G1 X150.356 Y61.144 E14.08127
G1 X152.038 Y63.253 E14.15169
G1 X152.379 Y63.960 E14.17216
G1 X152.979 Y66.591 E14.24257
G1 X152.979 Y67.375 E14.26305
G1 X152.379 Y70.006 E14.33346
G1 X152.038 Y70.713 E14.35393
G1 X150.199 Y73.019 E14.43092
G1 X150.314 Y73.522 E14.44438
G1 X150.672 Y73.695 E14.45475
G1 X151.285 Y74.184 E14.47523
G1 X152.967 Y76.293 E14.54564
G1 X153.308 Y77.000 E14.56612
G1 X153.908 Y79.631 E14.63653
G1 X153.908 Y80.415 E14.65700
G1 X153.308 Y83.046 E14.72741
G1 X152.967 Y83.753 E14.74789
G1 X151.285 Y85.863 E14.81830
G1 X150.672 Y86.352 E14.83877
G1 X149.772 Y86.785 E14.86482
G1 X149.608 Y87.046 E14.87287
G1 X149.608 Y93.000 E15.02826
G1 X149.772 Y93.262 E15.03631
G1 X150.672 Y93.695 E15.06236
G1 X151.285 Y94.184 E15.08283
G1 X152.967 Y96.294 E15.15325
G1 X153.308 Y97.000 E15.17372
G1 X153.908 Y99.631 E15.24413
G1 X153.908 Y100.415 E15.26460
G1 X153.308 Y103.046 E15.33502
G1 X152.967 Y103.753 E15.35549
G1 X151.285 Y105.863 E15.42591
G1 X150.672 Y106.352 E15.44638
G1 X148.241 Y107.522 E15.51679
G1 X147.476 Y107.697 E15.53726
G1 X144.778 Y107.697 E15.60767
G1 X144.013 Y107.522 E15.62815
G1 X141.582 Y106.352 E15.69856
G1 X141.314 Y106.138 E15.70749
G1 X140.939 Y106.138 E15.71727
G1 X140.672 Y106.352 E15.72621
G1 X138.241 Y107.522 E15.79662
G1 X137.476 Y107.697 E15.81709
G1 X134.778 Y107.697 E15.88750
G1 X134.013 Y107.522 E15.90798
G1 X131.582 Y106.352 E15.97839
G1 X130.968 Y105.863 E15.99886
G1 X129.110 Y103.532 E16.07664
G1 X128.594 Y103.532 E16.09010
G1 X127.115 Y105.386 E16.15199
G1 X126.502 Y105.876 E16.17246
G1 X124.071 Y107.046 E16.24288
G1 X123.306 Y107.221 E16.26335
G1 X120.608 Y107.221 E16.33376
G1 X119.843 Y107.046 E16.35423
G1 X117.412 Y105.876 E16.42465
G1 X117.144 Y105.662 E16.43358
G1 X116.770 Y105.662 E16.44336
G1 X116.502 Y105.875 E16.45229
G1 X114.071 Y107.046 E16.52270
G1 X113.306 Y107.221 E16.54318
G1 X110.608 Y107.221 E16.61359
G1 X109.843 Y107.046 E16.63406
G1 X107.412 Y105.875 E16.70447
G1 X106.799 Y105.386 E16.72495
G1 X105.116 Y103.277 E16.79536
G1 X104.776 Y102.570 E16.81584
G1 X104.219 Y100.131 E16.88111
G1 X104.176 Y99.743 E16.89132
G1 X104.176 Y89.232 E17.16559
G1 X103.351 Y89.037 E17.18769
G1 X103.021 Y89.696 E17.20692
G1 X101.732 Y91.654 E17.26810
G1 X101.472 Y91.965 E17.27869
G1 X99.766 Y93.574 E17.33986
G1 X99.441 Y93.816 E17.35044
G1 X97.411 Y94.988 E17.41162
G1 X97.039 Y95.149 E17.42220
G1 X94.793 Y95.821 E17.48338
G1 X94.393 Y95.891 E17.49396
G1 X92.053 Y96.028 E17.55514
G1 X91.648 Y96.004 E17.56572
G1 X89.339 Y95.597 E17.62690
G1 X88.951 Y95.481 E17.63748
G1 X86.798 Y94.552 E17.69866
G1 X86.447 Y94.349 E17.70924
G1 X84.567 Y92.949 E17.77042
G1 X84.272 Y92.671 E17.78100
G1 X82.765 Y90.875 E17.84218
G1 X82.542 Y90.536 E17.85277
G1 X81.490 Y88.442 E17.91394
G1 X81.351 Y88.060 E17.92452
G1 X80.811 Y85.779 E17.98570
G1 X80.763 Y85.377 E17.99628
G1 X80.763 Y83.032 E18.05746
G1 X80.811 Y82.630 E18.06804
G1 X81.351 Y80.348 E18.12922
G1 X81.490 Y79.967 E18.13980
G1 X82.542 Y77.872 E18.20098
G1 X82.765 Y77.533 E18.21156
G1 X84.272 Y75.738 E18.27274
G1 X84.567 Y75.459 E18.28332
G1 X86.447 Y74.059 E18.34450
G1 X86.798 Y73.857 E18.35508
G1 X88.951 Y72.928 E18.41626
G1 X89.339 Y72.812 E18.42684
G1 X92.102 Y72.325 E18.50005
G1 X92.017 Y71.347 E18.52566
G1 X72.176 Y71.347 E19.04342
G1 X70.136 Y69.307 E19.11869
G1 X70.136 Y42.423 E19.82026
G1 X70.265 Y42.295 E19.82499
G1 E17.82499 F2400.000
G92 E0
G1 Z0.650 F6000.000
G1 X18.644 Y18.672 F6000.000
G1 X92.182 Y71.347 F6000.000
G1 Z0.350 F6000.000
G1 E2.00000 F2400.000
G1 X97.060 Y71.347 E2.12729 F3000.000
G1 X99.099 Y69.307 E2.20256
G1 X99.099 Y66.061 E2.28728
G1 X99.413 Y65.747 E2.29886
G1 X103.862 Y65.747 E2.41495
G1 X104.176 Y66.061 E2.42653
G1 X104.176 Y67.632 E2.46753 F3000.000
G1 X104.219 Y68.020 E2.47773
G1 X104.776 Y70.459 E2.54301
G1 X105.116 Y71.166 E2.56349
G1 X106.822 Y73.304 E2.63486
G1 X106.822 Y73.679 E2.64464
G1 X105.116 Y75.817 E2.71601
G1 X104.776 Y76.524 E2.73649
