; generated by Slic3r 1.2.1 on 2014-11-27 at 14:24:38

; external perimeters extrusion width = 0.50mm
; perimeters extrusion width = 0.72mm
; infill extrusion width = 0.72mm
; solid infill extrusion width = 0.72mm
; top infill extrusion width = 0.72mm

M190 S110 ; wait for bed temperature to be reached
M104 S245 ; set temperature
G28 ; home all axes
M109 S245 ; wait for temperature to be reached
G21 ; set units to millimeters
G90 ; use absolute coordinates
M82 ; use absolute distances for extrusion
G92 E0
M106 S118
G1 E-2.00000 F2400.000
G92 E0
G1 Z0.300 F6000.000
G1 Z0.550 F6000.000
G1 Z0.850 F6000.000
G1 X96.494 Y31.269 F6000.000
G1 Z0.550 F6000.000
G1 E2.00000 F2400.000
G1 X97.443 Y28.872 E2.11960 F3000.000
G1 X98.397 Y27.136 E2.21147
G1 X99.912 Y25.051 E2.33106
G1 X101.268 Y23.607 E2.42295
G1 X103.254 Y21.964 E2.54255
G1 X104.926 Y20.903 E2.63442
G1 X107.259 Y19.805 E2.75403
G1 X109.143 Y19.193 E2.84591
G1 X111.675 Y18.710 E2.96550
G1 X113.622 Y18.587 E3.05599
G1 X116.224 Y18.747 E3.17696
G1 X118.169 Y19.119 E3.26883 F3000.000
G1 X120.621 Y19.915 E3.38844
G1 X122.413 Y20.758 E3.48031
G1 X124.590 Y22.140 E3.59991
G1 X126.116 Y23.402 E3.69179
G1 X127.881 Y25.281 E3.81139
G1 X129.027 Y26.859 E3.90185
G1 X130.287 Y29.143 E4.02285
G1 X131.016 Y30.984 E4.11472
G1 X131.657 Y33.481 E4.23433
G1 X131.905 Y35.446 E4.32620
G1 X131.905 Y38.024 E4.44580
G1 X131.657 Y39.989 E4.53768
G1 X131.016 Y42.486 E4.65727
G1 X130.287 Y44.327 E4.74914
G1 X129.045 Y46.586 E4.86875
G1 X127.881 Y48.188 E4.96062
G1 X126.116 Y50.067 E5.08022
G1 X124.590 Y51.330 E5.17209
G1 X122.386 Y52.724 E5.29309
G1 X120.621 Y53.554 E5.38355
G1 X118.170 Y54.351 E5.50316
G1 X116.224 Y54.722 E5.59503
G1 X113.651 Y54.884 E5.71463
G1 X111.675 Y54.759 E5.80650
G1 X109.143 Y54.276 E5.92611
G1 X107.259 Y53.664 E6.01798
G1 X104.926 Y52.567 E6.13758
G1 X103.254 Y51.506 E6.22945
G1 X101.247 Y49.840 E6.35046
G1 X99.912 Y48.419 E6.44092
G1 X98.397 Y46.333 E6.56051
G1 X97.443 Y44.598 E6.65239
G1 X96.494 Y42.201 E6.77199
G1 X96.002 Y40.283 E6.86386
G1 X95.678 Y37.725 E6.98347
G1 X95.678 Y35.745 E7.07534
G1 X96.001 Y33.187 E7.19493
G1 X96.475 Y31.341 E7.28334
G1 X97.167 Y31.519 F6000.000
G1 X98.069 Y29.216 E7.39809 F3000.000
G1 X99.023 Y27.480 E7.48996
G1 X100.454 Y25.518 E7.60264
G1 X101.789 Y24.096 E7.69311
G1 X103.637 Y22.567 E7.80441
G1 X105.309 Y21.506 E7.89628
G1 X107.480 Y20.484 E8.00758
G1 X109.364 Y19.872 E8.09947
G1 X111.720 Y19.423 E8.21075
G1 X113.666 Y19.300 E8.30124
G1 X116.090 Y19.449 E8.41391
G1 X118.036 Y19.820 E8.50578 F3000.000
G1 X120.317 Y20.561 E8.61708
G1 X122.109 Y21.405 E8.70895
G1 X124.135 Y22.690 E8.82025
G1 X125.661 Y23.952 E8.91213
G1 X127.303 Y25.701 E9.02342
G1 X128.467 Y27.303 E9.11530
G1 X129.623 Y29.406 E9.22659
G1 X130.352 Y31.247 E9.31846
G1 X130.948 Y33.571 E9.42976
G1 X131.196 Y35.535 E9.52163
G1 X131.196 Y37.934 E9.63293
G1 X130.952 Y39.869 E9.72338
G1 X130.352 Y42.223 E9.83609
G1 X129.623 Y44.064 E9.92796
G1 X128.467 Y46.166 E10.03925
G1 X127.303 Y47.768 E10.13112
G1 X125.661 Y49.517 E10.24242
G1 X124.135 Y50.779 E10.33429
G1 X122.082 Y52.078 E10.44699
G1 X120.317 Y52.908 E10.53745
G1 X118.036 Y53.649 E10.64875
G1 X116.090 Y54.020 E10.74062
G1 X113.696 Y54.171 E10.85192
G1 X111.720 Y54.047 E10.94379
G1 X109.363 Y53.597 E11.05509
G1 X107.480 Y52.985 E11.14696
G1 X105.309 Y51.964 E11.25826
G1 X103.637 Y50.903 E11.35013
G1 X101.768 Y49.351 E11.46283
G1 X100.433 Y47.930 E11.55329
G1 X99.023 Y45.989 E11.66458
G1 X98.069 Y44.254 E11.75646
G1 X97.186 Y42.023 E11.86775
G1 X96.693 Y40.105 E11.95962
G1 X96.393 Y37.725 E12.07093
G1 X96.393 Y35.745 E12.16280
G1 X96.693 Y33.365 E12.27408
G1 X97.148 Y31.592 E12.35901
G1 X97.840 Y31.769 F6000.000
G1 X97.877 Y31.624 E12.36597 F3000.000
G1 X98.695 Y29.560 E12.46896
G1 X99.649 Y27.824 E12.56083
G1 X100.974 Y26.006 E12.66521
G1 X102.309 Y24.585 E12.75568
G1 X104.020 Y23.170 E12.85868
G1 X105.692 Y22.109 E12.95055
G1 X107.701 Y21.163 E13.05354
G1 X109.584 Y20.551 E13.14543
G1 X111.765 Y20.135 E13.24841
G1 X113.711 Y20.013 E13.33886
G1 X115.957 Y20.151 E13.44326
G1 X117.902 Y20.522 E13.53513 F3000.000
G1 X120.013 Y21.208 E13.63812
G1 X121.805 Y22.051 E13.72999
G1 X123.680 Y23.240 E13.83299
G1 X125.205 Y24.503 E13.92487
G1 X126.725 Y26.121 E14.02785
G1 X127.889 Y27.723 E14.11973
G1 X128.959 Y29.668 E14.22271
G1 X129.688 Y31.510 E14.31458
G1 X130.240 Y33.660 E14.41758
G1 X130.488 Y35.625 E14.50945
G1 X130.488 Y37.845 E14.61244
G1 X130.240 Y39.810 E14.70432
G1 X129.688 Y41.960 E14.80731
G1 X128.959 Y43.801 E14.89918
G1 X127.889 Y45.746 E15.00217
G1 X126.725 Y47.348 E15.09404
G1 X125.205 Y48.967 E15.19704
G1 X123.680 Y50.229 E15.28891
G1 X121.778 Y51.432 E15.39330
G1 X120.013 Y52.262 E15.48376
G1 X117.902 Y52.948 E15.58675
G1 X115.957 Y53.319 E15.67863
G1 X113.741 Y53.458 E15.78162
G1 X111.765 Y53.334 E15.87349
G1 X109.584 Y52.918 E15.97648
G1 X107.701 Y52.306 E16.06835
G1 X105.692 Y51.361 E16.17135
G1 X104.020 Y50.300 E16.26322
G1 X102.288 Y48.862 E16.36761
G1 X100.954 Y47.441 E16.45807
G1 X99.649 Y45.645 E16.56106
G1 X98.695 Y43.910 E16.65294
G1 X97.877 Y41.846 E16.75593
G1 X97.385 Y39.927 E16.84780
G1 X97.107 Y37.725 E16.95079
G1 X97.107 Y35.745 E17.04266
G1 X97.385 Y33.542 E17.14565
G1 X97.821 Y31.842 E17.22709
G1 X98.513 Y32.019 F6000.000
G1 X98.569 Y31.802 E17.23753 F3000.000
G1 X99.321 Y29.904 E17.33222
G1 X100.275 Y28.169 E17.42409
G1 X101.495 Y26.495 E17.52016
G1 X102.830 Y25.074 E17.61064
G1 X104.402 Y23.773 E17.70532
G1 X106.074 Y22.712 E17.79719
G1 X107.921 Y21.843 E17.89188
G1 X109.805 Y21.231 E17.98377
G1 X111.809 Y20.848 E18.07844
G1 X113.755 Y20.726 E18.16890
G1 X115.823 Y20.852 E18.26499
G1 X117.768 Y21.223 E18.35686 F3000.000
G1 X119.709 Y21.854 E18.45155
G1 X121.501 Y22.697 E18.54342
G1 X123.224 Y23.791 E18.63811
G1 X124.750 Y25.053 E18.72999
G1 X126.147 Y26.541 E18.82467
G1 X127.311 Y28.143 E18.91655
G1 X128.295 Y29.931 E19.01123
G1 X129.024 Y31.773 E19.10310
G1 X129.531 Y33.750 E19.19779
G1 X129.779 Y35.714 E19.28966
G1 X129.779 Y37.755 E19.38435
G1 X129.531 Y39.720 E19.47623
G1 X129.024 Y41.697 E19.57091
G1 X128.295 Y43.538 E19.66278
G1 X127.311 Y45.327 E19.75747
G1 X126.147 Y46.929 E19.84934
G1 X124.750 Y48.416 E19.94403
G1 X123.224 Y49.679 E20.03590
G1 X121.473 Y50.785 E20.13199
G1 X119.709 Y51.616 E20.22244
G1 X117.768 Y52.246 E20.31713
G1 X115.823 Y52.617 E20.40900
G1 X113.786 Y52.746 E20.50369
G1 X111.809 Y52.621 E20.59556
G1 X109.805 Y52.239 E20.69025
G1 X107.921 Y51.627 E20.78212
G1 X106.074 Y50.758 E20.87681
G1 X104.402 Y49.697 E20.96868
G1 X102.809 Y48.373 E21.06477
G1 X101.474 Y46.952 E21.15523
G1 X100.275 Y45.301 E21.24991
G1 X99.321 Y43.566 E21.34179
G1 X98.569 Y41.668 E21.43647
G1 X98.077 Y39.750 E21.52835
G1 X97.821 Y37.725 E21.62304
G1 X97.821 Y35.745 E21.71491
G1 X98.077 Y33.720 E21.80959
G1 X98.495 Y32.092 E21.88755
G1 X99.186 Y32.270 F6000.000
G1 X99.261 Y31.979 E21.90147 F3000.000
G1 X99.946 Y30.248 E21.98785
G1 X100.900 Y28.513 E22.07972
G1 X102.015 Y26.984 E22.16749
G1 X103.350 Y25.563 E22.25796
G1 X104.785 Y24.376 E22.34435
G1 X106.457 Y23.315 E22.43622
G1 X108.142 Y22.522 E22.52260
G1 X110.026 Y21.910 E22.61449
G1 X111.854 Y21.561 E22.70086
G1 X113.801 Y21.439 E22.79134
G1 X115.689 Y21.554 E22.87910
G1 X117.634 Y21.925 E22.97097 F3000.000
G1 X119.405 Y22.500 E23.05736
G1 X121.197 Y23.343 E23.14923
G1 X122.769 Y24.341 E23.23561
G1 X124.295 Y25.603 E23.32749
G1 X125.570 Y26.961 E23.41386
G1 X126.716 Y28.538 E23.50432
G1 X127.631 Y30.194 E23.59211
G1 X128.360 Y32.035 E23.68398
G1 X128.823 Y33.839 E23.77036
G1 X129.071 Y35.804 E23.86223
G1 X129.071 Y37.666 E23.94862
G1 X128.823 Y39.630 E24.04049
G1 X128.360 Y41.434 E24.12687
G1 X127.631 Y43.275 E24.21874
G1 X126.734 Y44.907 E24.30512
G1 X125.570 Y46.509 E24.39699
G1 X124.295 Y47.866 E24.48338
G1 X122.769 Y49.128 E24.57525
G1 X121.170 Y50.139 E24.66303
G1 X119.405 Y50.969 E24.75349
G1 X117.634 Y51.545 E24.83987
G1 X115.689 Y51.916 E24.93175
G1 X113.831 Y52.033 E25.01813
G1 X111.854 Y51.908 E25.11000
G1 X110.025 Y51.560 E25.19638
G1 X108.142 Y50.948 E25.28826
G1 X106.457 Y50.155 E25.37464
G1 X104.785 Y49.094 E25.46651
G1 X103.330 Y47.885 E25.55429
G1 X101.995 Y46.463 E25.64475
G1 X100.900 Y44.957 E25.73113
G1 X99.946 Y43.221 E25.82301
G1 X99.261 Y41.490 E25.90939
G1 X98.768 Y39.572 E26.00126
G1 X98.535 Y37.725 E26.08764
G1 X98.535 Y35.745 E26.17951
G1 X98.768 Y33.897 E26.26589
G1 X99.168 Y32.342 E26.34037
G1 X99.859 Y32.520 F6000.000
G1 X99.953 Y32.157 E26.35777 F3000.000
G1 X100.572 Y30.592 E26.43585
G1 X101.526 Y28.857 E26.52772
G1 X102.536 Y27.473 E26.60720
G1 X103.871 Y26.051 E26.69766
G1 X105.168 Y24.979 E26.77574
G1 X106.840 Y23.918 E26.86760
G1 X108.363 Y23.201 E26.94568
G1 X110.246 Y22.589 E27.03757
G1 X111.899 Y22.274 E27.11563
G1 X113.845 Y22.151 E27.20609
G1 X115.555 Y22.255 E27.28557
G1 X117.500 Y22.626 E27.37744 F3000.000
G1 X119.101 Y23.146 E27.45552
G1 X120.893 Y23.989 E27.54739
G1 X122.314 Y24.891 E27.62547
G1 X123.840 Y26.154 E27.71735
G1 X124.992 Y27.380 E27.79542
G1 X126.138 Y28.958 E27.88588
G1 X126.967 Y30.457 E27.96536
G1 X127.696 Y32.298 E28.05723
G1 X128.114 Y33.929 E28.13531
G1 X128.362 Y35.893 E28.22718
G1 X128.362 Y37.576 E28.30526
G1 X128.114 Y39.541 E28.39713
G1 X127.696 Y41.171 E28.47521
G1 X126.967 Y43.012 E28.56708
G1 X126.156 Y44.487 E28.64516
G1 X124.992 Y46.089 E28.73703
G1 X123.840 Y47.316 E28.81511
G1 X122.314 Y48.578 E28.90697
G1 X120.865 Y49.493 E28.98645
G1 X119.101 Y50.323 E29.07691
G1 X117.500 Y50.843 E29.15499
G1 X115.555 Y51.214 E29.24686
G1 X113.876 Y51.320 E29.32494
G1 X111.899 Y51.196 E29.41681
G1 X110.246 Y50.880 E29.49489
G1 X108.363 Y50.268 E29.58676
G1 X106.840 Y49.552 E29.66484
G1 X105.168 Y48.491 E29.75671
G1 X103.850 Y47.396 E29.83619
G1 X102.515 Y45.974 E29.92665
G1 X101.526 Y44.613 E30.00472
G1 X100.572 Y42.877 E30.09660
G1 X99.953 Y41.313 E30.17467
G1 X99.460 Y39.395 E30.26655
G1 X99.249 Y37.725 E30.34463
G1 X99.249 Y35.745 E30.43650
G1 X99.460 Y34.075 E30.51457
G1 X99.841 Y32.593 E30.58557
G1 E28.58557 F2400.000
G92 E0
G1 Z0.850 F6000.000
G1 X102.539 Y33.286 F6000.000
G1 Z0.550 F6000.000
G1 E2.00000 F2400.000
G1 X102.713 Y32.610 E2.03234 F3000.000
G1 X102.895 Y32.151 E2.05527
G1 X104.087 Y29.982 E2.17007
G1 X104.377 Y29.583 E2.19299
G1 X104.567 Y29.380 E2.20587
G1 X106.071 Y27.779 E2.30780
G1 X106.452 Y27.464 E2.33073
G1 X108.541 Y26.138 E2.44552
G1 X108.989 Y25.927 E2.46845
G1 X111.342 Y25.163 E2.58326
G1 X111.828 Y25.070 E2.60618
G1 X114.020 Y24.932 E2.70811
G1 X114.297 Y24.915 E2.72099
G1 X114.790 Y24.946 E2.74391
G1 X117.221 Y25.409 E2.85870 F3000.000
G1 X117.691 Y25.562 E2.88164
G1 X119.930 Y26.616 E2.99644
G1 X120.347 Y26.881 E3.01937
G1 X122.254 Y28.458 E3.13417
G1 X122.592 Y28.818 E3.15710
G1 X124.047 Y30.820 E3.27190
G1 X124.285 Y31.253 E3.29482
G1 X125.196 Y33.554 E3.40962
G1 X125.319 Y34.033 E3.43255
G1 X125.629 Y36.488 E3.54735
G1 X125.629 Y36.982 E3.57028
G1 X125.319 Y39.437 E3.68508
G1 X125.196 Y39.916 E3.70801
G1 X124.285 Y42.216 E3.82281
G1 X124.047 Y42.649 E3.84573
G1 X122.592 Y44.651 E3.96053
G1 X122.254 Y45.012 E3.98346
G1 X120.347 Y46.589 E4.09826
G1 X119.930 Y46.854 E4.12119
G1 X117.691 Y47.907 E4.23599
G1 X117.221 Y48.060 E4.25892
G1 X116.948 Y48.112 E4.27180
G1 X114.790 Y48.524 E4.37372
G1 X114.297 Y48.555 E4.39665
G1 X111.827 Y48.399 E4.51145
G1 X111.342 Y48.307 E4.53438
G1 X108.989 Y47.542 E4.64918
G1 X108.541 Y47.332 E4.67210
G1 X106.452 Y46.006 E4.78690
G1 X106.071 Y45.691 E4.80983
G1 X105.881 Y45.488 E4.82271
G1 X104.377 Y43.887 E4.92463
G1 X104.087 Y43.487 E4.94756
G1 X102.895 Y41.319 E5.06236
G1 X102.713 Y40.859 E5.08529
G1 X102.097 Y38.462 E5.20009
G1 X102.035 Y37.972 E5.22302
G1 X102.035 Y35.497 E5.33781
G1 X102.097 Y35.007 E5.36074
G1 X102.521 Y33.358 E5.43972
G1 X103.213 Y33.536 F6000.000
G1 X103.393 Y32.831 E5.47346 F3000.000
G1 X103.542 Y32.455 E5.49222
G1 X104.691 Y30.366 E5.60285
G1 X104.929 Y30.039 E5.62160
G1 X105.088 Y29.869 E5.63240
G1 X106.561 Y28.300 E5.73224
G1 X106.873 Y28.043 E5.75100
G1 X108.886 Y26.765 E5.86163
G1 X109.252 Y26.593 E5.88039
G1 X111.299 Y25.928 E5.98023
G1 X111.520 Y25.856 E5.99102
G1 X111.917 Y25.780 E6.00978
G1 X114.297 Y25.630 E6.12042
G1 X114.701 Y25.656 E6.13917 F3000.000
G1 X117.043 Y26.102 E6.24979
G1 X117.428 Y26.227 E6.26856
G1 X119.585 Y27.243 E6.37919
G1 X119.927 Y27.459 E6.39795
G1 X121.764 Y28.979 E6.50858
G1 X122.041 Y29.274 E6.52734
G1 X123.443 Y31.203 E6.63797
G1 X123.637 Y31.558 E6.65673
G1 X124.515 Y33.775 E6.76736
G1 X124.616 Y34.167 E6.78612
G1 X124.915 Y36.532 E6.89675
G1 X124.915 Y36.937 E6.91551
G1 X124.616 Y39.303 E7.02614
G1 X124.515 Y39.694 E7.04490
G1 X123.637 Y41.912 E7.15553
G1 X123.443 Y42.266 E7.17429
G1 X122.041 Y44.195 E7.28492
G1 X121.764 Y44.490 E7.30368
G1 X119.927 Y46.010 E7.41431
G1 X119.585 Y46.227 E7.43307
G1 X119.375 Y46.326 E7.44386
G1 X117.428 Y47.242 E7.54370
G1 X117.043 Y47.367 E7.56246
G1 X114.701 Y47.814 E7.67309
G1 X114.297 Y47.839 E7.69185
G1 X111.917 Y47.689 E7.80248
G1 X111.520 Y47.614 E7.82124
G1 X109.252 Y46.877 E7.93187
G1 X108.886 Y46.705 E7.95063
G1 X106.873 Y45.427 E8.06126
G1 X106.561 Y45.169 E8.08002
G1 X106.402 Y44.999 E8.09082
G1 X104.929 Y43.431 E8.19065
G1 X104.691 Y43.104 E8.20941
G1 X103.542 Y41.014 E8.32004
G1 X103.393 Y40.638 E8.33880
G1 X102.800 Y38.328 E8.44943
G1 X102.750 Y37.927 E8.46819
G1 X102.750 Y35.542 E8.57882
G1 X102.800 Y35.141 E8.59758
G1 X103.194 Y33.608 E8.67100
G1 X103.886 Y33.786 F6000.000
G1 X104.074 Y33.053 E8.70613 F3000.000
G1 X104.190 Y32.760 E8.72072
G1 X105.295 Y30.749 E8.82718
G1 X105.480 Y30.495 E8.84177
G1 X105.609 Y30.358 E8.85048
G1 X107.051 Y28.822 E8.94823
G1 X107.293 Y28.621 E8.96283
G1 X109.231 Y27.392 E9.06929
G1 X109.515 Y27.258 E9.08388
G1 X111.698 Y26.549 E9.19034
G1 X112.007 Y26.490 E9.20493
G1 X114.110 Y26.358 E9.30269
G1 X114.297 Y26.346 E9.31140
G1 X114.611 Y26.366 E9.32598
G1 X116.865 Y26.796 E9.43244 F3000.000
G1 X117.164 Y26.893 E9.44703
G1 X119.241 Y27.870 E9.55350
G1 X119.506 Y28.038 E9.56809
G1 X121.274 Y29.501 E9.67455
G1 X121.490 Y29.730 E9.68914
G1 X122.839 Y31.587 E9.79560
G1 X122.990 Y31.862 E9.81019
G1 X123.835 Y33.996 E9.91665
G1 X123.913 Y34.301 E9.93124
G1 X124.201 Y36.577 E10.03770
G1 X124.201 Y36.892 E10.05230
G1 X123.913 Y39.169 E10.15876
G1 X123.835 Y39.473 E10.17335
G1 X122.990 Y41.607 E10.27981
G1 X122.838 Y41.883 E10.29440
G1 X121.490 Y43.739 E10.40086
G1 X121.274 Y43.968 E10.41545
G1 X119.506 Y45.431 E10.52191
G1 X119.241 Y45.600 E10.53650
G1 X119.071 Y45.679 E10.54521
G1 X117.164 Y46.577 E10.64297
G1 X116.865 Y46.674 E10.65756
G1 X114.611 Y47.104 E10.76402
G1 X114.297 Y47.124 E10.77861
G1 X112.007 Y46.980 E10.88507
G1 X111.698 Y46.921 E10.89966
G1 X109.515 Y46.211 E11.00612
G1 X109.231 Y46.078 E11.02072
G1 X107.293 Y44.848 E11.12718
G1 X107.051 Y44.647 E11.14177
G1 X106.922 Y44.511 E11.15048
G1 X105.480 Y42.975 E11.24823
G1 X105.295 Y42.720 E11.26282
G1 X104.190 Y40.709 E11.36928
G1 X104.074 Y40.417 E11.38387
G1 X103.503 Y38.194 E11.49033
G1 X103.464 Y37.882 E11.50492
G1 X103.464 Y35.587 E11.61138
G1 X103.503 Y35.275 E11.62597
G1 X103.867 Y33.859 E11.69383
G1 X104.559 Y34.036 F6000.000
G1 X104.754 Y33.274 E11.73035 F3000.000
G1 X104.837 Y33.065 E11.74078
G1 X105.899 Y31.133 E11.84307
G1 X106.129 Y30.847 E11.86008
G1 X107.541 Y29.344 E11.95575
G1 X107.714 Y29.200 E11.96617
G1 X109.576 Y28.019 E12.06846
G1 X109.779 Y27.923 E12.07889
G1 X111.740 Y27.286 E12.17456
G1 X112.097 Y27.200 E12.19157
G1 X114.297 Y27.061 E12.29387
G1 X114.521 Y27.075 E12.30429 F3000.000
G1 X116.687 Y27.489 E12.40657
G1 X116.901 Y27.558 E12.41700
G1 X118.896 Y28.497 E12.51929
G1 X119.086 Y28.617 E12.52971
G1 X120.785 Y30.023 E12.63201
G1 X120.938 Y30.186 E12.64243
G1 X122.234 Y31.970 E12.74472
G1 X122.343 Y32.167 E12.75514
G1 X123.154 Y34.217 E12.85743
G1 X123.210 Y34.435 E12.86786
G1 X123.486 Y36.622 E12.97015
G1 X123.486 Y36.847 E12.98057
G1 X123.210 Y39.035 E13.08286
G1 X123.154 Y39.252 E13.09329
G1 X122.343 Y41.302 E13.19558
G1 X122.234 Y41.499 E13.20600
G1 X120.938 Y43.283 E13.30829
G1 X120.785 Y43.447 E13.31871
G1 X119.086 Y44.852 E13.42101
