; generated by Slic3r 1.2.1 on 2014-11-26 at 13:42:16

; external perimeters extrusion width = 0.50mm
; perimeters extrusion width = 0.72mm
; infill extrusion width = 0.72mm
; solid infill extrusion width = 0.72mm
; top infill extrusion width = 0.72mm

M190 S110 ; wait for bed temperature to be reached
M104 S245 ; set temperature
G28 ; home all axes
M109 S245 ; wait for temperature to be reached
G21 ; set units to millimeters
G90 ; use absolute coordinates
M82 ; use absolute distances for extrusion
G92 E0
M106 S89
G1 E-2.00000 F2400.000
G92 E0
G1 Z0.300 F6000.000
G1 Z0.400 F6000.000
G1 Z0.700 F6000.000
G1 X86.486 Y79.268 F6000.000
G1 Z0.400 F6000.000
G1 E2.00000 F2400.000
G1 X89.567 Y76.810 E2.18286 F3000.000
G1 X91.292 Y75.980 E2.27165
G1 X94.981 Y75.104 E2.44756
G1 X125.079 Y74.583 E3.84408
G1 X141.706 Y74.484 E4.61548
G1 X145.549 Y75.361 E4.79834
G1 X147.273 Y76.191 E4.88712 F3000.000
G1 X150.355 Y78.649 E5.06998
G1 X151.548 Y80.145 E5.15876
G1 X153.258 Y83.696 E5.34162
G1 X153.684 Y85.562 E5.43040
G1 X153.906 Y87.533 E5.52241
G1 X153.906 Y112.533 E6.68223
G1 X153.684 Y114.503 E6.77423
G1 X153.258 Y116.369 E6.86301
G1 X151.548 Y119.920 E7.04587
G1 X150.355 Y121.416 E7.13465
G1 X147.273 Y123.874 E7.31752
G1 X145.549 Y124.704 E7.40630
G1 X141.863 Y125.580 E7.58206
G1 X112.417 Y126.101 E8.94837
G1 X95.134 Y126.200 E9.75014
G1 X91.292 Y125.323 E9.93300
G1 X89.568 Y124.493 E10.02178
G1 X86.486 Y122.035 E10.20464
G1 X85.293 Y120.539 E10.29343
G1 X83.582 Y116.988 E10.47628
G1 X83.157 Y115.122 E10.56507
G1 X82.935 Y113.151 E10.65707
G1 X82.935 Y88.151 E11.81689
G1 X83.157 Y86.181 E11.90889
G1 X83.582 Y84.315 E11.99768
G1 X85.293 Y80.764 E12.18054
G1 X86.439 Y79.326 E12.26584
G1 X86.997 Y79.771 F6000.000
G1 X87.044 Y79.713 E12.26932 F3000.000
G1 X89.877 Y77.453 E12.43744
G1 X91.602 Y76.623 E12.52622
G1 X94.993 Y75.818 E12.68795
G1 X125.091 Y75.297 E14.08447
G1 X141.706 Y75.198 E14.85529
G1 X145.239 Y76.004 E15.02341
G1 X146.963 Y76.835 E15.11219 F3000.000
G1 X149.796 Y79.094 E15.28031
G1 X150.989 Y80.590 E15.36909
G1 X152.562 Y83.855 E15.53720
G1 X152.988 Y85.721 E15.62598
G1 X153.192 Y87.533 E15.71057
G1 X153.192 Y112.533 E16.87039
G1 X152.988 Y114.344 E16.95498
G1 X152.562 Y116.210 E17.04376
G1 X150.989 Y119.475 E17.21187
G1 X149.796 Y120.971 E17.30065
G1 X146.963 Y123.231 E17.46877
G1 X145.239 Y124.061 E17.55755
G1 X141.850 Y124.866 E17.71914
G1 X112.404 Y125.387 E19.08544
G1 X95.134 Y125.486 E19.88664
G1 X91.602 Y124.680 E20.05475
G1 X89.877 Y123.850 E20.14353
G1 X87.044 Y121.590 E20.31165
G1 X85.851 Y120.094 E20.40043
G1 X84.279 Y116.829 E20.56854
G1 X83.853 Y114.963 E20.65732
G1 X83.649 Y113.151 E20.74191
G1 X83.649 Y88.151 E21.90173
G1 X83.853 Y86.340 E21.98631
G1 X84.279 Y84.474 E22.07510
G1 X85.851 Y81.209 E22.24321
G1 X86.951 Y79.830 E22.32503
G1 X87.509 Y80.275 F6000.000
G1 X87.602 Y80.158 E22.33199 F3000.000
G1 X90.187 Y78.097 E22.48537
G1 X91.911 Y77.267 E22.57415
G1 X95.006 Y76.532 E22.72169
G1 X125.103 Y76.011 E24.11821
G1 X141.706 Y75.912 E24.88846
G1 X144.929 Y76.648 E25.04183
G1 X146.653 Y77.478 E25.13061 F3000.000
G1 X149.238 Y79.539 E25.28399
G1 X150.431 Y81.035 E25.37277
G1 X151.865 Y84.014 E25.52614
G1 X152.291 Y85.880 E25.61492
G1 X152.478 Y87.533 E25.69209
G1 X152.478 Y112.533 E26.85190
G1 X152.291 Y114.186 E26.92907
G1 X151.865 Y116.051 E27.01785
G1 X150.431 Y119.030 E27.17122
G1 X149.238 Y120.526 E27.26000
G1 X146.653 Y122.587 E27.41338
G1 X144.929 Y123.417 E27.50216
G1 X141.837 Y124.152 E27.64957
G1 X112.391 Y124.673 E29.01588
G1 X95.134 Y124.772 E29.81648
G1 X91.911 Y124.036 E29.96985
G1 X90.187 Y123.206 E30.05863
G1 X87.603 Y121.145 E30.21200
G1 X86.409 Y119.649 E30.30079
G1 X84.975 Y116.670 E30.45415
G1 X84.549 Y114.804 E30.54294
G1 X84.363 Y113.151 E30.62011
G1 X84.363 Y88.151 E31.77992
G1 X84.549 Y86.499 E31.85709
G1 X84.975 Y84.633 E31.94587
G1 X86.409 Y81.654 E32.09924
G1 X87.462 Y80.334 E32.17759
G1 X88.021 Y80.779 F6000.000
G1 X88.161 Y80.603 E32.18802 F3000.000
G1 X90.497 Y78.740 E32.32665
G1 X92.221 Y77.910 E32.41543
G1 X95.018 Y77.246 E32.54879
G1 X125.116 Y76.725 E33.94531
G1 X141.706 Y76.626 E34.71499
G1 X144.619 Y77.291 E34.85361
G1 X146.343 Y78.121 E34.94240 F3000.000
G1 X148.680 Y79.984 E35.08102
G1 X149.873 Y81.481 E35.16980
G1 X151.169 Y84.173 E35.30843
G1 X151.595 Y86.039 E35.39721
G1 X151.763 Y87.533 E35.46696
G1 X151.763 Y112.533 E36.62678
G1 X151.595 Y114.027 E36.69653
G1 X151.169 Y115.892 E36.78531
G1 X149.873 Y118.584 E36.92393
G1 X148.680 Y120.081 E37.01271
G1 X146.343 Y121.944 E37.15134
G1 X144.619 Y122.774 E37.24012
G1 X141.825 Y123.438 E37.37336
G1 X112.379 Y123.959 E38.73967
G1 X95.134 Y124.058 E39.53969
G1 X92.221 Y123.393 E39.67831
G1 X90.497 Y122.563 E39.76709
G1 X88.161 Y120.700 E39.90572
G1 X86.968 Y119.203 E39.99450
G1 X85.671 Y116.511 E40.13312
G1 X85.245 Y114.645 E40.22190
G1 X85.077 Y113.151 E40.29166
G1 X85.077 Y88.151 E41.45147
G1 X85.245 Y86.658 E41.52122
G1 X85.671 Y84.792 E41.61000
G1 X86.968 Y82.100 E41.74863
G1 X87.974 Y80.838 E41.82349
G1 E39.82349 F2400.000
G92 E0
G1 Z0.700 F6000.000
G1 X90.152 Y82.575 F6000.000
G1 Z0.400 F6000.000
G1 E2.00000 F2400.000
G1 X90.615 Y81.995 E2.03445 F3000.000
G1 X91.307 Y81.443 E2.07551
G1 X93.829 Y80.228 E2.20536
G1 X94.692 Y80.031 E2.24642
G1 X97.491 Y80.031 E2.37627
G1 X98.354 Y80.228 E2.41733
G1 X100.875 Y81.443 E2.54717
G1 X101.567 Y81.995 E2.58824
G1 X103.314 Y84.185 E2.71823
G1 X104.002 Y84.185 E2.75014
G1 X105.827 Y81.897 E2.88592
G1 X106.519 Y81.345 E2.92699
G1 X109.041 Y80.131 E3.05683
G1 X109.904 Y79.934 E3.09790
G1 X112.702 Y79.934 E3.22774
G1 X113.565 Y80.131 E3.26880
G1 X116.087 Y81.345 E3.39865
G1 X116.779 Y81.897 E3.43971
G1 X118.233 Y83.720 E3.54792
G1 X118.921 Y83.720 E3.57983
G1 X120.713 Y81.473 E3.71316
G1 X121.405 Y80.922 E3.75422
G1 X123.927 Y79.707 E3.88407
G1 X124.790 Y79.510 E3.92513
G1 X127.588 Y79.510 E4.05498
G1 X128.451 Y79.707 E4.09604
G1 X130.973 Y80.922 E4.22588
G1 X131.665 Y81.473 E4.26695
G1 X133.086 Y83.256 E4.37270
G1 X133.774 Y83.256 E4.40461
G1 X135.273 Y81.376 E4.51616
G1 X135.965 Y80.824 E4.55722
G1 X138.487 Y79.609 E4.68707
G1 X139.350 Y79.413 E4.72813
G1 X142.149 Y79.413 E4.85797
G1 X143.012 Y79.609 E4.89904
G1 X145.533 Y80.824 E5.02888 F3000.000
G1 X146.225 Y81.376 E5.06995
G1 X147.970 Y83.564 E5.19979
G1 X148.354 Y84.361 E5.24085
G1 X148.928 Y86.874 E5.36040
G1 X148.977 Y87.312 E5.38087
G1 X148.977 Y112.753 E6.56115
G1 X148.928 Y113.192 E6.58162
G1 X148.354 Y115.704 E6.70116
G1 X147.970 Y116.501 E6.74223
G1 X146.225 Y118.689 E6.87207
G1 X145.533 Y119.241 E6.91314
G1 X143.012 Y120.456 E7.04298
G1 X142.149 Y120.653 E7.08404
G1 X139.350 Y120.653 E7.21389
G1 X138.487 Y120.456 E7.25495
G1 X135.965 Y119.241 E7.38479
G1 X135.273 Y118.689 E7.42586
G1 X133.852 Y116.907 E7.53161
G1 X133.164 Y116.907 E7.56352
G1 X131.665 Y118.787 E7.67507
G1 X130.973 Y119.339 E7.71614
G1 X128.451 Y120.553 E7.84598
G1 X127.588 Y120.750 E7.88704
G1 X124.790 Y120.750 E8.01689
G1 X123.927 Y120.553 E8.05795
G1 X121.405 Y119.339 E8.18779
G1 X120.713 Y118.787 E8.22886
G1 X119.259 Y116.964 E8.33707
G1 X118.571 Y116.964 E8.36898
G1 X116.779 Y119.211 E8.50231
G1 X116.087 Y119.763 E8.54337
G1 X113.565 Y120.977 E8.67322
G1 X112.702 Y121.174 E8.71428
G1 X109.904 Y121.174 E8.84413
G1 X109.041 Y120.977 E8.88519
G1 X106.519 Y119.763 E9.01503
G1 X105.827 Y119.211 E9.05610
G1 X104.080 Y117.020 E9.18609
G1 X103.392 Y117.020 E9.21800
G1 X101.567 Y119.308 E9.35378
G1 X100.875 Y119.860 E9.39485
G1 X98.354 Y121.075 E9.52469
G1 X97.491 Y121.272 E9.56576
G1 X94.692 Y121.272 E9.69560
G1 X93.829 Y121.075 E9.73666
G1 X91.307 Y119.860 E9.86651
G1 X90.615 Y119.308 E9.90757
G1 X88.870 Y117.120 E10.03742
G1 X88.486 Y116.323 E10.07848
G1 X87.913 Y113.810 E10.19803
G1 X87.863 Y113.372 E10.21849
G1 X87.863 Y87.931 E11.39878
G1 X87.913 Y87.493 E11.41924
G1 X88.486 Y84.980 E11.53879
G1 X88.870 Y84.183 E11.57985
G1 X90.105 Y82.634 E11.67177
G1 X90.664 Y83.079 F6000.000
G1 X91.123 Y82.503 E11.70596 F3000.000
G1 X91.690 Y82.051 E11.73956
G1 X94.066 Y80.907 E11.86194
G1 X94.772 Y80.746 E11.89554
G1 X97.410 Y80.746 E12.01791
G1 X98.116 Y80.907 E12.05151
G1 X100.098 Y81.861 E12.15354
G1 X100.493 Y82.051 E12.17389
G1 X101.059 Y82.503 E12.20749
G1 X102.704 Y84.565 E12.32987
G1 X103.259 Y85.717 E12.38920
G1 X104.266 Y85.604 E12.43622
G1 X104.376 Y85.120 E12.45925
G1 X104.690 Y84.467 E12.49285
G1 X106.335 Y82.405 E12.61523
G1 X106.901 Y81.954 E12.64882
G1 X109.278 Y80.809 E12.77120
G1 X109.984 Y80.648 E12.80480
G1 X112.622 Y80.648 E12.92718
G1 X113.328 Y80.809 E12.96078
G1 X115.705 Y81.954 E13.08315
G1 X116.271 Y82.405 E13.11675
G1 X117.915 Y84.467 E13.23913
G1 X118.195 Y85.048 E13.26905
G1 X119.093 Y85.048 E13.31068
G1 X119.576 Y84.044 E13.36240
G1 X121.221 Y81.982 E13.48478
G1 X121.787 Y81.530 E13.51838
G1 X124.164 Y80.386 E13.64076
G1 X124.870 Y80.224 E13.67435
G1 X127.508 Y80.224 E13.79673
G1 X128.214 Y80.386 E13.83033
G1 X130.591 Y81.530 E13.95271
G1 X131.157 Y81.982 E13.98630
G1 X132.801 Y84.044 E14.10868
G1 X132.997 Y84.450 E14.12957
G1 X133.894 Y84.450 E14.17121
G1 X134.137 Y83.946 E14.19712
G1 X135.781 Y81.884 E14.31950
G1 X136.348 Y81.432 E14.35310
G1 X138.724 Y80.288 E14.47548
G1 X139.430 Y80.127 E14.50908
G1 X142.068 Y80.127 E14.63145
G1 X142.774 Y80.288 E14.66505 F3000.000
G1 X144.756 Y81.242 E14.76708
G1 X145.151 Y81.432 E14.78743
G1 X145.717 Y81.884 E14.82103
G1 X147.362 Y83.946 E14.94341
G1 X147.676 Y84.599 E14.97700
G1 X148.222 Y86.993 E15.09095
G1 X148.263 Y87.352 E15.10770
G1 X148.263 Y112.713 E16.28426
G1 X148.222 Y113.072 E16.30101
G1 X147.676 Y115.466 E16.41496
G1 X147.362 Y116.119 E16.44856
G1 X145.717 Y118.181 E16.57094
G1 X145.151 Y118.633 E16.60454
G1 X142.774 Y119.777 E16.72691
G1 X142.068 Y119.938 E16.76051
G1 X139.430 Y119.938 E16.88289
G1 X138.724 Y119.777 E16.91649
G1 X136.348 Y118.633 E17.03886
G1 X135.781 Y118.181 E17.07246
G1 X134.137 Y116.119 E17.19484
G1 X133.941 Y115.713 E17.21573
G1 X133.044 Y115.713 E17.25736
G1 X132.801 Y116.217 E17.28328
G1 X131.157 Y118.279 E17.40566
G1 X130.591 Y118.731 E17.43926
G1 X128.214 Y119.875 E17.56164
G1 X127.508 Y120.036 E17.59523
G1 X124.870 Y120.036 E17.71761
G1 X124.164 Y119.875 E17.75121
G1 X121.787 Y118.731 E17.87359
G1 X121.221 Y118.279 E17.90719
G1 X119.576 Y116.217 E18.02957
G1 X119.297 Y115.636 E18.05948
G1 X118.399 Y115.636 E18.10112
G1 X117.915 Y116.640 E18.15283
G1 X116.271 Y118.702 E18.27521
G1 X115.705 Y119.154 E18.30881
G1 X113.328 Y120.299 E18.43119
G1 X112.622 Y120.460 E18.46479
G1 X109.984 Y120.460 E18.58717
G1 X109.278 Y120.299 E18.62076
G1 X106.901 Y119.154 E18.74314
G1 X106.335 Y118.702 E18.77674
G1 X104.690 Y116.640 E18.89912
G1 X104.136 Y115.488 E18.95845
G1 X103.128 Y115.601 E19.00547
G1 X103.018 Y116.085 E19.02850
G1 X102.704 Y116.738 E19.06210
G1 X101.059 Y118.800 E19.18448
G1 X100.493 Y119.252 E19.21808
G1 X98.116 Y120.396 E19.34046
G1 X97.410 Y120.557 E19.37405
G1 X94.772 Y120.557 E19.49643
G1 X94.066 Y120.396 E19.53003
G1 X91.690 Y119.252 E19.65240
G1 X91.123 Y118.800 E19.68600
G1 X89.479 Y116.738 E19.80838
G1 X89.164 Y116.085 E19.84198
G1 X88.618 Y113.691 E19.95593
G1 X88.577 Y113.332 E19.97268
G1 X88.577 Y87.971 E21.14924
G1 X88.618 Y87.612 E21.16598
G1 X89.164 Y85.218 E21.27994
G1 X89.479 Y84.565 E21.31353
G1 X90.617 Y83.138 E21.39824
G1 E19.39824 F2400.000
G92 E0
G1 Z0.700 F6000.000
G1 X10.600 Y35.384 F6000.000
G1 X104.821 Y86.380 F6000.000
G1 Z0.400 F6000.000
G1 E2.00000 F2400.000
G1 X105.055 Y85.357 E2.04865 F3000.000
G1 X105.299 Y84.850 E2.07478
G1 X106.843 Y82.913 E2.18970
G1 X107.284 Y82.562 E2.21583
G1 X109.515 Y81.487 E2.33074
G1 X110.064 Y81.362 E2.35687
G1 X112.541 Y81.362 E2.47178
G1 X113.091 Y81.487 E2.49791
G1 X115.322 Y82.562 E2.61283
G1 X115.763 Y82.913 E2.63896
G1 X117.307 Y84.850 E2.75387
G1 X117.551 Y85.357 E2.78000
G1 X118.142 Y87.944 E2.90308
G1 X119.346 Y87.876 E2.95903
G1 X119.421 Y87.211 E2.99008
G1 X119.941 Y84.934 E3.09844
G1 X120.185 Y84.426 E3.12457
G1 X121.729 Y82.490 E3.23949
G1 X122.170 Y82.139 E3.26562
G1 X124.401 Y81.064 E3.38053
G1 X124.950 Y80.939 E3.40666
G1 X127.427 Y80.939 E3.52157
G1 X127.977 Y81.064 E3.54771
G1 X130.208 Y82.139 E3.66262
G1 X130.649 Y82.490 E3.68875
G1 X132.193 Y84.426 E3.80366
G1 X132.437 Y84.934 E3.82979
G1 X132.888 Y86.910 E3.92383
G1 X134.027 Y86.910 E3.97668
G1 X134.501 Y84.836 E4.07537
G1 X134.745 Y84.329 E4.10150
G1 X136.290 Y82.392 E4.21641
G1 X136.730 Y82.041 E4.24255
G1 X138.962 Y80.966 E4.35746
G1 X139.511 Y80.841 E4.38359
G1 X141.988 Y80.841 E4.49850
G1 X142.537 Y80.966 E4.52463
G1 X144.768 Y82.041 E4.63954 F3000.000
G1 X145.209 Y82.392 E4.66568
G1 X146.753 Y84.329 E4.78059
G1 X146.998 Y84.836 E4.80672
G1 X147.517 Y87.113 E4.91508
G1 X147.549 Y87.392 E4.92810
G1 X147.549 Y112.673 E6.10094
G1 X147.517 Y112.952 E6.11397
G1 X146.998 Y115.229 E6.22232
G1 X146.753 Y115.737 E6.24846
G1 X145.209 Y117.673 E6.36337
G1 X144.768 Y118.024 E6.38950
G1 X142.537 Y119.099 E6.50441
G1 X141.988 Y119.224 E6.53054
G1 X139.511 Y119.224 E6.64546
G1 X138.962 Y119.099 E6.67159
G1 X136.730 Y118.024 E6.78650
G1 X136.290 Y117.673 E6.81263
G1 X134.745 Y115.737 E6.92754
G1 X134.501 Y115.229 E6.95367
G1 X134.050 Y113.253 E7.04772
G1 X132.911 Y113.253 E7.10056
G1 X132.437 Y115.327 E7.19925
G1 X132.193 Y115.834 E7.22538
G1 X130.649 Y117.771 E7.34030
G1 X130.208 Y118.122 E7.36643
G1 X127.977 Y119.197 E7.48134
G1 X127.427 Y119.322 E7.50747
G1 X124.950 Y119.322 E7.62238
G1 X124.401 Y119.197 E7.64851
G1 X122.170 Y118.122 E7.76343
G1 X121.729 Y117.771 E7.78956
G1 X120.185 Y115.834 E7.90447
G1 X119.941 Y115.327 E7.93060
G1 X119.350 Y112.740 E8.05368
G1 X118.146 Y112.808 E8.10963
G1 X118.071 Y113.473 E8.14069
G1 X117.551 Y115.750 E8.24904
G1 X117.307 Y116.258 E8.27517
G1 X115.763 Y118.194 E8.39009
G1 X115.322 Y118.545 E8.41622
G1 X113.091 Y119.620 E8.53113
G1 X112.541 Y119.745 E8.55726
G1 X110.064 Y119.745 E8.67218
G1 X109.515 Y119.620 E8.69831
G1 X107.284 Y118.545 E8.81322
G1 X106.843 Y118.194 E8.83935
G1 X105.299 Y116.258 E8.95426
G1 X105.055 Y115.750 E8.98039
G1 X104.535 Y113.473 E9.08875
G1 X104.503 Y113.194 E9.10178
G1 X104.503 Y87.913 E10.27462
G1 X104.535 Y87.634 E10.28764
G1 X104.804 Y86.453 E10.34387
G1 E8.34387 F2400.000
G92 E0
G1 Z0.700 F6000.000
G1 X10.600 Y35.384 F6000.000
G1 X134.664 Y87.432 F6000.000
G1 Z0.400 F6000.000
G1 E2.00000 F2400.000
G1 X134.686 Y87.233 E2.00930 F3000.000
G1 X135.179 Y85.073 E2.11207
G1 X135.354 Y84.711 E2.13073
G1 X136.798 Y82.900 E2.23818
G1 X137.112 Y82.649 E2.25685
G1 X139.199 Y81.645 E2.36429
G1 X139.591 Y81.555 E2.38296
G1 X141.907 Y81.555 E2.49040
G1 X142.299 Y81.645 E2.50907 F3000.000
G1 X144.386 Y82.649 E2.61651
G1 X144.701 Y82.900 E2.63518
G1 X146.145 Y84.711 E2.74262
G1 X146.319 Y85.073 E2.76129
G1 X146.812 Y87.233 E2.86405
G1 X146.835 Y87.432 E2.87336
G1 X146.835 Y112.633 E4.04248
G1 X146.812 Y112.832 E4.05178
G1 X146.319 Y114.992 E4.15454
G1 X146.145 Y115.354 E4.17321
G1 X144.701 Y117.165 E4.28066
G1 X144.386 Y117.416 E4.29932
G1 X142.299 Y118.421 E4.40677
G1 X141.907 Y118.510 E4.42543
G1 X139.591 Y118.510 E4.53288
G1 X139.199 Y118.421 E4.55154
G1 X137.112 Y117.416 E4.65899
G1 X136.798 Y117.165 E4.67766
G1 X135.354 Y115.354 E4.78510
G1 X135.179 Y114.992 E4.80377
G1 X134.686 Y112.832 E4.90653
G1 X134.664 Y112.633 E4.91584
G1 X134.664 Y87.507 E6.08148
G1 X135.378 Y87.507 F6000.000
G1 X135.391 Y87.353 E6.08867 F3000.000
G1 X135.857 Y85.311 E6.18584
G1 X135.962 Y85.093 E6.19704
G1 X137.306 Y83.408 E6.29702
G1 X137.495 Y83.258 E6.30822
G1 X139.436 Y82.323 E6.40820
G1 X139.672 Y82.269 E6.41940
G1 X141.827 Y82.269 E6.51938
G1 X142.062 Y82.323 E6.53058
G1 X144.004 Y83.258 E6.63056 F3000.000
G1 X144.192 Y83.408 E6.64176
G1 X145.536 Y85.093 E6.74174
G1 X145.641 Y85.311 E6.75293
G1 X146.107 Y87.353 E6.85011
G1 X146.120 Y87.472 E6.85569
G1 X146.120 Y112.593 E8.02109
G1 X146.107 Y112.712 E8.02667
G1 X145.641 Y114.754 E8.12384
G1 X145.536 Y114.972 E8.13504
G1 X144.192 Y116.657 E8.23502
G1 X144.004 Y116.807 E8.24622
G1 X142.062 Y117.742 E8.34620
G1 X141.827 Y117.796 E8.35740
G1 X139.672 Y117.796 E8.45738
G1 X139.436 Y117.742 E8.46858
