; generated by Slic3r 1.2.0 on 2014-10-17 at 11:52:03

; external perimeters extrusion width = 0.50mm
; perimeters extrusion width = 0.72mm
; infill extrusion width = 0.72mm
; solid infill extrusion width = 0.72mm
; top infill extrusion width = 0.72mm

G21 ; set units to millimeters
M107
M190 S110 ; wait for bed temperature to be reached
M104 S235 ; set temperature
G28 ; home all axes
M109 S235 ; wait for temperature to be reached
G90 ; use absolute coordinates
G92 E0
M82 ; use absolute distances for extrusion
G1 F2400.000 E-2.00000
G1 Z0.600 F9000.000
G92 E0
G1 X62.568 Y75.148 F9000.000
G1 Z0.300 F9000.000
G1 E2.00000 F2400.000
G1 X64.727 Y74.334 E2.02384 F2400.000
G1 X65.978 Y74.216 E2.03682
G1 X91.978 Y74.216 E2.30544
G1 X94.251 Y74.613 E2.32929
G1 X96.255 Y75.757 E2.35313 F2400.000
G1 X97.705 Y77.434 E2.37603
G1 X123.911 Y120.449 E2.89643
G1 X124.755 Y122.597 E2.92027
G1 X124.891 Y123.938 E2.93420
G1 X124.493 Y126.215 E2.95807
G1 X123.349 Y128.219 E2.98192
G1 X121.594 Y129.717 E3.00576
G1 X119.434 Y130.531 E3.02960
G1 X118.184 Y130.648 E3.04257
G1 X72.478 Y130.651 E3.51480
G1 X71.269 Y130.541 E3.52734
G1 X69.851 Y130.281 E3.54223
G1 X67.249 Y129.204 E3.57132
G1 X65.674 Y128.116 E3.59110
G1 X63.545 Y125.713 E3.62427
G1 X62.545 Y123.797 E3.64660
G1 X60.217 Y118.914 E3.70249
G1 X59.652 Y117.334 E3.71983
G1 X59.507 Y116.730 E3.72624
G1 X59.341 Y115.683 E3.73720
G1 X59.292 Y115.063 E3.74362
G1 X59.271 Y114.531 E3.74912
G1 X59.271 Y80.923 E4.09634
G1 X59.668 Y78.650 E4.12019
G1 X60.812 Y76.646 E4.14403
G1 X62.511 Y75.197 E4.16710
G1 X62.671 Y75.391 F9000.000
G1 X62.793 Y75.290 E4.16873 F2400.000
G1 X65.978 Y74.452 E4.20276
G1 X91.978 Y74.452 E4.47138
G1 X94.209 Y74.849 E4.49479
G1 X96.167 Y75.991 E4.51821 F2400.000
G1 X97.504 Y77.556 E4.53948
G1 X123.710 Y120.572 E5.05988
G1 X124.532 Y122.684 E5.08329
G1 X124.655 Y123.938 E5.09632
G1 X124.258 Y126.173 E5.11977
G1 X123.116 Y128.131 E5.14318
G1 X121.369 Y129.575 E5.16660
G1 X118.184 Y130.413 E5.20063
G1 X72.478 Y130.415 E5.67285
G1 X71.311 Y130.309 E5.68495
G1 X69.893 Y130.049 E5.69984
G1 X67.383 Y129.010 E5.72791
G1 X65.808 Y127.922 E5.74769
G1 X63.754 Y125.604 E5.77969
G1 X62.757 Y123.695 E5.80193
G1 X60.435 Y118.824 E5.85769
G1 X59.881 Y117.279 E5.87465
G1 X59.736 Y116.675 E5.88106
G1 X59.576 Y115.664 E5.89164
G1 X59.527 Y115.045 E5.89805
G1 X59.507 Y114.531 E5.90337
G1 X59.507 Y80.923 E6.25059
G1 X59.903 Y78.692 E6.27401
G1 X61.045 Y76.734 E6.29742
G1 X62.613 Y75.439 E6.31844
G1 X62.769 Y75.634 F9000.000
G1 X63.017 Y75.436 E6.32171 F2400.000
G1 X65.978 Y74.688 E6.35327
G1 X91.978 Y74.688 E6.62189
G1 X94.167 Y75.084 E6.64487
G1 X96.077 Y76.224 E6.66785 F2400.000
G1 X97.303 Y77.679 E6.68751
G1 X123.509 Y120.694 E7.20791
G1 X124.309 Y122.770 E7.23089
G1 X124.419 Y123.938 E7.24302
G1 X124.022 Y126.130 E7.26603
G1 X122.883 Y128.041 E7.28901
G1 X121.145 Y129.429 E7.31200
G1 X118.184 Y130.177 E7.34354
G1 X72.478 Y130.179 E7.81577
G1 X71.354 Y130.077 E7.82742
G1 X69.935 Y129.817 E7.84232
G1 X67.517 Y128.816 E7.86937
G1 X65.941 Y127.728 E7.88915
G1 X63.963 Y125.494 E7.91998
G1 X62.970 Y123.594 E7.94213
G1 X60.653 Y118.733 E7.99776
G1 X60.110 Y117.224 E8.01434
G1 X59.965 Y116.620 E8.02075
G1 X59.811 Y115.646 E8.03094
G1 X59.762 Y115.026 E8.03736
G1 X59.742 Y114.531 E8.04248
G1 X59.742 Y80.923 E8.38971
G1 X60.139 Y78.734 E8.41269
G1 X61.279 Y76.824 E8.43567
G1 X62.710 Y75.680 E8.45460
G1 F2400.000 E6.45460
G1 Z0.600 F9000.000
G92 E0
G1 X66.128 Y81.073 F9000.000
G1 Z0.300 F9000.000
G1 E2.00000 F2400.000
G1 X91.828 Y81.073 E2.26552 F2400.000
G1 X91.828 Y114.525 E2.61114
G1 X91.780 Y115.133 E2.61744 F2400.000
G1 X91.639 Y115.721 E2.62368
G1 X91.408 Y116.279 E2.62992
G1 X91.092 Y116.794 E2.63616
G1 X90.700 Y117.253 E2.64240
G1 X90.240 Y117.646 E2.64864
G1 X89.725 Y117.961 E2.65489
G1 X89.167 Y118.192 E2.66113
G1 X88.907 Y118.255 E2.66389
G1 X89.323 Y119.944 E2.68186
G1 X88.883 Y121.731 E2.70088
G1 X87.662 Y123.109 E2.71989
G1 X85.861 Y123.792 E2.73980
G1 X72.628 Y123.794 E2.87652
G1 X72.628 Y123.723 E2.87725
G1 X71.114 Y123.539 E2.89300
G1 X69.599 Y122.494 E2.91202
G1 X68.744 Y120.864 E2.93103
G1 X68.744 Y119.023 E2.95005
G1 X69.136 Y118.276 E2.95877
G1 X68.788 Y118.192 E2.96247
G1 X68.230 Y117.961 E2.96872
G1 X67.715 Y117.646 E2.97495
G1 X67.256 Y117.253 E2.98119
G1 X66.863 Y116.794 E2.98744
G1 X66.548 Y116.279 E2.99367
G1 X66.317 Y115.721 E2.99992
G1 X66.176 Y115.133 E3.00616
G1 X66.128 Y114.525 E3.01246
G1 X66.128 Y81.148 E3.35730
G1 F2400.000 E1.35730
G1 Z0.600 F9000.000
G92 E0
G1 X91.555 Y114.945 F9000.000
G1 X91.558 Y114.945 F9000.000
G1 Z0.300 F9000.000
G1 E2.00000 F2400.000
G1 X91.546 Y115.096 E2.00157 F2400.000
G1 X91.414 Y115.648 E2.00743
G1 X91.197 Y116.172 E2.01329
G1 X90.901 Y116.655 E2.01914
G1 X90.533 Y117.086 E2.02500
G1 X90.101 Y117.454 E2.03086
G1 X89.618 Y117.751 E2.03672
G1 X89.094 Y117.968 E2.04258
G1 X88.622 Y118.081 E2.04760
G1 X89.081 Y119.944 E2.06742
G1 X88.668 Y121.618 E2.08523
G1 X87.524 Y122.909 E2.10305
G1 X85.818 Y123.556 E2.12190
G1 X72.863 Y123.558 E2.25575
G1 X72.863 Y123.514 E2.25620
G1 X71.200 Y123.312 E2.27351
G1 X69.781 Y122.333 E2.29132
G1 X68.980 Y120.806 E2.30914
G1 X68.980 Y119.082 E2.32696
G1 X69.486 Y118.118 E2.33820
G1 X68.861 Y117.968 E2.34484
G1 X68.337 Y117.750 E2.35070
G1 X67.854 Y117.454 E2.35655
G1 X67.423 Y117.086 E2.36241
G1 X67.055 Y116.655 E2.36827
G1 X66.758 Y116.172 E2.37413
G1 X66.541 Y115.648 E2.37998
G1 X66.409 Y115.096 E2.38584
G1 X66.363 Y114.516 E2.39186
G1 X66.363 Y81.309 E2.73494
G1 X91.592 Y81.309 E2.99560 F2400.000
G1 X91.592 Y114.516 E3.33868
G1 X91.564 Y114.870 E3.34235
G1 X91.329 Y114.852 F9000.000
G1 X91.313 Y115.059 E3.34450 F2400.000
G1 X91.189 Y115.575 E3.34998
G1 X90.987 Y116.064 E3.35545
G1 X90.710 Y116.516 E3.36093
G1 X90.366 Y116.919 E3.36640
G1 X89.963 Y117.263 E3.37188
G1 X89.511 Y117.540 E3.37735
G1 X89.021 Y117.743 E3.38283
G1 X88.336 Y117.908 E3.39011
G1 X88.838 Y119.944 E3.41177
G1 X88.453 Y121.505 E3.42839
G1 X87.387 Y122.709 E3.44500
G1 X85.775 Y123.320 E3.46281
G1 X73.099 Y123.323 E3.59378
G1 X73.099 Y123.306 E3.59395
G1 X71.286 Y123.086 E3.61282
G1 X69.963 Y122.172 E3.62943
G1 X69.215 Y120.748 E3.64605
G1 X69.215 Y119.140 E3.66267
G1 X69.835 Y117.959 E3.67644
G1 X68.934 Y117.743 E3.68601
G1 X68.444 Y117.540 E3.69149
G1 X67.993 Y117.263 E3.69696
G1 X67.590 Y116.919 E3.70243
G1 X67.246 Y116.516 E3.70791
G1 X66.969 Y116.064 E3.71338
G1 X66.766 Y115.575 E3.71886
G1 X66.642 Y115.059 E3.72433
G1 X66.599 Y114.507 E3.73006
G1 X66.599 Y81.544 E4.07061
G1 X91.357 Y81.544 E4.32640
G1 X91.357 Y114.507 E4.66695
G1 X91.335 Y114.777 E4.66975 F2400.000
G1 F2400.000 E2.66975
G1 Z0.600 F9000.000
G92 E0
G1 X90.938 Y115.000 F9000.000
G1 X90.828 Y115.457 F9000.000
G1 X90.648 Y115.892 F9000.000
G1 X90.402 Y116.293 F9000.000
G1 X90.097 Y116.650 F9000.000
G1 X89.739 Y116.956 F9000.000
G1 X89.338 Y117.201 F9000.000
G1 X88.904 Y117.382 F9000.000
G1 X87.877 Y117.629 F9000.000
G1 X88.448 Y119.944 F9000.000
G1 X88.108 Y121.324 F9000.000
G1 X87.165 Y122.388 F9000.000
G1 X85.705 Y122.942 F9000.000
G1 X84.478 Y122.942 F9000.000
G1 X84.478 Y122.944 F9000.000
G1 X73.261 Y122.944 F9000.000
G1 X71.425 Y122.721 F9000.000
G1 X70.255 Y121.913 F9000.000
G1 X69.594 Y120.655 F9000.000
G1 X69.594 Y119.233 F9000.000
G1 X70.396 Y117.705 F9000.000
G1 X70.184 Y117.801 F9000.000
G1 Z0.300 F9000.000
G1 E2.00000 F2400.000
G1 X69.007 Y117.518 E2.01250 F2400.000
G1 X68.552 Y117.329 E2.01760
G1 X68.132 Y117.072 E2.02269
G1 X67.757 Y116.752 E2.02778
G1 X67.437 Y116.377 E2.03287
G1 X67.180 Y115.957 E2.03796
G1 X66.991 Y115.502 E2.04305
G1 X66.876 Y115.022 E2.04814
G1 X66.835 Y114.498 E2.05358
G1 X66.835 Y81.780 E2.39161
G1 X91.121 Y81.780 E2.64253 F2400.000
G1 X91.121 Y114.498 E2.98055
G1 X91.080 Y115.022 E2.98599
G1 X90.965 Y115.502 E2.99108
G1 X90.776 Y115.957 E2.99618
G1 X90.519 Y116.377 E3.00127
G1 X90.198 Y116.752 E3.00636
G1 X89.824 Y117.072 E3.01145
G1 X89.404 Y117.329 E3.01654
G1 X88.948 Y117.518 E3.02163
G1 X88.051 Y117.734 E3.03117
G1 X88.595 Y119.944 E3.05468
G1 X88.238 Y121.393 E3.07010
G1 X87.249 Y122.509 E3.08552
G1 X85.732 Y123.085 E3.10228
G1 X73.252 Y123.087 E3.23121
G1 X71.372 Y122.859 E3.25078
G1 X70.144 Y122.011 E3.26619
G1 X69.451 Y120.690 E3.28161
G1 X69.451 Y119.198 E3.29703
G1 X70.149 Y117.867 E3.31255
G1 F2400.000 E1.31255
G1 Z0.600 F9000.000
G92 E0
G1 X84.642 Y114.624 F9000.000
G1 Z0.300 F9000.000
G1 E2.00000 F2400.000
G1 X84.453 Y113.671 E2.01004 F2400.000
G1 X84.453 Y112.641 E2.02067
G1 X84.642 Y111.689 E2.03071
G1 X85.190 Y110.869 E2.04090
G1 X86.010 Y110.321 E2.05109
G1 X86.051 Y110.313 E2.05152
G1 X86.978 Y110.128 E2.06128 F2400.000
G1 X87.945 Y110.321 E2.07147
G1 X88.765 Y110.869 E2.08166
G1 X89.313 Y111.689 E2.09185
G1 X89.503 Y112.641 E2.10189
G1 X89.503 Y113.671 E2.11252
G1 X89.313 Y114.624 E2.12256
G1 X88.765 Y115.444 E2.13275
G1 X87.945 Y115.992 E2.14294
G1 X86.978 Y116.184 E2.15313
G1 X86.010 Y115.992 E2.16332
G1 X85.190 Y115.444 E2.17351
G1 X84.684 Y114.686 E2.18293
G1 F2400.000 E0.18293
G1 Z0.600 F9000.000
G92 E0
G1 X83.842 Y114.955 F9000.000
G1 X83.603 Y113.755 F9000.000
G1 X83.603 Y112.558 F9000.000
G1 X83.842 Y111.357 F9000.000
G1 X84.577 Y110.256 F9000.000
G1 X85.679 Y109.520 F9000.000
G1 X85.885 Y109.479 F9000.000
G1 X86.013 Y109.814 F9000.000
G1 X86.064 Y110.070 F9000.000
G1 Z0.300 F9000.000
G1 E2.00000 F2400.000
G1 X86.978 Y109.888 E2.00962 F2400.000
G1 X87.064 Y109.905 E2.01054
G1 X88.037 Y110.099 E2.02078 F2400.000
G1 X88.935 Y110.699 E2.03194
G1 X89.535 Y111.597 E2.04310
G1 X89.738 Y112.618 E2.05386
G1 X89.738 Y113.694 E2.06498
G1 X89.535 Y114.716 E2.07574
G1 X88.935 Y115.614 E2.08690
G1 X88.037 Y116.214 E2.09805
G1 X86.978 Y116.424 E2.10921
G1 X85.918 Y116.214 E2.12037
G1 X85.020 Y115.614 E2.13153
G1 X84.420 Y114.716 E2.14269
G1 X84.217 Y113.694 E2.15345
G1 X84.217 Y112.618 E2.16457
G1 X84.420 Y111.597 E2.17533
G1 X85.020 Y110.699 E2.18648
G1 X85.918 Y110.099 E2.19764
G1 X85.991 Y110.084 E2.19840
G1 X85.945 Y109.853 F9000.000
G1 X85.959 Y109.850 E2.19856 F2400.000
G1 X86.978 Y109.648 E2.20929 F2400.000
G1 X88.129 Y109.877 E2.22141
G1 X89.105 Y110.529 E2.23354
G1 X89.757 Y111.505 E2.24567
G1 X89.974 Y112.595 E2.25715
G1 X89.974 Y113.717 E2.26875
G1 X89.757 Y114.808 E2.28023
G1 X89.105 Y115.784 E2.29236
G1 X88.129 Y116.436 E2.30449
G1 X86.978 Y116.665 E2.31661
G1 X85.826 Y116.436 E2.32874
G1 X84.850 Y115.784 E2.34087
G1 X84.198 Y114.808 E2.35300
G1 X83.982 Y113.717 E2.36448
G1 X83.982 Y112.595 E2.37607
G1 X84.198 Y111.505 E2.38756
G1 X84.850 Y110.529 E2.39969
G1 X85.826 Y109.877 E2.41181
G1 X85.871 Y109.868 E2.41228
G1 X85.825 Y109.637 F9000.000
G1 X86.978 Y109.408 E2.42442 F2400.000
G1 X87.156 Y109.443 E2.42630
G1 X88.221 Y109.655 E2.43752 F2400.000
G1 X89.275 Y110.359 E2.45062
G1 X89.979 Y111.413 E2.46371
G1 X90.210 Y112.572 E2.47592
G1 X90.210 Y113.741 E2.48799
G1 X89.979 Y114.899 E2.50020
G1 X89.275 Y115.953 E2.51330
G1 X88.221 Y116.658 E2.52639
G1 X86.978 Y116.905 E2.53949
G1 X85.735 Y116.658 E2.55259
G1 X84.681 Y115.953 E2.56568
G1 X83.976 Y114.899 E2.57878
G1 X83.746 Y113.741 E2.59098
G1 X83.746 Y112.572 E2.60306
G1 X83.976 Y111.413 E2.61527
G1 X84.681 Y110.359 E2.62836
G1 X85.752 Y109.652 E2.64162
G1 F2400.000 E0.64162
G1 Z0.600 F9000.000
G92 E0
G1 X83.628 Y104.641 F9000.000
G1 Z0.300 F9000.000
G1 E2.00000 F2400.000
G1 X74.328 Y104.641 E2.09608 F2400.000
G1 X74.328 Y90.671 E2.24042
G1 X83.628 Y90.671 E2.33650 F2400.000
G1 X83.628 Y104.566 E2.48006
G1 F2400.000 E0.48006
G1 Z0.600 F9000.000
G92 E0
G1 X84.478 Y105.491 F9000.000
G1 X73.478 Y105.491 F9000.000
G1 X73.478 Y89.821 F9000.000
G1 X74.078 Y90.238 F9000.000
G1 X74.092 Y90.436 F9000.000
G1 Z0.300 F9000.000
G1 E2.00000 F2400.000
G1 X83.863 Y90.436 E2.10095 F2400.000
G1 X83.863 Y104.877 E2.25016
G1 X74.092 Y104.877 E2.35111 F2400.000
G1 X74.092 Y90.511 E2.49954
G1 X73.857 Y90.511 F9000.000
G1 X73.857 Y90.200 E2.50275 F2400.000
G1 X84.099 Y90.200 E2.60857 F2400.000
G1 X84.099 Y105.113 E2.76264
G1 X73.857 Y105.113 E2.86846
G1 X73.857 Y90.586 E3.01855
G1 X73.621 Y90.586 F9000.000
G1 X73.621 Y89.964 E3.02497 F2400.000
G1 X84.335 Y89.964 E3.13566
G1 X84.335 Y105.348 E3.29460
G1 X73.621 Y105.348 E3.40529 F2400.000
G1 X73.621 Y90.661 E3.55703
G1 F2400.000 E1.55703
G1 Z0.600 F9000.000
G92 E0
G1 X70.978 Y110.128 F9000.000
G1 Z0.300 F9000.000
G1 E2.00000 F2400.000
G1 X71.945 Y110.321 E2.01019 F2400.000
G1 X72.765 Y110.869 E2.02038
G1 X73.313 Y111.689 E2.03057
G1 X73.503 Y112.641 E2.04061
G1 X73.503 Y113.671 E2.05124
G1 X73.313 Y114.624 E2.06128
G1 X72.765 Y115.444 E2.07147
G1 X71.945 Y115.992 E2.08166
G1 X71.018 Y116.176 E2.09142
G1 X70.978 Y116.184 E2.09185
G1 X70.010 Y115.992 E2.10204
G1 X69.190 Y115.444 E2.11223
G1 X68.642 Y114.624 E2.12242
G1 X68.453 Y113.671 E2.13246
G1 X68.453 Y112.641 E2.14309
G1 X68.642 Y111.689 E2.15313
G1 X69.190 Y110.869 E2.16332
G1 X70.010 Y110.321 E2.17351
G1 X70.051 Y110.313 E2.17394
G1 X70.904 Y110.143 E2.18293 F2400.000
G1 X69.986 Y109.817 F9000.000
G1 X70.037 Y110.075 F9000.000
G1 X70.978 Y109.888 E2.19284 F2400.000
G1 X71.064 Y109.905 E2.19375
G1 X72.037 Y110.099 E2.20400 F2400.000
G1 X72.935 Y110.699 E2.21515
G1 X73.535 Y111.597 E2.22631
G1 X73.738 Y112.618 E2.23707
G1 X73.738 Y113.694 E2.24819
G1 X73.535 Y114.716 E2.25895
G1 X72.935 Y115.614 E2.27011
G1 X72.037 Y116.214 E2.28127
G1 X70.978 Y116.424 E2.29243
G1 X69.918 Y116.214 E2.30358
G1 X69.020 Y115.614 E2.31474
G1 X68.420 Y114.716 E2.32590
G1 X68.217 Y113.694 E2.33666
G1 X68.217 Y112.618 E2.34778
G1 X68.420 Y111.597 E2.35854
G1 X69.020 Y110.699 E2.36970
G1 X69.918 Y110.099 E2.38085
G1 X69.963 Y110.090 E2.38133
G1 X69.918 Y109.859 F9000.000
G1 X69.959 Y109.850 E2.38177 F2400.000
G1 X70.978 Y109.648 E2.39250 F2400.000
G1 X72.129 Y109.877 E2.40463
G1 X73.105 Y110.529 E2.41675
G1 X73.757 Y111.505 E2.42888
G1 X73.974 Y112.595 E2.44036
G1 X73.974 Y113.717 E2.45196
G1 X73.757 Y114.808 E2.46344
G1 X73.105 Y115.784 E2.47557
G1 X72.129 Y116.436 E2.48770
G1 X70.978 Y116.665 E2.49983
G1 X69.826 Y116.436 E2.51195
G1 X68.850 Y115.784 E2.52408
G1 X68.198 Y114.808 E2.53621
G1 X67.982 Y113.717 E2.54769
G1 X67.982 Y112.595 E2.55929
G1 X68.198 Y111.505 E2.57077
G1 X68.850 Y110.529 E2.58290
G1 X69.844 Y109.873 E2.59520
G1 X69.798 Y109.642 F9000.000
G1 X70.978 Y109.408 E2.60762 F2400.000
G1 X71.156 Y109.443 E2.60950
G1 X72.221 Y109.655 E2.62072 F2400.000
G1 X73.275 Y110.359 E2.63382
G1 X73.979 Y111.413 E2.64691
G1 X74.210 Y112.572 E2.65912
G1 X74.210 Y113.741 E2.67119
G1 X73.979 Y114.899 E2.68340
G1 X73.275 Y115.953 E2.69650
G1 X72.221 Y116.658 E2.70959
G1 X70.978 Y116.905 E2.72269
G1 X69.735 Y116.658 E2.73578
G1 X68.681 Y115.953 E2.74888
G1 X67.976 Y114.899 E2.76198
G1 X67.746 Y113.741 E2.77418
G1 X67.746 Y112.572 E2.78626
G1 X67.976 Y111.413 E2.79847
G1 X68.681 Y110.359 E2.81156
G1 X69.726 Y109.661 E2.82455
G1 F2400.000 E0.82455
G1 Z0.600 F9000.000
G92 E0
G1 X67.058 Y82.004 F9000.000
G1 Z0.300 F9000.000
G1 E2.00000 F2400.000
G1 X90.897 Y82.004 E2.24629 F2400.000
G1 X90.897 Y114.489 E2.58191
G1 X90.858 Y114.987 E2.58708
G1 X90.751 Y115.432 E2.59181
G1 X90.576 Y115.855 E2.59654
G1 X90.337 Y116.245 E2.60126
G1 X90.040 Y116.593 E2.60599
G1 X89.692 Y116.890 E2.61072
G1 X89.302 Y117.129 E2.61545
G1 X88.879 Y117.305 E2.62018
G1 X87.779 Y117.569 E2.63186
G1 X88.365 Y119.944 E2.65713
G1 X88.034 Y121.285 E2.67140
G1 X87.118 Y122.320 E2.68568
G1 X85.690 Y122.861 E2.70145
G1 X73.266 Y122.863 E2.82982
G1 X71.454 Y122.643 E2.84867
G1 X70.317 Y121.858 E2.86295
G1 X69.675 Y120.635 E2.87722
G1 X69.675 Y119.253 E2.89150
G1 X70.516 Y117.650 E2.91020
G1 X69.077 Y117.305 E2.92549
G1 X68.654 Y117.129 E2.93022
G1 X68.264 Y116.890 E2.93495
G1 X67.916 Y116.593 E2.93967
G1 X67.619 Y116.245 E2.94440
G1 X67.380 Y115.855 E2.94913
G1 X67.204 Y115.432 E2.95386
G1 X67.098 Y114.987 E2.95858
G1 X67.058 Y114.489 E2.96375
G1 X67.058 Y82.079 E3.29860
G1 F2400.000 E1.29860
G1 Z0.600 F9000.000
G92 E0
G1 X66.978 Y81.923 F9000.000
G1 X71.243 Y86.188 F9000.000
G1 X73.478 Y85.872 F9000.000
G1 X84.478 Y85.872 F9000.000
G1 X86.713 Y86.188 F9000.000
G1 X87.728 Y89.821 F9000.000
