; generated by Slic3r 1.2.0 on 2014-10-17 at 08:33:31

; external perimeters extrusion width = 0.50mm
; perimeters extrusion width = 0.72mm
; infill extrusion width = 0.72mm
; solid infill extrusion width = 0.72mm
; top infill extrusion width = 0.72mm

G21 ; set units to millimeters
M107
M190 S110 ; wait for bed temperature to be reached
M104 S235 ; set temperature
G28 ; home all axes
M109 S235 ; wait for temperature to be reached
G90 ; use absolute coordinates
G92 E0
M82 ; use absolute distances for extrusion
G1 F2400.000 E-2.00000
G1 Z0.600 F9000.000
G92 E0
G1 X81.756 Y85.673 F9000.000
G1 Z0.300 F9000.000
G1 E2.00000 F2400.000
G1 X83.881 Y84.585 E2.02467 F2400.000
G1 X85.669 Y84.260 E2.04344
G1 X97.411 Y83.645 E2.16492
G1 X99.783 Y83.919 E2.18959
G1 X101.934 Y84.956 E2.21426 F2400.000
G1 X103.626 Y86.641 E2.23894
G1 X104.486 Y88.241 E2.25770
G1 X108.699 Y99.216 E2.37916
G1 X109.172 Y101.557 E2.40383
G1 X108.851 Y103.923 E2.42850
G1 X107.771 Y106.053 E2.45317
G1 X106.515 Y107.367 E2.47195
G1 X97.379 Y114.765 E2.59341
G1 X95.299 Y115.938 E2.61808
G1 X92.949 Y116.364 E2.64275
G1 X90.590 Y115.996 E2.66742
G1 X88.952 Y115.207 E2.68621
G1 X79.093 Y108.804 E2.80766
G1 X77.334 Y107.188 E2.83234
G1 X76.203 Y105.085 E2.85701
G1 X75.825 Y102.727 E2.88168
G1 X76.069 Y100.927 E2.90045
G1 X79.112 Y89.570 E3.02192
G1 X80.105 Y87.399 E3.04660
G1 X81.704 Y85.727 E3.07049
G1 X81.880 Y85.898 F9000.000
G1 X81.960 Y85.816 E3.07168 F2400.000
G1 X84.065 Y84.775 E3.09594
G1 X85.681 Y84.496 E3.11289
G1 X97.423 Y83.880 E3.23437
G1 X99.755 Y84.156 E3.25863
G1 X101.861 Y85.194 E3.28289 F2400.000
G1 X103.502 Y86.875 E3.30715
G1 X104.266 Y88.325 E3.32409
G1 X108.479 Y99.301 E3.44555
G1 X108.938 Y101.604 E3.46982
G1 X108.602 Y103.928 E3.49408
G1 X107.511 Y106.007 E3.51834
G1 X106.367 Y107.184 E3.53529
G1 X97.231 Y114.582 E3.65675
G1 X95.182 Y115.730 E3.68101
G1 X92.868 Y116.129 E3.70527
G1 X90.553 Y115.734 E3.72953
G1 X89.081 Y115.009 E3.74649
G1 X79.221 Y108.606 E3.86795
G1 X77.497 Y107.013 E3.89221
G1 X76.402 Y104.935 E3.91647
G1 X76.062 Y102.612 E3.94073
G1 X76.296 Y100.988 E3.95769
G1 X79.339 Y89.631 E4.07916
G1 X80.322 Y87.499 E4.10342
G1 X81.827 Y85.952 E4.12572
G1 X82.001 Y86.124 F9000.000
G1 X82.163 Y85.960 E4.12810 F2400.000
G1 X84.247 Y84.968 E4.15194
G1 X85.694 Y84.731 E4.16709
G1 X97.435 Y84.116 E4.28857
G1 X99.726 Y84.394 E4.31241
G1 X101.787 Y85.432 E4.33625 F2400.000
G1 X103.374 Y87.107 E4.36009
G1 X104.046 Y88.410 E4.37524
G1 X108.259 Y99.385 E4.49670
G1 X108.703 Y101.650 E4.52054
G1 X108.353 Y103.931 E4.54438
G1 X107.251 Y105.958 E4.56822
G1 X106.218 Y107.001 E4.58338
G1 X97.082 Y114.399 E4.70484
G1 X95.066 Y115.521 E4.72868
G1 X92.788 Y115.893 E4.75252
G1 X90.520 Y115.471 E4.77636
G1 X89.209 Y114.811 E4.79152
G1 X79.350 Y108.409 E4.91298
G1 X77.659 Y106.838 E4.93682
G1 X76.602 Y104.787 E4.96067
G1 X76.302 Y102.498 E4.98451
G1 X76.524 Y101.049 E4.99966
G1 X79.567 Y89.692 E5.12113
G1 X80.539 Y87.599 E5.14497
G1 X81.948 Y86.177 E5.16566
G1 X82.119 Y86.350 F9000.000
G1 X82.366 Y86.105 E5.16924 F2400.000
G1 X84.427 Y85.163 E5.19266
G1 X85.706 Y84.966 E5.20603
G1 X97.448 Y84.351 E5.32751
G1 X99.697 Y84.631 E5.35092
G1 X101.711 Y85.670 E5.37434 F2400.000
G1 X103.244 Y87.339 E5.39776
G1 X103.826 Y88.494 E5.41112
G1 X108.039 Y99.470 E5.53258
G1 X108.468 Y101.695 E5.55600
G1 X108.103 Y103.932 E5.57941
G1 X106.990 Y105.906 E5.60283
G1 X106.070 Y106.817 E5.61621
G1 X96.934 Y114.216 E5.73766
G1 X94.950 Y115.311 E5.76108
G1 X92.710 Y115.656 E5.78450
G1 X90.488 Y115.207 E5.80791
G1 X89.337 Y114.614 E5.82129
G1 X79.478 Y108.211 E5.94275
G1 X77.823 Y106.663 E5.96617
G1 X76.803 Y104.639 E5.98958
G1 X76.543 Y102.387 E6.01300
G1 X76.752 Y101.109 E6.02637
G1 X79.795 Y89.753 E6.14784
G1 X80.756 Y87.701 E6.17126
G1 X82.066 Y86.402 E6.19031
G1 X82.235 Y86.576 F9000.000
G1 X82.568 Y86.253 E6.19511 F2400.000
G1 X84.606 Y85.361 E6.21809
G1 X85.718 Y85.202 E6.22971
G1 X97.460 Y84.586 E6.35118
G1 X99.666 Y84.869 E6.37416
G1 X101.633 Y85.907 E6.39715 F2400.000
G1 X103.111 Y87.571 E6.42013
G1 X103.606 Y88.579 E6.43173
G1 X107.819 Y99.554 E6.55319
G1 X108.233 Y101.740 E6.57618
G1 X107.853 Y103.932 E6.59916
G1 X106.728 Y105.851 E6.62214
G1 X105.922 Y106.634 E6.63376
G1 X96.786 Y114.032 E6.75522
G1 X94.835 Y115.102 E6.77820
G1 X92.633 Y115.418 E6.80118
G1 X90.460 Y114.941 E6.82417
G1 X89.465 Y114.416 E6.83579
G1 X79.606 Y108.013 E6.95724
G1 X77.987 Y106.489 E6.98023
G1 X77.005 Y104.492 E7.00321
G1 X76.787 Y102.278 E7.02619
G1 X76.979 Y101.170 E7.03781
G1 X80.022 Y89.814 E7.15928
G1 X80.972 Y87.803 E7.18226
G1 X82.181 Y86.629 E7.19967
G1 F2400.000 E5.19967
G1 Z0.600 F9000.000
G92 E0
G1 X86.162 Y91.573 F9000.000
G1 Z0.300 F9000.000
G1 E2.00000 F2400.000
G1 X97.684 Y90.969 E2.11920 F2400.000
G1 X101.761 Y101.591 E2.23675
G1 X101.818 Y101.740 E2.23841 F2400.000
G1 X92.852 Y109.001 E2.35761
G1 X83.176 Y102.717 E2.47681
G1 X86.142 Y91.645 E2.59524
G1 F2400.000 E0.59524
G1 Z0.600 F9000.000
G92 E0
G1 X101.720 Y101.746 F9000.000
G1 X101.537 Y101.665 F9000.000
G1 Z0.300 F9000.000
G1 E2.00000 F2400.000
G1 X92.837 Y108.711 E2.11567 F2400.000
G1 X83.447 Y102.613 E2.23133
G1 X86.345 Y91.799 E2.34700
G1 X97.525 Y91.213 E2.46267 F2400.000
G1 X101.510 Y101.595 E2.57756
G1 X101.256 Y101.590 F9000.000
G1 X92.821 Y108.420 E2.68969 F2400.000
G1 X83.719 Y102.509 E2.80182
G1 X86.528 Y92.026 E2.91394
G1 X97.292 Y91.461 E3.02530
G1 X96.428 Y91.743 F9000.000
G1 X97.208 Y91.702 E3.03337 F2400.000
G1 X100.974 Y101.514 E3.14196
G1 X92.806 Y108.129 E3.25055
G1 X83.991 Y102.404 E3.35915
G1 X86.712 Y92.252 E3.46774
G1 X96.353 Y91.747 E3.56748 F2400.000
G1 F2400.000 E1.56748
G1 Z0.600 F9000.000
G92 E0
G1 X86.886 Y92.467 F9000.000
G1 Z0.300 F9000.000
G1 E2.00000 F2400.000
G1 X97.057 Y91.934 E2.10523 F2400.000
G1 X100.707 Y101.443 E2.21046
G1 X92.792 Y107.853 E2.31570
G1 X84.250 Y102.305 E2.42093
G1 X86.866 Y92.539 E2.52538
G1 X87.070 Y92.694 F9000.000
G1 X96.898 Y92.179 E2.62706 F2400.000
G1 X100.424 Y101.367 E2.72873
G1 X92.776 Y107.560 E2.83041
G1 X84.523 Y102.200 E2.93209
G1 X87.051 Y92.767 E3.03299
G1 X87.254 Y92.922 F9000.000
G1 X96.738 Y92.425 E3.13110 F2400.000
G1 X100.142 Y101.291 E3.22922
G1 X92.761 Y107.268 E3.32734
G1 X84.796 Y102.095 E3.42546
G1 X87.235 Y92.994 E3.52281
G1 X87.439 Y93.150 F9000.000
G1 X96.579 Y92.670 E3.61737 F2400.000
G1 X99.859 Y101.215 E3.71193
G1 X92.746 Y106.975 E3.80649
G1 X85.070 Y101.990 E3.90106
G1 X87.419 Y93.222 E3.99484
G1 X87.623 Y93.377 F9000.000
G1 X96.419 Y92.916 E4.08585 F2400.000
G1 X99.576 Y101.140 E4.17686
G1 X92.730 Y106.683 E4.26786
G1 X85.343 Y101.885 E4.35887
G1 X87.603 Y93.450 E4.44910
G1 X87.807 Y93.605 F9000.000
G1 X96.260 Y93.162 E4.53655 F2400.000
G1 X99.293 Y101.064 E4.62400
G1 X92.715 Y106.390 E4.71145
G1 X85.616 Y101.781 E4.79890
G1 X87.788 Y93.677 E4.88558
G1 X87.991 Y93.832 F9000.000
G1 X96.100 Y93.407 E4.96947 F2400.000
G1 X99.010 Y100.988 E5.05336
G1 X92.700 Y106.098 E5.13726
G1 X85.890 Y101.676 E5.22115
G1 X87.972 Y93.905 E5.30427
G1 X88.176 Y94.060 F9000.000
G1 X95.941 Y93.653 E5.38461 F2400.000
G1 X98.727 Y100.912 E5.46495
G1 X92.684 Y105.806 E5.54528
G1 X86.163 Y101.571 E5.62562
G1 X88.156 Y94.132 E5.70518
G1 X88.360 Y94.287 F9000.000
G1 X95.781 Y93.898 E5.78196 F2400.000
G1 X98.445 Y100.836 E5.85874
G1 X92.669 Y105.513 E5.93553
G1 X86.436 Y101.466 E6.01231
G1 X88.340 Y94.360 E6.08831
G1 X88.544 Y94.515 F9000.000
G1 X95.622 Y94.144 E6.16154 F2400.000
G1 X98.162 Y100.761 E6.23476
G1 X92.654 Y105.221 E6.30799
G1 X86.710 Y101.361 E6.38121
G1 X88.525 Y94.587 E6.45366
G1 X88.728 Y94.742 F9000.000
G1 X95.462 Y94.389 E6.52333 F2400.000
G1 X97.879 Y100.685 E6.59300
G1 X92.638 Y104.928 E6.66267
G1 X86.983 Y101.256 E6.73233
G1 X88.709 Y94.815 E6.80123
G1 X88.913 Y94.970 F9000.000
G1 X95.303 Y94.635 E6.86734 F2400.000
G1 X97.596 Y100.609 E6.93345
G1 X92.623 Y104.636 E6.99956
G1 X87.257 Y101.151 E7.06568
G1 X88.893 Y95.042 E7.13101
G1 X89.097 Y95.198 F9000.000
G1 X95.143 Y94.881 E7.19357 F2400.000
G1 X97.313 Y100.533 E7.25612
G1 X92.608 Y104.344 E7.31868
G1 X87.530 Y101.046 E7.38123
G1 X89.078 Y95.270 E7.44302
G1 X89.281 Y95.425 F9000.000
G1 X94.984 Y95.126 E7.50201 F2400.000
G1 X97.030 Y100.457 E7.56101
G1 X92.592 Y104.051 E7.62001
G1 X87.803 Y100.941 E7.67901
G1 X89.262 Y95.498 E7.73724
G1 X89.465 Y95.653 F9000.000
G1 X94.824 Y95.372 E7.79268 F2400.000
G1 X96.748 Y100.382 E7.84812
G1 X92.577 Y103.759 E7.90357
G1 X88.077 Y100.836 E7.95901
G1 X89.446 Y95.725 E8.01368
G1 X89.650 Y95.880 F9000.000
G1 X94.665 Y95.617 E8.06556 F2400.000
G1 X96.465 Y100.306 E8.11745
G1 X92.562 Y103.466 E8.16934
G1 X88.350 Y100.731 E8.22122
G1 X89.630 Y95.953 E8.27233
G1 X89.834 Y96.108 F9000.000
G1 X94.506 Y95.863 E8.32067 F2400.000
G1 X96.182 Y100.230 E8.36900
G1 X92.547 Y103.174 E8.41733
G1 X88.623 Y100.626 E8.46566
G1 X89.815 Y96.180 E8.51321
G1 X90.018 Y96.335 F9000.000
G1 X94.346 Y96.108 E8.55799 F2400.000
G1 X95.899 Y100.154 E8.60276
G1 X92.531 Y102.882 E8.64753
G1 X88.897 Y100.521 E8.69231
G1 X89.999 Y96.408 E8.73631
G1 X90.203 Y96.563 F9000.000
G1 X94.187 Y96.354 E8.77752 F2400.000
G1 X95.616 Y100.079 E8.81874
G1 X92.516 Y102.589 E8.85996
G1 X89.170 Y100.416 E8.90118
G1 X90.183 Y96.635 E8.94162
G1 X90.387 Y96.790 F9000.000
G1 X94.027 Y96.600 E8.97928 F2400.000
G1 X95.333 Y100.003 E9.01694
G1 X92.501 Y102.297 E9.05460
G1 X89.443 Y100.311 E9.09226
G1 X90.367 Y96.863 E9.12915
G1 X90.571 Y97.018 F9000.000
G1 X93.868 Y96.845 E9.16325 F2400.000
G1 X95.051 Y99.927 E9.19736
G1 X92.485 Y102.004 E9.23146
G1 X89.717 Y100.206 E9.26557
G1 X90.552 Y97.090 E9.29890
G1 X90.755 Y97.246 F9000.000
G1 X93.708 Y97.091 E9.32945 F2400.000
G1 X94.768 Y99.851 E9.36000
G1 X92.470 Y101.712 E9.39054
G1 X89.990 Y100.102 E9.42109
G1 X90.736 Y97.318 E9.45087
G1 X90.940 Y97.473 F9000.000
G1 X93.549 Y97.336 E9.47786 F2400.000
G1 X94.485 Y99.775 E9.50485
G1 X92.455 Y101.420 E9.53184
G1 X90.263 Y99.997 E9.55884
G1 X90.920 Y97.546 E9.58505
G1 X91.124 Y97.701 F9000.000
G1 X93.389 Y97.582 E9.60849 F2400.000
G1 X94.202 Y99.700 E9.63192
G1 X92.439 Y101.127 E9.65536
G1 X90.537 Y99.892 E9.67880
G1 X91.105 Y97.773 E9.70146
G1 X91.308 Y97.928 F9000.000
G1 X93.230 Y97.827 E9.72134 F2400.000
G1 X93.919 Y99.624 E9.74122
G1 X92.424 Y100.835 E9.76110
G1 X90.810 Y99.787 E9.78098
G1 X91.289 Y98.001 E9.80008
G1 X91.492 Y98.156 F9000.000
G1 X93.070 Y98.073 E9.81640 F2400.000
G1 X93.636 Y99.548 E9.83273
G1 X92.409 Y100.542 E9.84905
G1 X91.084 Y99.682 E9.86537
G1 X91.473 Y98.228 E9.88092
G1 X91.677 Y98.383 F9000.000
G1 X92.911 Y98.319 E9.89369 F2400.000
G1 X93.354 Y99.472 E9.90645
G1 X92.393 Y100.250 E9.91922
G1 X91.357 Y99.577 E9.93199
G1 X91.657 Y98.456 E9.94398
G1 X91.861 Y98.611 F9000.000
G1 X92.751 Y98.564 E9.95319 F2400.000
G1 X93.071 Y99.396 E9.96240
G1 X92.378 Y99.957 E9.97161
G1 X91.630 Y99.472 E9.98082
G1 X91.842 Y98.683 E9.98926
G1 X92.045 Y98.838 F9000.000
G1 X92.592 Y98.810 E9.99491 F2400.000
G1 X92.788 Y99.321 E10.00057
G1 X92.363 Y99.665 E10.00622
G1 X91.904 Y99.367 E10.01187
G1 X92.026 Y98.911 E10.01675
G1 X92.230 Y99.066 F9000.000
G1 X92.432 Y99.055 E10.01885 F2400.000
G1 X92.505 Y99.245 E10.02095
G1 X92.347 Y99.373 E10.02305
G1 X92.177 Y99.262 E10.02514
G1 X92.210 Y99.138 E10.02647
G1 F2400.000 E8.02647
G1 Z0.900 F9000.000
G92 E0
G1 X84.772 Y97.145 F9000.000
G1 Z0.600 F9000.000
G1 E2.00000 F2400.000
G1 X86.240 Y91.669 E2.10830 F1533.662
G1 X97.616 Y91.073 E2.32591
G1 X97.738 Y91.389 E2.33239
G1 X101.699 Y101.708 E2.54352 F1533.662
G1 X92.845 Y108.878 E2.76113
G1 X83.291 Y102.673 E2.97874
G1 X84.753 Y97.218 E3.08662
G1 F2400.000 E1.08662
G1 Z0.900 F9000.000
G92 E0
G1 X97.709 Y91.888 F9000.000
G1 X97.392 Y92.010 F9000.000
G1 Z0.600 F9000.000
G1 E2.00000 F2400.000
G1 X101.048 Y101.534 E2.29278 F1533.662
G1 X92.810 Y108.205 E2.59700
G1 X83.920 Y102.432 E2.90123
G1 X86.664 Y92.192 E3.20545
G1 X96.485 Y91.678 E3.48770
G1 X97.249 Y91.638 E3.50967 F1533.662
G1 X97.365 Y91.940 E3.51895
G1 X96.809 Y92.316 F9000.000
G1 X100.267 Y101.325 E3.79588 F1533.662
G1 X92.768 Y107.397 E4.07281 F1533.662
G1 X84.675 Y102.142 E4.34973
G1 X87.173 Y92.821 E4.62666
G1 X96.734 Y92.320 E4.90144
G1 F2400.000 E2.90144
G1 Z0.900 F9000.000
G92 E0
G1 X85.832 Y102.113 F9000.000
G1 Z0.600 F9000.000
G1 E2.00000 F2400.000
G1 X85.430 Y101.852 E2.01375 F1533.662
G1 X87.682 Y93.450 E2.26338
G1 X95.176 Y93.057 E2.47875
G1 X96.368 Y92.995 E2.51301 F1533.662
G1 X99.485 Y101.115 E2.76265
G1 X92.726 Y106.589 E3.01228
G1 X85.895 Y102.154 E3.24601
G1 F2400.000 E1.24601
G1 Z0.900 F9000.000
G92 E0
G1 X92.254 Y105.741 F9000.000
G1 Z0.600 F9000.000
G1 E2.00000 F2400.000
G1 X98.411 Y99.584 E2.24988 F1533.662
G1 X98.149 Y98.903 E2.27084
G1 X91.682 Y105.370 E2.53332
G1 X91.110 Y104.998 E2.55289
G1 X97.888 Y98.221 E2.82796
G1 X97.626 Y97.539 E2.84892
G1 X90.538 Y104.627 E3.13658
G1 X89.966 Y104.255 E3.15616
G1 X97.364 Y96.857 E3.45642
G1 X97.102 Y96.176 E3.47737
G1 X89.394 Y103.884 E3.79023
G1 X88.822 Y103.513 E3.80980
G1 X96.841 Y95.494 E4.13525
G1 X96.579 Y94.812 E4.15620
G1 X88.250 Y103.141 E4.49424
G1 X87.678 Y102.770 E4.51382
G1 X96.317 Y94.130 E4.86445
G1 X96.033 Y93.471 E4.88506
G1 X87.106 Y102.398 E5.24738
G1 X86.534 Y102.027 E5.26695
G1 X95.041 Y93.519 E5.61223
G1 X94.046 Y93.571 E5.64085
G1 X85.977 Y101.640 E5.96834
G1 X86.296 Y100.378 E6.00571
G1 X93.050 Y93.624 E6.27984
G1 X92.055 Y93.676 E6.30846
G1 X86.641 Y99.089 E6.52816
G1 X86.987 Y97.800 E6.56645
G1 X91.059 Y93.728 E6.73174
G1 X90.063 Y93.780 E6.76035
G1 X87.332 Y96.512 E6.87121
G1 X87.677 Y95.223 E6.90950
G1 X89.068 Y93.832 E6.96593
G1 X88.072 Y93.885 E6.99454
G1 X88.023 Y93.934 E6.99655
G1 F2400.000 E4.99655
G1 Z0.900 F9000.000
G92 E0
G1 X93.824 Y105.115 F9000.000
G1 Z0.600 F9000.000
G1 E2.00000 F2400.000
G1 X98.673 Y100.266 E2.19681 F1533.662
G1 X98.784 Y101.099 E2.22091
G1 X98.934 Y100.948 E2.22703
M106 S255
G1 F2400.000 E0.22703
G1 Z1.200 F9000.000
G92 E0
G1 X101.090 Y100.121 F9000.000
G1 Z0.900 F9000.000
G1 E2.00000 F2400.000
G1 X101.699 Y101.708 E2.03249 F1509.005
G1 X92.845 Y108.878 E2.25010
G1 X83.291 Y102.673 E2.46771
G1 X86.240 Y91.669 E2.68532
G1 X97.616 Y91.073 E2.90293
G1 X97.673 Y91.221 E2.90597
G1 X101.063 Y100.051 E3.08662 F1509.005
G1 F2400.000 E1.08662
G1 Z1.200 F9000.000
G92 E0
G1 X97.794 Y91.706 F9000.000
G1 X97.342 Y91.880 F9000.000
G1 Z0.900 F9000.000
G1 E2.00000 F2400.000
G1 X101.048 Y101.534 E2.29677 F1509.005
G1 X92.810 Y108.205 E2.60099
G1 X83.920 Y102.432 E2.90522
G1 X86.664 Y92.192 E3.20944
G1 X96.530 Y91.675 E3.49298
G1 X97.249 Y91.638 E3.51366 F1509.005
G1 X97.316 Y91.810 E3.51895
G1 X96.809 Y92.316 F9000.000
G1 X100.162 Y101.052 E3.78749 F1509.005
G1 X100.267 Y101.325 E3.79588 F1509.005
G1 X92.768 Y107.397 E4.07281
G1 X84.675 Y102.142 E4.34973
G1 X87.173 Y92.821 E4.62666
G1 X96.734 Y92.320 E4.90144
G1 F2400.000 E2.90144
G1 Z1.200 F9000.000
G92 E0
G1 X85.975 Y102.206 F9000.000
G1 Z0.900 F9000.000
G1 E2.00000 F2400.000
G1 X85.430 Y101.852 E2.01865 F1509.005
G1 X87.682 Y93.450 E2.26828
G1 X96.368 Y92.995 E2.51792 F1509.005
G1 X99.485 Y101.115 E2.76755
G1 X92.726 Y106.589 E3.01718
G1 X86.038 Y102.247 E3.24601
G1 X86.046 Y101.710 F9000.000
G1 X85.962 Y101.625 E3.24944 F1509.005
G1 X86.164 Y100.869 E3.27192
G1 X88.782 Y103.487 E3.37816
G1 F2400.000 E1.37816
G1 Z1.200 F9000.000
G92 E0
G1 X91.518 Y105.263 F9000.000
G1 Z0.900 F9000.000
G1 E2.00000 F2400.000
G1 X86.367 Y100.112 E2.20907 F1509.005
G1 X86.570 Y99.356 E2.23154
G1 X92.998 Y105.784 E2.49244
G1 X93.528 Y105.355 E2.51201
G1 X86.773 Y98.599 E2.78619
G1 X86.975 Y97.843 E2.80867
G1 X94.058 Y104.925 E3.09614
G1 X94.588 Y104.496 E3.11571
G1 X87.178 Y97.086 E3.41646
G1 X87.381 Y96.330 E3.43894
G1 X95.118 Y104.067 E3.75297
G1 X95.648 Y103.638 E3.77255
G1 X87.583 Y95.573 E4.09987
G1 X87.786 Y94.816 E4.12234
G1 X96.178 Y103.209 E4.46295
G1 X96.708 Y102.779 E4.48252
G1 X87.989 Y94.060 E4.83641
G1 X88.738 Y93.850 E4.85874
G1 X97.238 Y102.350 E5.20374
G1 X97.768 Y101.921 E5.22332
G1 X89.649 Y93.802 E5.55284
G1 X90.561 Y93.754 E5.57903
G1 X98.298 Y101.492 E5.89307
G1 X98.824 Y101.058 E5.91263
G1 X91.472 Y93.706 E6.21101
G1 X92.384 Y93.659 E6.23721
G1 X98.474 Y99.749 E6.48439
