; generated by Slic3r 1.1.7 on 2014-11-29 at 10:01:34

; perimeters extrusion width = 0.40mm
; infill extrusion width = 0.42mm
; solid infill extrusion width = 0.42mm
; top infill extrusion width = 0.42mm

; perimeters extrusion width = 0.50mm
; infill extrusion width = 0.70mm
; solid infill extrusion width = 0.70mm
; top infill extrusion width = 0.70mm

G21 ; set units to millimeters
M190 S30 ; wait for bed temperature to be reached
M104 S220 T0 ; set temperature
M104 S225 T1 ; set temperature
G28 ; home all axes
M109 S220 T0 ; wait for temperature to be reached
M109 S225 T1 ; wait for temperature to be reached
G90 ; use absolute coordinates
G92 E0
M82 ; use absolute distances for extrusion
T0
G92 E0
M106 S89
G1 F2400.000 E-3.00000
G1 Z0.860 F9000.000
G92 E0
G1 X54.658 Y45.245 F9000.000
G1 Z0.260 F9000.000
G1 E3.00000 F2400.000
G1 X55.797 Y44.106 E3.02696 F1800.000
G1 X57.843 Y42.427 E3.07127
G1 X59.180 Y41.534 E3.09819
G1 X61.514 Y40.286 E3.14250
G1 X63.003 Y39.669 E3.16947
G1 X65.535 Y38.901 E3.21376
G1 X67.115 Y38.587 E3.24073
G1 X69.749 Y38.328 E3.28504
G1 X71.356 Y38.328 E3.31194
G1 X71.748 Y38.366 E3.31854
G1 X73.990 Y38.587 E3.35625 F1800.000
G1 X75.570 Y38.901 E3.38321
G1 X78.102 Y39.669 E3.42751
G1 X79.590 Y40.286 E3.45448
G1 X81.924 Y41.534 E3.49879
G1 X83.261 Y42.427 E3.52571
G1 X85.307 Y44.106 E3.57002
G1 X86.446 Y45.245 E3.59698
G1 X88.125 Y47.291 E3.64128
G1 X89.019 Y48.628 E3.66821
G1 X90.267 Y50.962 E3.71251
G1 X90.883 Y52.451 E3.73949
G1 X91.537 Y54.606 E3.77719
G1 X91.797 Y55.531 E3.79328
G1 X92.057 Y56.665 E3.81275
G1 X92.265 Y58.500 E3.84367
G1 X92.204 Y121.493 E4.89822
G1 X91.944 Y123.627 E4.93420
G1 X91.651 Y125.017 E4.95799
G1 X90.883 Y127.549 E5.00229
G1 X90.267 Y129.038 E5.02926
G1 X89.019 Y131.372 E5.07357
G1 X88.125 Y132.709 E5.10049
G1 X86.446 Y134.755 E5.14480
G1 X85.307 Y135.894 E5.17175
G1 X83.261 Y137.573 E5.21606
G1 X81.924 Y138.466 E5.24298
G1 X79.590 Y139.714 E5.28729
G1 X78.102 Y140.331 E5.31426
G1 X75.570 Y141.099 E5.35856
G1 X73.990 Y141.413 E5.38553
G1 X71.356 Y141.672 E5.42983
G1 X69.749 Y141.672 E5.45674
G1 X67.115 Y141.413 E5.50104
G1 X65.535 Y141.099 E5.52801
G1 X63.003 Y140.331 E5.57230
G1 X61.514 Y139.714 E5.59928
G1 X59.180 Y138.466 E5.64358
G1 X57.843 Y137.573 E5.67051
G1 X55.797 Y135.894 E5.71482
G1 X54.658 Y134.755 E5.74177
G1 X52.979 Y132.709 E5.78608
G1 X52.086 Y131.372 E5.81300
G1 X50.838 Y129.038 E5.85731
G1 X50.221 Y127.550 E5.88428
G1 X49.453 Y125.017 E5.92858
G1 X49.160 Y123.627 E5.95236
G1 X48.840 Y120.500 E6.00499
G1 X48.840 Y58.500 E7.04291
G1 X49.047 Y56.665 E7.07382
G1 X49.453 Y54.983 E7.10280
G1 X50.221 Y52.451 E7.14709
G1 X50.838 Y50.962 E7.17406
G1 X52.086 Y48.628 E7.21837
G1 X52.979 Y47.291 E7.24529
G1 X54.620 Y45.291 E7.28860
G1 X54.905 Y45.525 F9000.000
G1 X56.031 Y44.391 E7.31534 F1800.000
G1 X58.077 Y42.712 E7.35965
G1 X59.354 Y41.859 E7.38537
G1 X61.688 Y40.611 E7.42967
G1 X63.110 Y40.022 E7.45543
G1 X65.642 Y39.254 E7.49973
G1 X67.151 Y38.954 E7.52549
G1 X69.785 Y38.695 E7.56979
G1 X71.320 Y38.695 E7.59549
G1 X71.712 Y38.733 E7.60208
G1 X73.954 Y38.954 E7.63980 F1800.000
G1 X75.463 Y39.254 E7.66555
G1 X77.995 Y40.022 E7.70985
G1 X79.416 Y40.611 E7.73561
G1 X81.750 Y41.859 E7.77992
G1 X83.028 Y42.712 E7.80563
G1 X85.074 Y44.391 E7.84994
G1 X86.161 Y45.479 E7.87569
G1 X87.840 Y47.525 E7.91999
G1 X88.694 Y48.802 E7.94571
G1 X89.942 Y51.136 E7.99002
G1 X90.531 Y52.558 E8.01578
G1 X91.184 Y54.713 E8.05348
G1 X91.438 Y55.613 E8.06914
G1 X91.698 Y56.747 E8.08862
G1 X91.896 Y58.500 E8.11815
G1 X91.839 Y121.449 E9.17195
G1 X91.579 Y123.583 E9.20793
G1 X91.299 Y124.910 E9.23065
G1 X90.531 Y127.442 E9.27495
G1 X89.942 Y128.864 E9.30071
G1 X88.694 Y131.198 E9.34502
G1 X87.840 Y132.475 E9.37073
G1 X86.161 Y134.521 E9.41504
G1 X85.074 Y135.609 E9.44079
G1 X83.028 Y137.288 E9.48510
G1 X81.750 Y138.141 E9.51081
G1 X79.416 Y139.389 E9.55512
G1 X77.995 Y139.978 E9.58088
G1 X75.463 Y140.746 E9.62517
G1 X73.954 Y141.046 E9.65093
G1 X71.320 Y141.305 E9.69524
G1 X69.785 Y141.305 E9.72093
G1 X67.151 Y141.046 E9.76524
G1 X65.642 Y140.746 E9.79100
G1 X63.110 Y139.978 E9.83529
G1 X61.688 Y139.389 E9.86105
G1 X59.354 Y138.141 E9.90536
G1 X58.077 Y137.288 E9.93107
G1 X56.031 Y135.609 E9.97538
G1 X54.943 Y134.521 E10.00113
G1 X53.264 Y132.475 E10.04544
G1 X52.411 Y131.198 E10.07115
G1 X51.163 Y128.864 E10.11546
G1 X50.574 Y127.443 E10.14122
G1 X49.806 Y124.910 E10.18551
G1 X49.526 Y123.583 E10.20823
G1 X49.208 Y120.500 E10.26011
G1 X49.208 Y58.500 E11.29803
G1 X49.407 Y56.747 E11.32756
G1 X49.806 Y55.090 E11.35611
G1 X50.574 Y52.558 E11.40040
G1 X51.163 Y51.136 E11.42616
G1 X52.411 Y48.802 E11.47047
G1 X53.264 Y47.525 E11.49618
G1 X54.867 Y45.571 E11.53848
G1 F2400.000 E1.53848
G1 Z0.860 F9000.000
G92 E0
T1
G92 E0
G1 X8.452 Y44.805 F9000.000
G1 Z0.260 F9000.000
G1 X9.565 Y43.676 E0.02847 F1800.000
G1 X11.611 Y41.997 E0.07600
G1 X12.828 Y41.184 E0.10228
G1 X15.162 Y39.936 E0.14981
G1 X16.517 Y39.374 E0.17615
G1 X19.049 Y38.606 E0.22366
G1 X20.487 Y38.321 E0.24999
G1 X23.121 Y38.062 E0.29752
G1 X24.584 Y38.062 E0.32379
G1 X24.976 Y38.100 E0.33087
G1 X27.218 Y38.321 E0.37132 F1800.000
G1 X28.656 Y38.606 E0.39765
G1 X31.188 Y39.374 E0.44516
G1 X32.543 Y39.936 E0.47150
G1 X34.877 Y41.184 E0.51903
G1 X36.094 Y41.997 E0.54532
G1 X38.140 Y43.676 E0.59285
G1 X39.176 Y44.713 E0.61917
G1 X40.855 Y46.759 E0.66670
G1 X41.668 Y47.976 E0.69298
G1 X42.916 Y50.310 E0.74051
G1 X43.478 Y51.665 E0.76685
G1 X44.131 Y53.820 E0.80729
G1 X44.379 Y54.696 E0.82364
G1 X44.639 Y55.830 E0.84453
G1 X44.828 Y57.500 E0.87472
G1 X44.773 Y120.404 E2.00433
G1 X44.513 Y122.538 E2.04293
G1 X44.246 Y123.804 E2.06616
G1 X43.478 Y126.335 E2.11368
G1 X42.916 Y127.690 E2.14001
G1 X41.668 Y130.024 E2.18754
G1 X40.855 Y131.241 E2.21383
G1 X39.176 Y133.287 E2.26136
G1 X38.140 Y134.324 E2.28768
G1 X36.094 Y136.003 E2.33521
G1 X34.877 Y136.816 E2.36150
G1 X32.543 Y138.064 E2.40902
G1 X31.188 Y138.626 E2.43536
G1 X28.656 Y139.394 E2.48287
G1 X27.218 Y139.679 E2.50920
G1 X24.584 Y139.938 E2.55673
G1 X23.121 Y139.938 E2.58300
G1 X20.487 Y139.679 E2.63053
G1 X19.049 Y139.394 E2.65686
G1 X16.517 Y138.626 E2.70438
G1 X15.162 Y138.064 E2.73071
G1 X12.828 Y136.816 E2.77824
G1 X11.611 Y136.003 E2.80453
G1 X9.565 Y134.324 E2.85206
G1 X8.528 Y133.287 E2.87838
G1 X6.849 Y131.241 E2.92591
G1 X6.036 Y130.024 E2.95220
G1 X4.788 Y127.690 E2.99972
G1 X4.227 Y126.336 E3.02606
G1 X3.459 Y123.803 E3.07357
G1 X3.192 Y122.538 E3.09680
G1 X2.877 Y119.500 E3.15165
G1 X2.877 Y57.500 E4.26503
G1 X3.066 Y55.830 E4.29522
G1 X3.459 Y54.197 E4.32538
G1 X4.227 Y51.665 E4.37289
G1 X4.788 Y50.310 E4.39923
G1 X6.036 Y47.976 E4.44676
G1 X6.849 Y46.759 E4.47305
G1 X8.405 Y44.863 E4.51707
G1 X8.690 Y45.097 F9000.000
G1 X8.813 Y44.946 E4.52058 F1800.000
G1 X9.799 Y43.961 E4.54560
G1 X11.845 Y42.282 E4.59313
G1 X13.002 Y41.509 E4.61812
G1 X15.336 Y40.261 E4.66565
G1 X16.624 Y39.727 E4.69069
G1 X19.156 Y38.959 E4.73820
G1 X20.523 Y38.687 E4.76323
G1 X23.157 Y38.428 E4.81076
G1 X24.548 Y38.428 E4.83573
G1 X24.940 Y38.467 E4.84281
G1 X27.182 Y38.687 E4.88326 F1800.000
G1 X28.549 Y38.959 E4.90829
G1 X31.081 Y39.727 E4.95581
G1 X32.369 Y40.261 E4.98085
G1 X34.703 Y41.509 E5.02838
G1 X35.860 Y42.282 E5.05337
G1 X37.906 Y43.961 E5.10090
G1 X38.891 Y44.946 E5.12592
G1 X40.570 Y46.992 E5.17345
G1 X41.343 Y48.149 E5.19844
G1 X42.591 Y50.483 E5.24597
G1 X43.125 Y51.771 E5.27101
G1 X44.019 Y54.778 E5.32733
G1 X44.279 Y55.912 E5.34823
G1 X44.459 Y57.500 E5.37692
G1 X44.407 Y120.359 E6.50574
G1 X44.147 Y122.493 E6.54434
G1 X43.893 Y123.697 E6.56642
G1 X43.125 Y126.229 E6.61394
G1 X42.591 Y127.517 E6.63898
G1 X41.343 Y129.851 E6.68651
G1 X40.570 Y131.008 E6.71150
G1 X38.891 Y133.054 E6.75903
G1 X37.906 Y134.039 E6.78405
G1 X35.860 Y135.718 E6.83158
G1 X34.703 Y136.491 E6.85657
G1 X32.369 Y137.739 E6.90410
G1 X31.081 Y138.273 E6.92913
G1 X28.549 Y139.041 E6.97665
G1 X27.182 Y139.313 E7.00168
G1 X24.548 Y139.572 E7.04921
G1 X23.157 Y139.572 E7.07418
G1 X20.523 Y139.313 E7.12171
G1 X19.156 Y139.041 E7.14674
G1 X16.624 Y138.273 E7.19426
G1 X15.336 Y137.739 E7.21930
G1 X13.002 Y136.491 E7.26683
G1 X11.845 Y135.718 E7.29182
G1 X9.799 Y134.039 E7.33935
G1 X8.813 Y133.054 E7.36437
G1 X7.134 Y131.008 E7.41190
G1 X6.361 Y129.851 E7.43689
G1 X5.113 Y127.517 E7.48442
G1 X4.579 Y126.229 E7.50945
G1 X3.811 Y123.697 E7.55697
G1 X3.558 Y122.493 E7.57905
G1 X3.245 Y119.500 E7.63310
G1 X3.245 Y57.500 E8.74648
G1 X3.425 Y55.912 E8.77518
G1 X3.811 Y54.303 E8.80488
G1 X4.579 Y51.771 E8.85240
G1 X5.113 Y50.483 E8.87743
G1 X6.361 Y48.149 E8.92496
G1 X7.134 Y46.992 E8.94995
G1 X8.642 Y45.155 E8.99263
G1 F3600.000 E-1.00737
G1 Z0.860 F9000.000
G92 E0
T0
G92 E0
G1 X55.627 Y46.389 F9000.000
G1 Z0.260 F9000.000
G1 E10.00000 F2400.000
G1 X55.798 Y46.180 E10.00452 F1800.000
G1 X56.732 Y45.246 E10.02664
G1 X58.778 Y43.567 E10.07095
G1 X59.875 Y42.834 E10.09303
G1 X62.209 Y41.586 E10.13734
G1 X63.431 Y41.080 E10.15947
G1 X65.963 Y40.312 E10.20377
G1 X67.259 Y40.054 E10.22589
G1 X69.893 Y39.795 E10.27020
G1 X71.212 Y39.795 E10.29227
G1 X71.604 Y39.834 E10.29887
G1 X73.846 Y40.054 E10.33658 F1800.000
G1 X75.142 Y40.312 E10.35870
G1 X77.674 Y41.080 E10.40300
G1 X78.895 Y41.586 E10.42513
G1 X81.229 Y42.834 E10.46943
G1 X82.326 Y43.567 E10.49152
G1 X84.372 Y45.246 E10.53583
G1 X85.306 Y46.180 E10.55795
G1 X86.985 Y48.226 E10.60226
G1 X87.718 Y49.323 E10.62435
G1 X88.966 Y51.657 E10.66865
G1 X89.472 Y52.878 E10.69078
G1 X90.360 Y55.860 E10.74287
G1 X90.620 Y56.994 E10.76234
G1 X90.790 Y58.500 E10.78771
G1 X90.741 Y121.315 E11.83927
G1 X90.481 Y123.449 E11.87526
G1 X90.240 Y124.590 E11.89477
G1 X89.472 Y127.122 E11.93907
G1 X88.966 Y128.343 E11.96120
G1 X87.718 Y130.677 E12.00551
G1 X86.985 Y131.774 E12.02759
G1 X85.306 Y133.820 E12.07190
G1 X84.372 Y134.754 E12.09402
G1 X82.326 Y136.433 E12.13833
G1 X81.229 Y137.166 E12.16042
G1 X78.895 Y138.414 E12.20472
G1 X77.674 Y138.920 E12.22685
G1 X75.142 Y139.688 E12.27115
G1 X73.846 Y139.946 E12.29327
G1 X71.212 Y140.205 E12.33758
G1 X69.893 Y140.205 E12.35965
G1 X67.259 Y139.946 E12.40396
G1 X65.963 Y139.688 E12.42609
G1 X63.431 Y138.920 E12.47038
G1 X62.209 Y138.414 E12.49251
G1 X59.875 Y137.166 E12.53682
G1 X58.778 Y136.433 E12.55891
G1 X56.732 Y134.754 E12.60321
G1 X55.798 Y133.820 E12.62533
G1 X54.119 Y131.774 E12.66964
G1 X53.386 Y130.677 E12.69173
G1 X52.138 Y128.343 E12.73604
G1 X51.632 Y127.122 E12.75816
G1 X50.864 Y124.590 E12.80246
G1 X50.624 Y123.449 E12.82198
G1 X50.314 Y120.500 E12.87161
G1 X50.314 Y58.500 E13.90953
G1 X50.484 Y56.994 E13.93490
G1 X50.864 Y55.410 E13.96216
G1 X51.632 Y52.878 E14.00646
G1 X52.138 Y51.657 E14.02859
G1 X53.386 Y49.323 E14.07289
G1 X54.119 Y48.226 E14.09498
G1 X55.589 Y46.435 E14.13377
G1 X55.874 Y46.669 F9000.000
G1 X56.083 Y46.414 E14.13929 F1800.000
G1 X56.966 Y45.531 E14.16020
G1 X59.012 Y43.852 E14.20451
G1 X60.049 Y43.159 E14.22539
G1 X62.383 Y41.911 E14.26969
G1 X63.538 Y41.433 E14.29061
G1 X66.070 Y40.665 E14.33491
G1 X67.295 Y40.421 E14.35582
G1 X69.929 Y40.162 E14.40013
G1 X71.175 Y40.162 E14.42100
G1 X71.568 Y40.201 E14.42759
G1 X73.809 Y40.421 E14.46530 F1800.000
G1 X75.035 Y40.665 E14.48622
G1 X77.567 Y41.433 E14.53051
G1 X78.721 Y41.911 E14.55143
G1 X81.055 Y43.159 E14.59574
G1 X82.092 Y43.852 E14.61662
G1 X84.138 Y45.531 E14.66093
G1 X85.021 Y46.414 E14.68183
G1 X86.700 Y48.460 E14.72614
G1 X87.393 Y49.497 E14.74702
G1 X88.641 Y51.831 E14.79133
G1 X89.120 Y52.985 E14.81225
G1 X90.001 Y55.943 E14.86391
G1 X90.261 Y57.077 E14.88338
G1 X90.422 Y58.500 E14.90736
G1 X90.375 Y121.270 E15.95817
G1 X89.888 Y124.483 E16.01257
G1 X89.120 Y127.015 E16.05686
G1 X88.641 Y128.169 E16.07778
G1 X87.393 Y130.503 E16.12209
G1 X86.700 Y131.540 E16.14297
G1 X85.021 Y133.586 E16.18728
G1 X84.138 Y134.469 E16.20818
G1 X82.092 Y136.148 E16.25249
G1 X81.055 Y136.841 E16.27337
G1 X78.721 Y138.089 E16.31768
G1 X77.567 Y138.567 E16.33860
G1 X75.035 Y139.335 E16.38289
G1 X73.809 Y139.579 E16.40381
G1 X71.175 Y139.838 E16.44811
G1 X69.929 Y139.838 E16.46898
G1 X67.295 Y139.579 E16.51329
G1 X66.070 Y139.335 E16.53420
G1 X63.538 Y138.567 E16.57849
G1 X62.383 Y138.089 E16.59941
G1 X60.049 Y136.841 E16.64372
G1 X59.012 Y136.148 E16.66460
G1 X56.966 Y134.469 E16.70891
G1 X56.083 Y133.586 E16.72982
G1 X54.404 Y131.540 E16.77412
G1 X53.711 Y130.503 E16.79501
G1 X52.463 Y128.169 E16.83931
G1 X51.985 Y127.015 E16.86023
G1 X50.989 Y123.404 E16.92293
G1 X50.683 Y120.500 E16.97181
G1 X50.683 Y58.500 E18.00973
G1 X50.844 Y57.077 E18.03371
G1 X51.217 Y55.517 E18.06055
G1 X51.985 Y52.985 E18.10485
G1 X52.463 Y51.831 E18.12577
G1 X53.711 Y49.497 E18.17007
G1 X54.404 Y48.460 E18.19095
G1 X55.836 Y46.715 E18.22873
G1 F2400.000 E15.22873
G1 Z0.860 F9000.000
G92 E0
G1 X60.898 Y50.870 F9000.000
G1 Z0.260 F9000.000
G1 E3.00000 F2400.000
G1 X61.134 Y50.582 E3.00623 F1800.000
G1 X63.153 Y48.925 E3.04995
G1 X65.455 Y47.694 E3.09366
G1 X67.954 Y46.936 E3.13736
G1 X70.552 Y46.681 E3.18107
G1 X70.927 Y46.718 E3.18737
G1 X73.151 Y46.936 E3.22479 F1800.000
G1 X75.649 Y47.694 E3.26849
G1 X77.952 Y48.925 E3.31220
G1 X79.970 Y50.582 E3.35592
G1 X81.627 Y52.600 E3.39963
G1 X82.858 Y54.903 E3.44335
G1 X83.616 Y57.401 E3.48705
G1 X83.742 Y58.680 E3.50856
G1 X83.873 Y58.680 E3.51076
G1 X83.873 Y120.320 E4.54265
G1 X83.840 Y120.320 E4.54321
G1 X83.616 Y122.599 E4.58154
G1 X82.858 Y125.097 E4.62524
G1 X81.627 Y127.400 E4.66896
G1 X79.970 Y129.418 E4.71267
G1 X77.952 Y131.075 E4.75639
G1 X75.649 Y132.306 E4.80010
G1 X73.151 Y133.064 E4.84380
G1 X70.552 Y133.319 E4.88751
G1 X67.954 Y133.064 E4.93123
G1 X65.455 Y132.306 E4.97493
G1 X63.153 Y131.075 E5.01864
G1 X61.134 Y129.418 E5.06236
G1 X59.478 Y127.400 E5.10607
G1 X58.246 Y125.097 E5.14979
G1 X57.489 Y122.599 E5.19349
G1 X57.265 Y120.320 E5.23182
G1 X57.231 Y120.320 E5.23238
G1 X57.231 Y58.680 E6.26427
G1 X57.363 Y58.680 E6.26647
G1 X57.489 Y57.401 E6.28798
G1 X58.246 Y54.903 E6.33168
G1 X59.478 Y52.600 E6.37540
G1 X60.860 Y50.916 E6.41187
G1 F2400.000 E3.41187
G1 Z0.860 F9000.000
G92 E0
G1 X71.158 Y47.044 F9000.000
G1 X71.151 Y47.110 F9000.000
G1 Z0.260 F9000.000
G1 E3.00000 F2400.000
G1 X73.079 Y47.300 E3.03242 F1800.000
G1 X75.507 Y48.036 E3.07490
G1 X77.746 Y49.233 E3.11740
G1 X79.708 Y50.844 E3.15990
G1 X81.319 Y52.806 E3.20240
G1 X82.516 Y55.045 E3.24490
G1 X83.253 Y57.473 E3.28738
G1 X83.407 Y59.049 E3.31388
G1 X83.505 Y59.049 E3.31551
G1 X83.505 Y119.963 E4.33525
G1 X83.253 Y122.527 E4.37837
G1 X82.516 Y124.955 E4.42086
G1 X81.319 Y127.194 E4.46336
G1 X79.708 Y129.156 E4.50586
G1 X77.746 Y130.767 E4.54835
G1 X75.507 Y131.964 E4.59085
G1 X73.079 Y132.700 E4.63334
G1 X70.552 Y132.949 E4.67584
G1 X68.026 Y132.700 E4.71834
G1 X65.597 Y131.964 E4.76082
G1 X63.359 Y130.767 E4.80332
G1 X61.396 Y129.156 E4.84582
G1 X59.786 Y127.194 E4.88832
G1 X58.589 Y124.955 E4.93082
G1 X57.852 Y122.527 E4.97330
G1 X57.600 Y119.963 E5.01642
G1 X57.600 Y59.049 E6.03617
G1 X57.697 Y59.049 E6.03779
G1 X57.852 Y57.473 E6.06429
G1 X58.589 Y55.045 E6.10677
G1 X59.786 Y52.806 E6.14927
G1 X61.396 Y50.844 E6.19177
G1 X63.359 Y49.233 E6.23427
G1 X65.597 Y48.036 E6.27677
G1 X68.026 Y47.300 E6.31925
G1 X70.214 Y47.085 E6.35606
G1 X70.552 Y47.051 E6.36175 F1800.000
G1 X71.092 Y47.104 E6.37083
G1 F2400.000 E3.37083
G1 Z0.860 F9000.000
G92 E0
G1 X57.968 Y99.868 F9000.000
G1 Z0.260 F9000.000
G1 E3.00000 F2400.000
G1 X57.968 Y59.417 E3.67717 F1800.000
G1 X58.031 Y59.417 E3.67822
G1 X58.215 Y57.546 E3.70970
G1 X58.931 Y55.187 E3.75096
G1 X60.093 Y53.012 E3.79225
G1 X61.658 Y51.106 E3.83353
G1 X63.564 Y49.541 E3.87482
G1 X65.739 Y48.378 E3.91610
G1 X68.098 Y47.663 E3.95737
G1 X70.552 Y47.422 E3.99865
G1 X70.855 Y47.451 E4.00374
G1 X73.007 Y47.663 E4.03994 F1800.000
G1 X75.365 Y48.378 E4.08120
G1 X77.540 Y49.541 E4.12249
G1 X79.447 Y51.106 E4.16377
G1 X81.011 Y53.012 E4.20505
G1 X82.174 Y55.187 E4.24634
G1 X82.889 Y57.546 E4.28761
G1 X83.073 Y59.417 E4.31909
G1 X83.136 Y59.417 E4.32014
G1 X83.136 Y119.945 E5.33341
G1 X82.889 Y122.454 E5.37562
G1 X82.174 Y124.813 E5.41689
G1 X81.011 Y126.988 E5.45817
G1 X79.447 Y128.894 E5.49946
