; generated by Slic3r 1.1.7 on 2014-12-03 at 21:19:22

; perimeters extrusion width = 0.50mm
; infill extrusion width = 0.50mm
; solid infill extrusion width = 0.50mm
; top infill extrusion width = 0.50mm

; perimeters extrusion width = 0.50mm
; infill extrusion width = 0.50mm
; solid infill extrusion width = 0.50mm
; top infill extrusion width = 0.50mm

G21 ; set units to millimeters
M190 S30 ; wait for bed temperature to be reached
M104 S220 T0 ; set temperature
M104 S235 T1 ; set temperature
G28 ; home all axes
M109 S220 T0 ; wait for temperature to be reached
M109 S235 T1 ; wait for temperature to be reached
G90 ; use absolute coordinates
G92 E0
M82 ; use absolute distances for extrusion
T0
G92 E0
M106 S89
G1 F2400.000 E-3.00000
G1 Z0.860 F9000.000
G92 E0
G1 X93.517 Y30.915 F9000.000
G1 Z0.260 F9000.000
G1 E3.00000 F2400.000
G1 X94.145 Y29.398 E3.02748 F1800.000
G1 X95.300 Y27.237 E3.06850
G1 X96.213 Y25.872 E3.09599
G1 X97.768 Y23.978 E3.13702
G1 X98.925 Y22.820 E3.16442
G1 X100.819 Y21.265 E3.20545
G1 X102.185 Y20.352 E3.23294
G1 X104.346 Y19.197 E3.27396
G1 X105.862 Y18.569 E3.30144
G1 X108.207 Y17.858 E3.34246
G1 X109.816 Y17.539 E3.36992
G1 X112.255 Y17.299 E3.41095
G1 X113.894 Y17.299 E3.43839
G1 X116.333 Y17.539 E3.47941
G1 X117.942 Y17.858 E3.50687
G1 X120.287 Y18.569 E3.54789
G1 X121.803 Y19.197 E3.57537
G1 X123.964 Y20.352 E3.61639
G1 X125.330 Y21.265 E3.64389
G1 X127.831 Y23.370 E3.69862
G1 X128.382 Y23.978 E3.71234
G1 X129.937 Y25.872 E3.75336
G1 X130.849 Y27.237 E3.78086
G1 X132.004 Y29.398 E3.82188
G1 X132.632 Y30.915 E3.84936
G1 X133.343 Y33.260 E3.89038
G1 X133.640 Y34.664 E3.91441
G1 X133.942 Y37.610 E3.96398
G1 X133.943 Y81.144 E4.69276
G1 X133.879 Y82.652 E4.71804
G1 X133.640 Y84.590 E4.75073
G1 X133.343 Y85.994 E4.77475
G1 X132.632 Y88.339 E4.81577
G1 X132.004 Y89.856 E4.84325
G1 X130.849 Y92.017 E4.88427
G1 X129.937 Y93.382 E4.91177
G1 X127.831 Y95.883 E4.96650
G1 X127.224 Y96.434 E4.98022
G1 X125.330 Y97.989 E5.02124
G1 X123.964 Y98.901 E5.04874
G1 X121.803 Y100.056 E5.08976
G1 X120.287 Y100.684 E5.11724
G1 X117.942 Y101.395 E5.15826
G1 X116.333 Y101.715 E5.18571
G1 X113.894 Y101.955 E5.22674
G1 X112.255 Y101.955 E5.25418
G1 X109.816 Y101.715 E5.29521
G1 X108.207 Y101.395 E5.32266
G1 X105.862 Y100.684 E5.36369
G1 X104.346 Y100.056 E5.39116
G1 X102.185 Y98.901 E5.43218
G1 X100.819 Y97.989 E5.45968
G1 X98.925 Y96.434 E5.50070
G1 X97.768 Y95.276 E5.52811
G1 X96.213 Y93.382 E5.56914
G1 X95.300 Y92.017 E5.59663
G1 X94.145 Y89.856 E5.63765
G1 X93.517 Y88.339 E5.66513
G1 X92.806 Y85.994 E5.70615
G1 X92.509 Y84.594 E5.73010
G1 X92.206 Y81.628 E5.78002
G1 X92.269 Y36.599 E6.53384
G1 X92.509 Y34.660 E6.56654
G1 X92.806 Y33.260 E6.59051
G1 X93.500 Y30.972 E6.63052
G1 F2400.000 E3.63052
G1 Z0.860 F9000.000
G92 E0
G1 X124.457 Y85.842 F9000.000
G1 Z0.260 F9000.000
G1 E3.00000 F2400.000
G1 X123.318 Y87.971 E3.04043 F1800.000
G1 X121.786 Y89.838 E3.08086
G1 X119.919 Y91.370 E3.12129
G1 X117.789 Y92.509 E3.16171
G1 X115.478 Y93.209 E3.20214
G1 X113.075 Y93.446 E3.24257
G1 X110.671 Y93.209 E3.28301
G1 X108.360 Y92.509 E3.32344
G1 X106.230 Y91.370 E3.36386
G1 X104.364 Y89.838 E3.40429
G1 X102.831 Y87.971 E3.44472
G1 X101.693 Y85.842 E3.48515
G1 X100.992 Y83.531 E3.52558
G1 X100.787 Y81.448 E3.56061
G1 X100.755 Y81.448 E3.56115
G1 X100.755 Y37.807 E4.29173
G1 X100.787 Y37.807 E4.29227
G1 X100.992 Y35.723 E4.32733
G1 X101.693 Y33.412 E4.36775
G1 X102.831 Y31.282 E4.40818
G1 X104.364 Y29.416 E4.44861
G1 X106.230 Y27.883 E4.48904
G1 X108.360 Y26.745 E4.52947
G1 X110.671 Y26.044 E4.56989
G1 X113.075 Y25.808 E4.61033
G1 X115.478 Y26.044 E4.65076
G1 X117.789 Y26.745 E4.69119
G1 X119.919 Y27.883 E4.73162
G1 X121.786 Y29.416 E4.77205
G1 X123.318 Y31.282 E4.81248
G1 X124.457 Y33.412 E4.85290
G1 X125.157 Y35.723 E4.89333
G1 X125.362 Y37.807 E4.92838
G1 X125.394 Y37.807 E4.92891
G1 X125.394 Y81.448 E5.65949
G1 X125.362 Y81.448 E5.66001
G1 X125.157 Y83.531 E5.69505
G1 X124.474 Y85.784 E5.73447
G1 X124.058 Y85.881 F9000.000
G1 X124.114 Y85.700 F9000.000
G1 X123.010 Y87.766 E5.77368 F1800.000
G1 X121.524 Y89.576 E5.81289
G1 X119.713 Y91.063 E5.85211
G1 X117.648 Y92.167 E5.89132
G1 X115.406 Y92.846 E5.93053
G1 X113.075 Y93.076 E5.96975
G1 X110.743 Y92.846 E6.00897
G1 X108.502 Y92.167 E6.04818
G1 X106.436 Y91.063 E6.08739
G1 X104.625 Y89.576 E6.12661
G1 X103.139 Y87.766 E6.16582
G1 X102.035 Y85.700 E6.20503
G1 X101.355 Y83.458 E6.24425
G1 X101.123 Y81.100 E6.28392
G1 X101.123 Y38.154 E7.00286
G1 X101.355 Y35.795 E7.04254
G1 X102.035 Y33.554 E7.08175
G1 X103.139 Y31.488 E7.12096
G1 X104.625 Y29.678 E7.16017
G1 X106.436 Y28.191 E7.19939
G1 X108.502 Y27.087 E7.23860
G1 X110.743 Y26.408 E7.27781
G1 X113.075 Y26.178 E7.31703
G1 X115.406 Y26.408 E7.35625
G1 X117.648 Y27.087 E7.39546
G1 X119.713 Y28.191 E7.43467
G1 X121.524 Y29.678 E7.47389
G1 X123.010 Y31.488 E7.51310
G1 X124.114 Y33.554 E7.55231
G1 X124.794 Y35.795 E7.59152
G1 X125.025 Y38.144 E7.63102
G1 X125.025 Y81.110 E8.35031
G1 X124.794 Y83.458 E8.38981
G1 X124.132 Y85.643 E8.42802
G1 X123.772 Y85.558 F9000.000
G1 X122.702 Y87.560 E8.46601 F1800.000
G1 X121.262 Y89.314 E8.50401
G1 X119.508 Y90.755 E8.54201
G1 X117.506 Y91.824 E8.58001
G1 X115.334 Y92.483 E8.61800
G1 X113.075 Y92.705 E8.65601
G1 X110.815 Y92.483 E8.69401
G1 X108.643 Y91.824 E8.73201
G1 X106.642 Y90.755 E8.77000
G1 X104.887 Y89.314 E8.80800
G1 X103.447 Y87.560 E8.84600
G1 X102.377 Y85.558 E8.88400
G1 X101.719 Y83.386 E8.92199
G1 X101.492 Y81.082 E8.96076
G1 X101.492 Y38.172 E9.67909
G1 X101.719 Y35.868 E9.71786
G1 X102.377 Y33.695 E9.75585
G1 X103.447 Y31.694 E9.79385
G1 X104.887 Y29.940 E9.83185
G1 X106.642 Y28.499 E9.86985
G1 X108.643 Y27.429 E9.90784
G1 X110.815 Y26.771 E9.94584
G1 X113.075 Y26.548 E9.98384
G1 X115.334 Y26.771 E10.02185
G1 X117.506 Y27.429 E10.05984
G1 X119.508 Y28.499 E10.09784
G1 X121.262 Y29.940 E10.13584
G1 X122.702 Y31.694 E10.17384
G1 X123.772 Y33.695 E10.21183
G1 X124.431 Y35.868 E10.24983
G1 X124.656 Y38.162 E10.28842
G1 X124.656 Y81.092 E11.00710
G1 X124.431 Y83.386 E11.04569
G1 X123.790 Y85.501 E11.08268
G1 F2400.000 E8.08268
G1 Z0.860 F9000.000
G92 E0
G1 X115.718 Y87.955 F9000.000
G1 Z0.260 F9000.000
G1 E3.00000 F2400.000
G1 X115.764 Y88.127 E3.00297 F1800.000
G1 X115.404 Y89.472 E3.02629
G1 X114.419 Y90.456 E3.04960
G1 X113.075 Y90.816 E3.07289
G1 X111.729 Y90.456 E3.09620
G1 X110.745 Y89.472 E3.11951
G1 X110.385 Y88.127 E3.14282
G1 X110.745 Y86.783 E3.16611
G1 X111.729 Y85.797 E3.18942
G1 X113.075 Y85.438 E3.21274
G1 X114.419 Y85.797 E3.23603
G1 X115.404 Y86.783 E3.25936
G1 X115.703 Y87.897 E3.27867
G1 X115.890 Y88.001 F9000.000
G1 X116.074 Y87.860 F9000.000
G1 X116.146 Y88.127 E3.28330 F1800.000
G1 X115.735 Y89.663 E3.30992
G1 X114.609 Y90.787 E3.33654
G1 X113.075 Y91.198 E3.36314
G1 X111.539 Y90.787 E3.38976
G1 X110.415 Y89.663 E3.41637
G1 X110.004 Y88.127 E3.44298
G1 X110.415 Y86.592 E3.46958
G1 X111.539 Y85.467 E3.49620
G1 X113.075 Y85.056 E3.52282
G1 X114.610 Y85.467 E3.54942
G1 X115.735 Y86.592 E3.57606
G1 X116.059 Y87.802 E3.59703
G1 X116.430 Y87.765 F9000.000
G1 X116.527 Y88.127 E3.60330 F1800.000
G1 X116.065 Y89.854 E3.63323
G1 X114.800 Y91.117 E3.66316
G1 X113.075 Y91.579 E3.69306
G1 X111.348 Y91.117 E3.72299
G1 X110.084 Y89.854 E3.75291
G1 X109.622 Y88.127 E3.78283
G1 X110.084 Y86.401 E3.81273
G1 X111.348 Y85.137 E3.84266
G1 X113.075 Y84.674 E3.87259
G1 X114.800 Y85.137 E3.90250
G1 X116.065 Y86.401 E3.93244
G1 X116.415 Y87.707 E3.95506
G1 F2400.000 E0.95506
G1 Z0.860 F9000.000
G92 E0
G1 X109.382 Y88.185 F9000.000
G1 Z0.260 F9000.000
G1 E3.00000 F2400.000
G1 X101.739 Y80.542 E3.18094 F1800.000
G1 X101.739 Y80.018 E3.18972
G1 X109.468 Y87.747 E3.37271
G1 X109.579 Y87.333 E3.37987
G1 X101.739 Y79.493 E3.56548
G1 X101.739 Y78.969 E3.57426
G1 X109.690 Y86.920 E3.76249
G1 X109.800 Y86.506 E3.76966
G1 X101.739 Y78.445 E3.96051
G1 X101.739 Y77.920 E3.96928
G1 X109.977 Y86.159 E4.16433
G1 X110.239 Y85.896 E4.17054
G1 X101.739 Y77.396 E4.37178
G1 X101.739 Y76.871 E4.38056
G1 X110.502 Y85.634 E4.58801
G1 X110.764 Y85.372 E4.59422
G1 X101.739 Y76.347 E4.80788
G1 X101.739 Y75.823 E4.81665
G1 X111.026 Y85.109 E5.03651
G1 X111.327 Y84.886 E5.04279
G1 X101.739 Y75.298 E5.26979
G1 X101.739 Y74.774 E5.27856
G1 X111.741 Y84.775 E5.51535
G1 X112.154 Y84.665 E5.52252
G1 X101.739 Y74.249 E5.76911
G1 X101.739 Y73.725 E5.77789
G1 X112.568 Y84.554 E6.03426
G1 X112.982 Y84.443 E6.04143
G1 X101.739 Y73.200 E6.30761
G1 X101.739 Y72.676 E6.31639
G1 X113.630 Y84.567 E6.59791
G1 X114.346 Y84.759 E6.61032
G1 X101.739 Y72.152 E6.90880
G1 F2400.000 E3.90880
G1 Z0.860 F9000.000
G92 E0
G1 X101.739 Y81.067 F9000.000
G1 Z0.260 F9000.000
G1 E3.00000 F2400.000
G1 X109.573 Y88.901 E3.18548 F1800.000
G1 X109.765 Y89.617 E3.19789
G1 X101.796 Y81.648 E3.38655
G1 F2400.000 E0.38655
G1 Z0.860 F9000.000
G92 E0
G1 X102.440 Y84.914 F9000.000
G1 Z0.260 F9000.000
G1 E3.00000 F2400.000
G1 X109.287 Y91.761 E3.16211 F1800.000
G1 X110.040 Y91.990 E3.17527
G1 X102.212 Y84.162 E3.36060
G1 X101.984 Y83.409 E3.37376
G1 X110.793 Y92.218 E3.58231
G1 X111.390 Y92.291 E3.59239
G1 X101.910 Y82.811 E3.81683
G1 X101.853 Y82.230 E3.82661
G1 X111.972 Y92.348 E4.06618
G1 X112.554 Y92.406 E4.07596
G1 X111.585 Y91.436 E4.09890
G1 X112.300 Y91.628 E4.11131
G1 X113.124 Y92.452 E4.13082
G1 X113.016 Y91.820 E4.14156
G1 X113.602 Y92.405 E4.15541
G1 X114.079 Y92.358 E4.16344
G1 X113.455 Y91.733 E4.17823
G1 X113.868 Y91.623 E4.18540
G1 X114.557 Y92.311 E4.20169
G1 X115.034 Y92.264 E4.20973
G1 X114.282 Y91.512 E4.22753
G1 X114.696 Y91.401 E4.23470
G1 X115.476 Y92.182 E4.25318
G1 X115.878 Y92.060 E4.26021
G1 X115.043 Y91.224 E4.27999
G1 X115.305 Y90.962 E4.28620
G1 X116.281 Y91.938 E4.30930
G1 X116.683 Y91.816 E4.31634
G1 X115.568 Y90.700 E4.34275
G1 X115.830 Y90.438 E4.34895
G1 X117.086 Y91.694 E4.37868
G1 X117.476 Y91.560 E4.38559
G1 X116.092 Y90.176 E4.41836
G1 X116.315 Y89.874 E4.42464
G1 X117.818 Y91.377 E4.46022
G1 X118.160 Y91.195 E4.46670
G1 X116.426 Y89.461 E4.50775
G1 X116.537 Y89.047 E4.51492
G1 X118.502 Y91.012 E4.56144
G1 X118.843 Y90.829 E4.56793
G1 X116.647 Y88.633 E4.61992
G1 X116.758 Y88.220 E4.62709
G1 X119.185 Y90.647 E4.68454
G1 X119.502 Y90.439 E4.69089
G1 X116.634 Y87.571 E4.75878
G1 X116.442 Y86.855 E4.77119
G1 X119.790 Y90.203 E4.85045
G1 X120.078 Y89.966 E4.85669
G1 X101.739 Y71.627 E5.29086
G1 X101.739 Y71.103 E5.29964
G1 X120.366 Y89.730 E5.74063
G1 X120.654 Y89.493 E5.74687
G1 X101.739 Y70.578 E6.19468
G1 X101.739 Y70.054 E6.20346
G1 X120.941 Y89.256 E6.65806
G1 X121.203 Y88.994 E6.66426
G1 X101.739 Y69.530 E7.12507
G1 X101.739 Y69.005 E7.13385
G1 X121.441 Y88.707 E7.60028
G1 X121.677 Y88.419 E7.60652
G1 X101.739 Y68.481 E8.07855
G1 X101.739 Y67.956 E8.08733
G1 X121.914 Y88.131 E8.56496
G1 X122.150 Y87.843 E8.57120
G1 X101.739 Y67.432 E9.05442
G1 X101.739 Y66.908 E9.06320
G1 X122.386 Y87.555 E9.55203
G1 X122.594 Y87.238 E9.55837
G1 X101.739 Y66.383 E10.05211
G1 X101.739 Y65.859 E10.06089
G1 X122.777 Y86.896 E10.55895
G1 X122.959 Y86.555 E10.56543
G1 X101.739 Y65.334 E11.06782
G1 X101.739 Y64.810 E11.07660
G1 X123.142 Y86.213 E11.58331
G1 X123.325 Y85.871 E11.58980
G1 X101.739 Y64.286 E12.10083
G1 X101.739 Y63.761 E12.10961
G1 X123.507 Y85.529 E12.62497
G1 X123.641 Y85.139 E12.63188
G1 X101.739 Y63.237 E13.15041
G1 X101.739 Y62.712 E13.15919
G1 X123.763 Y84.736 E13.68060
G1 X123.885 Y84.334 E13.68764
G1 X101.739 Y62.188 E14.21195
G1 X101.739 Y61.664 E14.22073
G1 X124.007 Y83.932 E14.74792
G1 X124.129 Y83.529 E14.75496
G1 X101.739 Y61.139 E15.28504
G1 X101.739 Y60.615 E15.29382
G1 X124.212 Y83.087 E15.82585
G1 X124.259 Y82.610 E15.83389
G1 X101.739 Y60.090 E16.36704
G1 X101.739 Y59.566 E16.37581
G1 X124.306 Y82.133 E16.91008
G1 X124.353 Y81.655 E16.91811
G1 X101.739 Y59.042 E17.45348
G1 X101.739 Y58.517 E17.46226
G1 X124.400 Y81.178 E17.99875
G1 X124.409 Y80.663 E18.00737
G1 X101.739 Y57.993 E18.54408
G1 X101.739 Y57.468 E18.55286
G1 X124.409 Y80.139 E19.08957
G1 X124.409 Y79.614 E19.09835
G1 X101.739 Y56.944 E19.63507
G1 X101.739 Y56.420 E19.64385
G1 X124.409 Y79.090 E20.18056
G1 X124.409 Y78.565 E20.18934
G1 X101.739 Y55.895 E20.72606
G1 X101.739 Y55.371 E20.73483
G1 X124.409 Y78.041 E21.27155
G1 X124.409 Y77.517 E21.28033
G1 X101.739 Y54.846 E21.81704
G1 X101.739 Y54.322 E21.82582
G1 X124.409 Y76.992 E22.36254
G1 X124.409 Y76.468 E22.37131
G1 X101.739 Y53.797 E22.90803
G1 X101.739 Y53.273 E22.91681
G1 X124.409 Y75.943 E23.45352
G1 X124.409 Y75.419 E23.46230
G1 X101.739 Y52.749 E23.99902
G1 X101.739 Y52.224 E24.00780
G1 X124.409 Y74.895 E24.54451
G1 X124.409 Y74.370 E24.55329
G1 X101.739 Y51.700 E25.09000
G1 X101.739 Y51.175 E25.09878
G1 X124.409 Y73.846 E25.63550
G1 X124.409 Y73.321 E25.64428
G1 X101.739 Y50.651 E26.18099
G1 X101.739 Y50.127 E26.18977
G1 X124.409 Y72.797 E26.72648
G1 X124.409 Y72.273 E26.73526
G1 X101.739 Y49.602 E27.27198
G1 X101.739 Y49.078 E27.28076
G1 X124.409 Y71.748 E27.81747
G1 X124.409 Y71.224 E27.82625
G1 X101.739 Y48.553 E28.36296
G1 X101.739 Y48.029 E28.37174
G1 X124.409 Y70.699 E28.90846
G1 X124.409 Y70.175 E28.91724
G1 X101.739 Y47.505 E29.45395
G1 X101.739 Y46.980 E29.46273
G1 X124.409 Y69.650 E29.99944
G1 X124.409 Y69.126 E30.00822
G1 X101.739 Y46.456 E30.54494
G1 X101.739 Y45.931 E30.55372
G1 X124.409 Y68.602 E31.09043
G1 X124.409 Y68.077 E31.09921
G1 X101.739 Y45.407 E31.63593
G1 X101.739 Y44.883 E31.64470
G1 X124.409 Y67.553 E32.18142
G1 X124.409 Y67.028 E32.19020
G1 X101.739 Y44.358 E32.72691
G1 X101.739 Y43.834 E32.73569
G1 X124.409 Y66.504 E33.27241
G1 X124.409 Y65.980 E33.28118
G1 X101.739 Y43.309 E33.81790
G1 X101.739 Y42.785 E33.82668
G1 X124.409 Y65.455 E34.36339
G1 X124.409 Y64.931 E34.37217
G1 X101.739 Y42.261 E34.90889
G1 X101.739 Y41.736 E34.91767
G1 X124.409 Y64.406 E35.45438
G1 X124.409 Y63.882 E35.46316
G1 X101.739 Y41.212 E35.99987
G1 X101.739 Y40.687 E36.00865
G1 X124.409 Y63.358 E36.54537
G1 X124.409 Y62.833 E36.55415
G1 X101.739 Y40.163 E37.09086
G1 X101.739 Y39.639 E37.09964
G1 X124.409 Y62.309 E37.63635
G1 X124.409 Y61.784 E37.64513
G1 X101.739 Y39.114 E38.18185
G1 X101.739 Y38.590 E38.19063
G1 X124.409 Y61.260 E38.72734
G1 X124.409 Y60.736 E38.73612
G1 X101.750 Y38.076 E39.27258
G1 X101.797 Y37.599 E39.28061
G1 X124.409 Y60.211 E39.81596
G1 X124.409 Y59.687 E39.82474
G1 X101.844 Y37.121 E40.35898
G1 X101.891 Y36.644 E40.36701
G1 X124.409 Y59.162 E40.90014
G1 X124.409 Y58.638 E40.90892
G1 X101.938 Y36.166 E41.44093
G1 X102.020 Y35.725 E41.44845
G1 X124.409 Y58.114 E41.97851
G1 X124.409 Y57.589 E41.98729
G1 X102.142 Y35.322 E42.51446
G1 X102.264 Y34.920 E42.52150
G1 X124.409 Y57.065 E43.04578
G1 X124.409 Y56.540 E43.05456
G1 X102.386 Y34.517 E43.57595
G1 X102.508 Y34.115 E43.58299
G1 X124.409 Y56.016 E44.10149
G1 X124.409 Y55.492 E44.11027
G1 X102.642 Y33.724 E44.62560
G1 X102.825 Y33.383 E44.63209
G1 X124.409 Y54.967 E45.14310
G1 X124.409 Y54.443 E45.15188
G1 X103.007 Y33.041 E45.65857
G1 X103.190 Y32.699 E45.66506
G1 X124.409 Y53.918 E46.16742
G1 X124.409 Y53.394 E46.17620
G1 X103.373 Y32.357 E46.67424
G1 X103.555 Y32.016 E46.68072
G1 X124.409 Y52.870 E47.17444
G1 X124.409 Y52.345 E47.18322
G1 X103.763 Y31.699 E47.67202
G1 X103.999 Y31.411 E47.67825
G1 X124.409 Y51.821 E48.16146
G1 X124.409 Y51.296 E48.17023
G1 X104.236 Y31.123 E48.64784
G1 X104.472 Y30.835 E48.65408
G1 X124.409 Y50.772 E49.12609
G1 X124.409 Y50.247 E49.13487
G1 X104.709 Y30.547 E49.60128
G1 X104.946 Y30.260 E49.60751
G1 X124.409 Y49.723 E50.06829
G1 X124.409 Y49.199 E50.07707
G1 X105.209 Y29.998 E50.53164
G1 X105.495 Y29.760 E50.53788
G1 X124.409 Y48.674 E50.98566
G1 X124.409 Y48.150 E50.99444
G1 X105.783 Y29.524 E51.43541
G1 X106.071 Y29.287 E51.44165
G1 X124.409 Y47.625 E51.87580
G1 X124.409 Y47.101 E51.88458
G1 X106.359 Y29.051 E52.31191
G1 X106.647 Y28.815 E52.31815
G1 X124.409 Y46.577 E52.73867
G1 X124.409 Y46.052 E52.74744
G1 X106.964 Y28.607 E53.16046
G1 X107.306 Y28.424 E53.16694
G1 X124.409 Y45.528 E53.57186
G1 X124.409 Y45.003 E53.58064
G1 X107.648 Y28.242 E53.97747
G1 X107.989 Y28.059 E53.98396
G1 X124.409 Y44.479 E54.37270
G1 X124.409 Y43.955 E54.38147
