; generated by Slic3r 1.1.7 on 2014-11-29 at 11:07:32

; perimeters extrusion width = 0.40mm
; infill extrusion width = 0.42mm
; solid infill extrusion width = 0.42mm
; top infill extrusion width = 0.42mm

; perimeters extrusion width = 0.50mm
; infill extrusion width = 0.70mm
; solid infill extrusion width = 0.70mm
; top infill extrusion width = 0.70mm

G21 ; set units to millimeters
M190 S30 ; wait for bed temperature to be reached
M104 S220 T0 ; set temperature
M104 S225 T1 ; set temperature
G28 ; home all axes
M109 S220 T0 ; wait for temperature to be reached
M109 S225 T1 ; wait for temperature to be reached
G90 ; use absolute coordinates
G92 E0
M82 ; use absolute distances for extrusion
T0
G92 E0
M106 S89
G1 F2400.000 E-3.00000
G1 Z0.860 F9000.000
G92 E0
G1 X54.814 Y51.450 F9000.000
G1 Z0.260 F9000.000
G1 E3.00000 F2400.000
G1 X55.950 Y50.315 E3.02689 F1800.000
G1 X57.844 Y48.759 E3.06792
G1 X59.184 Y47.864 E3.09490
G1 X61.345 Y46.709 E3.13592
G1 X62.833 Y46.093 E3.16288
G1 X65.178 Y45.382 E3.20390
G1 X66.757 Y45.068 E3.23084
G1 X69.196 Y44.828 E3.27187
G1 X70.804 Y44.828 E3.29879
G1 X73.243 Y45.068 E3.33982
G1 X74.822 Y45.382 E3.36676
G1 X77.167 Y46.093 E3.40778
G1 X78.655 Y46.709 E3.43475
G1 X80.816 Y47.864 E3.47577
G1 X82.156 Y48.759 E3.50275
G1 X84.050 Y50.314 E3.54377
G1 X85.186 Y51.450 E3.57066
G1 X86.741 Y53.344 E3.61169
G1 X87.636 Y54.684 E3.63867
G1 X88.791 Y56.845 E3.67969
G1 X89.407 Y58.333 E3.70665
G1 X90.118 Y60.678 E3.74767
G1 X90.432 Y62.257 E3.77461
G1 X90.712 Y65.500 E3.82910
G1 X90.711 Y114.516 E4.64967
G1 X90.649 Y116.006 E4.67463
G1 X90.410 Y117.944 E4.70732
G1 X90.118 Y119.322 E4.73089
G1 X89.407 Y121.667 E4.77191
G1 X88.791 Y123.155 E4.79888
G1 X87.636 Y125.316 E4.83990
G1 X86.741 Y126.656 E4.86687
G1 X85.186 Y128.550 E4.90790
G1 X84.050 Y129.686 E4.93479
G1 X82.156 Y131.241 E4.97582
G1 X80.816 Y132.136 E5.00280
G1 X78.655 Y133.291 E5.04381
G1 X77.167 Y133.907 E5.07078
G1 X74.822 Y134.618 E5.11180
G1 X73.243 Y134.932 E5.13874
G1 X70.804 Y135.172 E5.17977
G1 X69.196 Y135.172 E5.20669
G1 X66.757 Y134.932 E5.24772
G1 X65.178 Y134.618 E5.27466
G1 X62.833 Y133.907 E5.31568
G1 X61.345 Y133.291 E5.34265
G1 X59.184 Y132.136 E5.38366
G1 X57.844 Y131.241 E5.41064
G1 X55.950 Y129.686 E5.45167
G1 X54.814 Y128.550 E5.47856
G1 X53.259 Y126.656 E5.51959
G1 X52.364 Y125.316 E5.54656
G1 X51.209 Y123.155 E5.58758
G1 X50.593 Y121.667 E5.61455
G1 X49.882 Y119.322 E5.65557
G1 X49.591 Y117.948 E5.67907
G1 X49.288 Y115.001 E5.72867
G1 X49.328 Y64.696 E6.57081
G1 X49.568 Y62.257 E6.61184
G1 X49.882 Y60.678 E6.63878
G1 X50.593 Y58.333 E6.67980
G1 X51.209 Y56.845 E6.70676
G1 X52.364 Y54.684 E6.74778
G1 X53.259 Y53.344 E6.77476
G1 X54.776 Y51.497 E6.81478
G1 X55.099 Y51.684 F9000.000
G1 X56.184 Y50.599 E6.84046 F1800.000
G1 X58.078 Y49.044 E6.88149
G1 X59.358 Y48.189 E6.90726
G1 X61.519 Y47.034 E6.94828
G1 X62.940 Y46.445 E6.97403
G1 X65.285 Y45.734 E7.01505
G1 X66.793 Y45.435 E7.04078
G1 X69.232 Y45.195 E7.08181
G1 X70.768 Y45.195 E7.10753
G1 X73.207 Y45.435 E7.14855
G1 X74.715 Y45.734 E7.17429
G1 X77.060 Y46.445 E7.21531
G1 X78.481 Y47.034 E7.24106
G1 X80.642 Y48.189 E7.28208
G1 X81.922 Y49.044 E7.30785
G1 X83.816 Y50.599 E7.34887
G1 X84.901 Y51.684 E7.37456
G1 X86.456 Y53.578 E7.41558
G1 X87.311 Y54.858 E7.44135
G1 X88.466 Y57.019 E7.48237
G1 X89.055 Y58.440 E7.50812
G1 X89.766 Y60.785 E7.54914
G1 X90.065 Y62.293 E7.57488
G1 X90.343 Y65.500 E7.62876
G1 X90.343 Y114.516 E8.44932
G1 X90.283 Y115.961 E8.47353
G1 X90.044 Y117.899 E8.50622
G1 X89.766 Y119.215 E8.52874
G1 X89.055 Y121.560 E8.56976
G1 X88.466 Y122.981 E8.59551
G1 X87.311 Y125.142 E8.63653
G1 X86.456 Y126.422 E8.66230
G1 X84.901 Y128.316 E8.70332
G1 X83.816 Y129.401 E8.72901
G1 X81.922 Y130.956 E8.77003
G1 X80.642 Y131.811 E8.79580
G1 X78.481 Y132.966 E8.83682
G1 X77.060 Y133.555 E8.86257
G1 X74.715 Y134.266 E8.90359
G1 X73.207 Y134.565 E8.92933
G1 X70.768 Y134.805 E8.97035
G1 X69.232 Y134.805 E8.99607
G1 X66.793 Y134.565 E9.03710
G1 X65.285 Y134.266 E9.06283
G1 X62.940 Y133.555 E9.10385
G1 X61.519 Y132.966 E9.12960
G1 X59.358 Y131.811 E9.17062
G1 X58.078 Y130.956 E9.19639
G1 X56.184 Y129.401 E9.23742
G1 X55.099 Y128.316 E9.26310
G1 X53.544 Y126.422 E9.30413
G1 X52.689 Y125.142 E9.32989
G1 X51.534 Y122.981 E9.37091
G1 X50.945 Y121.560 E9.39667
G1 X50.234 Y119.215 E9.43769
G1 X49.957 Y117.903 E9.46013
G1 X49.657 Y115.001 E9.50897
G1 X49.695 Y64.732 E10.35051
G1 X49.935 Y62.293 E10.39154
G1 X50.234 Y60.785 E10.41727
G1 X50.945 Y58.440 E10.45829
G1 X51.534 Y57.019 E10.48404
G1 X52.689 Y54.858 E10.52506
G1 X53.544 Y53.578 E10.55083
G1 X55.061 Y51.731 E10.59085
G1 F2400.000 E0.59085
G1 Z0.860 F9000.000
G92 E0
T1
G92 E0
G1 X8.684 Y50.918 F9000.000
G1 Z0.260 F9000.000
G1 X9.718 Y49.884 E0.02626 F1800.000
G1 X11.612 Y48.329 E0.07027
G1 X12.832 Y47.514 E0.09661
G1 X14.993 Y46.359 E0.14061
G1 X16.347 Y45.798 E0.16694
G1 X18.692 Y45.087 E0.21094
G1 X20.129 Y44.802 E0.23725
G1 X22.568 Y44.562 E0.28126
G1 X24.032 Y44.562 E0.30755
G1 X26.471 Y44.802 E0.35156
G1 X27.908 Y45.087 E0.37786
G1 X30.253 Y45.798 E0.42187
G1 X31.607 Y46.359 E0.44819
G1 X33.768 Y47.514 E0.49219
G1 X34.988 Y48.329 E0.51854
G1 X36.882 Y49.884 E0.56254
G1 X37.916 Y50.918 E0.58880
G1 X39.471 Y52.812 E0.63281
G1 X40.286 Y54.032 E0.65915
G1 X41.441 Y56.193 E0.70315
G1 X42.002 Y57.547 E0.72948
G1 X42.713 Y59.892 E0.77348
G1 X42.998 Y61.329 E0.79979
G1 X43.274 Y64.500 E0.85695
G1 X43.274 Y113.515 E1.73715
G1 X43.217 Y114.916 E1.76232
G1 X42.978 Y116.854 E1.79739
G1 X42.713 Y118.108 E1.82040
G1 X42.002 Y120.453 E1.86441
G1 X41.441 Y121.807 E1.89074
G1 X40.286 Y123.968 E1.93474
G1 X39.471 Y125.188 E1.96108
G1 X37.916 Y127.082 E2.00509
G1 X36.882 Y128.116 E2.03135
G1 X34.988 Y129.671 E2.07535
G1 X33.768 Y130.486 E2.10169
G1 X31.607 Y131.641 E2.14570
G1 X30.253 Y132.202 E2.17202
G1 X27.908 Y132.913 E2.21603
G1 X26.471 Y133.198 E2.24233
G1 X24.032 Y133.438 E2.28634
G1 X22.568 Y133.438 E2.31263
G1 X20.129 Y133.198 E2.35664
G1 X18.692 Y132.913 E2.38295
G1 X16.347 Y132.202 E2.42695
G1 X14.993 Y131.641 E2.45328
G1 X12.832 Y130.486 E2.49728
G1 X11.612 Y129.671 E2.52362
G1 X9.718 Y128.116 E2.56763
G1 X8.684 Y127.082 E2.59389
G1 X7.129 Y125.188 E2.63789
G1 X6.314 Y123.968 E2.66424
G1 X5.159 Y121.807 E2.70824
G1 X4.598 Y120.453 E2.73457
G1 X3.887 Y118.108 E2.77857
G1 X3.622 Y116.858 E2.80152
G1 X3.326 Y114.001 E2.85309
G1 X3.362 Y63.768 E3.75516
G1 X3.602 Y61.329 E3.79917
G1 X3.887 Y59.892 E3.82548
G1 X4.598 Y57.547 E3.86948
G1 X5.159 Y56.193 E3.89581
G1 X6.314 Y54.032 E3.93981
G1 X7.129 Y52.812 E3.96615
G1 X8.637 Y50.976 E4.00881
G1 X8.969 Y51.152 F9000.000
G1 X9.952 Y50.169 E4.03378 F1800.000
G1 X11.846 Y48.614 E4.07778
G1 X13.006 Y47.839 E4.10283
G1 X15.167 Y46.684 E4.14683
G1 X16.454 Y46.151 E4.17186
G1 X18.799 Y45.440 E4.21586
G1 X20.165 Y45.168 E4.24087
G1 X22.604 Y44.928 E4.28488
G1 X23.996 Y44.928 E4.30987
G1 X26.435 Y45.168 E4.35388
G1 X27.801 Y45.440 E4.37889
G1 X30.146 Y46.151 E4.42290
G1 X31.433 Y46.684 E4.44792
G1 X33.594 Y47.839 E4.49193
G1 X34.754 Y48.614 E4.51697
G1 X36.648 Y50.169 E4.56098
G1 X37.631 Y51.152 E4.58594
G1 X39.186 Y53.046 E4.62995
G1 X39.961 Y54.206 E4.65499
G1 X41.116 Y56.367 E4.69899
G1 X41.649 Y57.654 E4.72402
G1 X42.360 Y59.999 E4.76802
G1 X42.632 Y61.365 E4.79303
G1 X42.906 Y64.500 E4.84954
G1 X42.906 Y113.514 E5.72973
G1 X42.851 Y114.871 E5.75411
G1 X42.612 Y116.809 E5.78917
G1 X42.360 Y118.001 E5.81105
G1 X41.649 Y120.346 E5.85506
G1 X41.116 Y121.633 E5.88009
G1 X39.961 Y123.794 E5.92409
G1 X39.186 Y124.954 E5.94913
G1 X37.631 Y126.848 E5.99314
G1 X36.648 Y127.831 E6.01810
G1 X34.754 Y129.386 E6.06211
G1 X33.594 Y130.161 E6.08715
G1 X31.433 Y131.316 E6.13115
G1 X30.146 Y131.849 E6.15618
G1 X27.801 Y132.560 E6.20019
G1 X26.435 Y132.832 E6.22519
G1 X23.996 Y133.072 E6.26921
G1 X22.604 Y133.072 E6.29420
G1 X20.165 Y132.832 E6.33821
G1 X18.799 Y132.560 E6.36322
G1 X16.454 Y131.849 E6.40722
G1 X15.167 Y131.316 E6.43225
G1 X13.006 Y130.161 E6.47625
G1 X11.846 Y129.386 E6.50129
G1 X9.952 Y127.831 E6.54530
G1 X8.969 Y126.848 E6.57026
G1 X7.414 Y124.954 E6.61427
G1 X6.639 Y123.794 E6.63931
G1 X5.484 Y121.633 E6.68332
G1 X4.951 Y120.346 E6.70834
G1 X4.240 Y118.001 E6.75235
G1 X3.988 Y116.812 E6.77416
G1 X3.694 Y114.001 E6.82492
G1 X3.728 Y63.804 E7.72635
G1 X3.968 Y61.365 E7.77036
G1 X4.240 Y59.999 E7.79537
G1 X4.951 Y57.654 E7.83937
G1 X5.484 Y56.367 E7.86440
G1 X6.639 Y54.206 E7.90840
G1 X7.414 Y53.046 E7.93344
G1 X8.921 Y51.210 E7.97610
G1 F3600.000 E-2.02390
G1 Z0.860 F9000.000
G92 E0
T0
G92 E0
G1 X55.954 Y52.386 F9000.000
G1 Z0.260 F9000.000
G1 E10.00000 F2400.000
G1 X56.886 Y51.454 E10.02206 F1800.000
G1 X58.780 Y49.899 E10.06309
G1 X59.879 Y49.164 E10.08522
G1 X62.040 Y48.009 E10.12624
G1 X63.261 Y47.504 E10.14837
G1 X65.606 Y46.793 E10.18939
G1 X66.901 Y46.535 E10.21149
G1 X69.340 Y46.295 E10.25252
G1 X70.660 Y46.295 E10.27461
G1 X73.099 Y46.535 E10.31564
G1 X74.394 Y46.793 E10.33774
G1 X76.739 Y47.504 E10.37876
G1 X77.960 Y48.009 E10.40088
G1 X80.121 Y49.164 E10.44190
G1 X81.220 Y49.899 E10.46404
G1 X83.114 Y51.454 E10.50506
G1 X84.046 Y52.386 E10.52713
G1 X85.601 Y54.280 E10.56815
G1 X86.336 Y55.379 E10.59029
G1 X87.491 Y57.540 E10.63131
G1 X87.996 Y58.761 E10.65343
G1 X88.707 Y61.106 E10.69445
G1 X88.965 Y62.401 E10.71655
G1 X89.237 Y65.500 E10.76863
G1 X89.237 Y114.513 E11.58915
G1 X89.186 Y115.826 E11.61113
G1 X88.707 Y118.894 E11.66311
G1 X87.996 Y121.239 E11.70413
G1 X87.491 Y122.460 E11.72626
G1 X86.336 Y124.621 E11.76728
G1 X85.601 Y125.720 E11.78941
G1 X84.046 Y127.614 E11.83043
G1 X83.114 Y128.546 E11.85250
G1 X81.220 Y130.101 E11.89352
G1 X80.121 Y130.836 E11.91566
G1 X77.960 Y131.991 E11.95668
G1 X76.739 Y132.496 E11.97880
G1 X74.394 Y133.207 E12.01982
G1 X73.099 Y133.465 E12.04193
G1 X70.660 Y133.705 E12.08295
G1 X69.340 Y133.705 E12.10504
G1 X66.901 Y133.465 E12.14607
G1 X65.606 Y133.207 E12.16817
G1 X63.261 Y132.496 E12.20920
G1 X62.040 Y131.991 E12.23132
G1 X59.879 Y130.836 E12.27234
G1 X58.780 Y130.101 E12.29447
G1 X56.886 Y128.546 E12.33550
G1 X55.954 Y127.614 E12.35756
G1 X54.399 Y125.720 E12.39859
G1 X53.664 Y124.621 E12.42072
G1 X52.509 Y122.460 E12.46174
G1 X52.004 Y121.239 E12.48386
G1 X51.054 Y117.767 E12.54412
G1 X50.763 Y115.001 E12.59068
G1 X50.795 Y64.840 E13.43040
G1 X51.035 Y62.401 E13.47143
G1 X51.293 Y61.106 E13.49353
G1 X52.004 Y58.761 E13.53455
G1 X52.509 Y57.540 E13.55668
G1 X53.664 Y55.379 E13.59770
G1 X54.399 Y54.280 E13.61983
G1 X55.916 Y52.432 E13.65985
G1 X56.239 Y52.620 F9000.000
G1 X57.120 Y51.739 E13.68071 F1800.000
G1 X59.014 Y50.184 E13.72173
G1 X60.053 Y49.489 E13.74266
G1 X62.214 Y48.334 E13.78368
G1 X63.368 Y47.856 E13.80459
G1 X65.713 Y47.145 E13.84561
G1 X66.937 Y46.902 E13.86650
G1 X69.376 Y46.662 E13.90753
G1 X70.624 Y46.662 E13.92841
G1 X73.063 Y46.902 E13.96944
G1 X74.287 Y47.145 E13.99034
G1 X76.632 Y47.856 E14.03136
G1 X77.786 Y48.334 E14.05227
G1 X79.947 Y49.489 E14.09329
G1 X80.986 Y50.184 E14.11421
G1 X82.880 Y51.739 E14.15524
G1 X83.761 Y52.620 E14.17609
G1 X85.316 Y54.514 E14.21712
G1 X86.011 Y55.553 E14.23804
G1 X87.166 Y57.714 E14.27906
G1 X87.644 Y58.868 E14.29997
G1 X88.355 Y61.213 E14.34100
G1 X88.598 Y62.437 E14.36189
G1 X88.869 Y65.500 E14.41336
G1 X88.869 Y114.513 E15.23386
G1 X88.820 Y115.780 E15.25510
G1 X88.355 Y118.787 E15.30603
G1 X87.644 Y121.132 E15.34705
G1 X87.166 Y122.286 E15.36796
G1 X86.011 Y124.447 E15.40898
G1 X85.316 Y125.486 E15.42991
G1 X83.761 Y127.380 E15.47093
G1 X82.880 Y128.261 E15.49179
G1 X80.986 Y129.816 E15.53281
G1 X79.947 Y130.511 E15.55374
G1 X77.786 Y131.666 E15.59476
G1 X76.632 Y132.144 E15.61567
G1 X74.287 Y132.855 E15.65669
G1 X73.063 Y133.098 E15.67759
G1 X70.624 Y133.338 E15.71861
G1 X69.376 Y133.338 E15.73949
G1 X66.937 Y133.098 E15.78052
G1 X65.713 Y132.855 E15.80142
G1 X63.368 Y132.144 E15.84244
G1 X62.214 Y131.666 E15.86335
G1 X60.053 Y130.511 E15.90437
G1 X59.014 Y129.816 E15.92529
G1 X57.120 Y128.261 E15.96632
G1 X56.239 Y127.380 E15.98718
G1 X54.684 Y125.486 E16.02820
G1 X53.989 Y124.447 E16.04912
G1 X52.834 Y122.286 E16.09014
G1 X52.356 Y121.132 E16.11105
G1 X51.420 Y117.722 E16.17026
G1 X51.131 Y115.001 E16.21606
G1 X51.162 Y64.876 E17.05518
G1 X51.402 Y62.437 E17.09621
G1 X51.645 Y61.213 E17.11710
G1 X52.356 Y58.868 E17.15812
G1 X52.834 Y57.714 E17.17903
G1 X53.989 Y55.553 E17.22005
G1 X54.684 Y54.514 E17.24098
G1 X56.201 Y52.666 E17.28100
G1 F2400.000 E14.28100
G1 Z0.860 F9000.000
G92 E0
G1 X80.244 Y121.344 F9000.000
G1 Z0.260 F9000.000
G1 E3.00000 F2400.000
G1 X78.711 Y123.211 E3.04043 F1800.000
G1 X76.845 Y124.744 E3.08086
G1 X74.715 Y125.882 E3.12129
G1 X72.404 Y126.583 E3.16171
G1 X70.000 Y126.819 E3.20215
G1 X67.596 Y126.583 E3.24258
G1 X65.285 Y125.882 E3.28301
G1 X63.156 Y124.744 E3.32344
G1 X61.289 Y123.211 E3.36387
G1 X59.756 Y121.345 E3.40430
G1 X58.618 Y119.215 E3.44472
G1 X57.917 Y116.904 E3.48515
G1 X57.712 Y114.821 E3.52019
G1 X57.680 Y114.821 E3.52073
G1 X57.680 Y66.179 E4.33503
G1 X57.748 Y66.179 E4.33616
G1 X57.681 Y65.500 E4.34758
G1 X57.917 Y63.096 E4.38802
G1 X58.618 Y60.785 E4.42844
G1 X59.756 Y58.656 E4.46887
G1 X61.289 Y56.789 E4.50930
G1 X63.156 Y55.256 E4.54973
G1 X65.285 Y54.118 E4.59016
G1 X67.596 Y53.417 E4.63058
G1 X70.000 Y53.181 E4.67102
G1 X72.404 Y53.417 E4.71145
G1 X74.715 Y54.118 E4.75188
G1 X76.845 Y55.256 E4.79231
G1 X78.711 Y56.789 E4.83274
G1 X80.244 Y58.656 E4.87317
G1 X81.382 Y60.785 E4.91359
G1 X82.083 Y63.096 E4.95402
G1 X82.319 Y65.500 E4.99446
G1 X82.252 Y66.179 E5.00588
G1 X82.319 Y66.179 E5.00699
G1 X82.319 Y114.821 E5.82129
G1 X82.288 Y114.821 E5.82182
G1 X82.083 Y116.904 E5.85685
G1 X81.382 Y119.215 E5.89728
G1 X80.272 Y121.292 E5.93670
G1 X79.846 Y121.305 F9000.000
G1 X79.936 Y121.139 F9000.000
G1 X78.449 Y122.949 E5.97592 F1800.000
G1 X76.639 Y124.436 E6.01513
G1 X74.573 Y125.540 E6.05434
G1 X72.332 Y126.219 E6.09355
G1 X70.000 Y126.449 E6.13277
G1 X67.668 Y126.219 E6.17199
G1 X65.427 Y125.540 E6.21121
G1 X63.361 Y124.436 E6.25042
G1 X61.551 Y122.949 E6.28963
G1 X60.064 Y121.139 E6.32885
G1 X58.960 Y119.073 E6.36806
G1 X58.281 Y116.832 E6.40727
G1 X58.049 Y114.473 E6.44694
G1 X58.049 Y66.548 E7.24924
G1 X58.154 Y66.548 E7.25101
G1 X58.051 Y65.500 E7.26864
G1 X58.281 Y63.168 E7.30786
G1 X58.960 Y60.927 E7.34707
G1 X60.064 Y58.861 E7.38628
G1 X61.551 Y57.051 E7.42549
G1 X63.361 Y55.564 E7.46471
G1 X65.427 Y54.460 E7.50392
G1 X67.668 Y53.781 E7.54313
G1 X70.000 Y53.551 E7.58235
G1 X72.332 Y53.781 E7.62157
G1 X74.573 Y54.460 E7.66078
G1 X76.639 Y55.564 E7.69999
G1 X78.449 Y57.051 E7.73921
G1 X79.936 Y58.861 E7.77842
G1 X81.040 Y60.927 E7.81763
G1 X81.719 Y63.168 E7.85684
G1 X81.949 Y65.500 E7.89606
G1 X81.846 Y66.548 E7.91368
G1 X81.950 Y66.548 E7.91544
G1 X81.950 Y114.483 E8.71791
G1 X81.719 Y116.832 E8.75741
G1 X81.040 Y119.073 E8.79662
G1 X79.964 Y121.086 E8.83483
G1 X79.628 Y120.933 F9000.000
G1 X78.187 Y122.687 E8.87283 F1800.000
G1 X76.433 Y124.128 E8.91083
G1 X74.431 Y125.198 E8.94882
G1 X72.259 Y125.856 E8.98682
G1 X70.000 Y126.078 E9.02482
G1 X67.741 Y125.856 E9.06283
G1 X65.569 Y125.198 E9.10083
G1 X63.567 Y124.128 E9.13882
G1 X61.813 Y122.687 E9.17682
G1 X60.372 Y120.933 E9.21482
G1 X59.302 Y118.931 E9.25281
G1 X58.644 Y116.759 E9.29081
G1 X58.417 Y114.455 E9.32957
G1 X58.417 Y66.916 E10.12540
G1 X58.561 Y66.916 E10.12781
G1 X58.422 Y65.500 E10.15163
G1 X58.644 Y63.241 E10.18964
G1 X59.302 Y61.069 E10.22763
G1 X60.372 Y59.067 E10.26562
G1 X61.813 Y57.313 E10.30363
G1 X63.567 Y55.872 E10.34163
G1 X65.569 Y54.802 E10.37962
G1 X67.741 Y54.144 E10.41762
G1 X70.000 Y53.922 E10.45562
G1 X72.259 Y54.144 E10.49363
G1 X74.431 Y54.802 E10.53162
G1 X76.433 Y55.872 E10.56961
G1 X78.187 Y57.313 E10.60761
G1 X79.628 Y59.067 E10.64562
G1 X80.698 Y61.069 E10.68361
G1 X81.356 Y63.241 E10.72161
G1 X81.578 Y65.500 E10.75961
G1 X81.439 Y66.916 E10.78343
G1 X81.582 Y66.916 E10.78582
G1 X81.582 Y114.465 E11.58182
G1 X81.356 Y116.759 E11.62041
G1 X80.698 Y118.931 E11.65841
G1 X79.656 Y120.880 E11.69540
G1 F2400.000 E8.69540
G1 Z0.860 F9000.000
G92 E0
G1 X72.689 Y121.500 F9000.000
G1 Z0.260 F9000.000
