; generated by Slic3r 1.1.7 on 2014-11-29 at 13:54:15

; perimeters extrusion width = 0.40mm
; infill extrusion width = 0.42mm
; solid infill extrusion width = 0.42mm
; top infill extrusion width = 0.42mm

; perimeters extrusion width = 0.50mm
; infill extrusion width = 0.70mm
; solid infill extrusion width = 0.70mm
; top infill extrusion width = 0.70mm

G21 ; set units to millimeters
M190 S30 ; wait for bed temperature to be reached
M104 S220 T0 ; set temperature
M104 S230 T1 ; set temperature
G28 ; home all axes
M109 S220 T0 ; wait for temperature to be reached
M109 S230 T1 ; wait for temperature to be reached
G90 ; use absolute coordinates
G92 E0
M82 ; use absolute distances for extrusion
T0
G92 E0
M106 S89
G1 F2400.000 E-3.00000
G1 Z0.860 F9000.000
G92 E0
G1 X92.011 Y34.035 F9000.000
G1 Z0.260 F9000.000
G1 E3.00000 F2400.000
G1 X92.627 Y32.547 E3.02696 F1800.000
G1 X93.782 Y30.386 E3.06798
G1 X94.677 Y29.046 E3.09496
G1 X96.232 Y27.152 E3.13599
G1 X97.368 Y26.016 E3.16288
G1 X99.262 Y24.461 E3.20390
G1 X100.602 Y23.566 E3.23088
G1 X102.763 Y22.410 E3.27190
G1 X104.251 Y21.794 E3.29886
G1 X106.596 Y21.083 E3.33989
G1 X108.175 Y20.769 E3.36683
G1 X110.614 Y20.529 E3.40785
G1 X112.222 Y20.529 E3.43478
G1 X114.661 Y20.769 E3.47581
G1 X116.240 Y21.083 E3.50275
G1 X118.585 Y21.794 E3.54377
G1 X120.073 Y22.410 E3.57073
G1 X122.234 Y23.565 E3.61175
G1 X123.573 Y24.461 E3.63873
G1 X125.468 Y26.016 E3.67976
G1 X126.603 Y27.152 E3.70665
G1 X128.158 Y29.046 E3.74767
G1 X129.054 Y30.386 E3.77465
G1 X130.209 Y32.547 E3.81567
G1 X130.825 Y34.035 E3.84263
G1 X131.536 Y36.380 E3.88366
G1 X131.850 Y37.958 E3.91060
G1 X132.129 Y41.201 E3.96509
G1 X132.129 Y90.218 E4.78566
G1 X132.067 Y91.708 E4.81062
G1 X131.828 Y93.646 E4.84331
G1 X131.536 Y95.023 E4.86688
G1 X130.825 Y97.368 E4.90790
G1 X130.209 Y98.856 E4.93486
G1 X129.054 Y101.017 E4.97588
G1 X128.158 Y102.357 E5.00286
G1 X126.603 Y104.251 E5.04388
G1 X125.468 Y105.387 E5.07078
G1 X123.574 Y106.942 E5.11180
G1 X122.234 Y107.838 E5.13878
G1 X120.073 Y108.993 E5.17980
G1 X118.585 Y109.609 E5.20676
G1 X116.240 Y110.320 E5.24778
G1 X114.661 Y110.634 E5.27473
G1 X112.222 Y110.874 E5.31575
G1 X110.614 Y110.874 E5.34268
G1 X108.175 Y110.634 E5.38370
G1 X106.596 Y110.320 E5.41065
G1 X104.251 Y109.609 E5.45167
G1 X102.763 Y108.993 E5.47863
G1 X100.602 Y107.838 E5.51965
G1 X99.262 Y106.942 E5.54663
G1 X97.368 Y105.387 E5.58765
G1 X96.232 Y104.251 E5.61455
G1 X94.677 Y102.357 E5.65557
G1 X93.782 Y101.017 E5.68255
G1 X92.627 Y98.856 E5.72357
G1 X92.011 Y97.368 E5.75053
G1 X91.300 Y95.023 E5.79155
G1 X91.009 Y93.650 E5.81506
G1 X90.706 Y90.702 E5.86465
G1 X90.746 Y40.397 E6.70679
G1 X90.986 Y37.958 E6.74782
G1 X91.300 Y36.380 E6.77476
G1 X91.993 Y34.092 E6.81478
G1 X92.363 Y34.142 F9000.000
G1 X92.952 Y32.721 E6.84053 F1800.000
G1 X94.107 Y30.560 E6.88155
G1 X94.962 Y29.280 E6.90732
G1 X96.517 Y27.386 E6.94834
G1 X97.602 Y26.301 E6.97403
G1 X99.496 Y24.746 E7.01505
G1 X100.776 Y23.891 E7.04082
G1 X102.937 Y22.736 E7.08184
G1 X104.358 Y22.147 E7.10759
G1 X106.703 Y21.436 E7.14862
G1 X108.211 Y21.136 E7.17435
G1 X110.650 Y20.896 E7.21537
G1 X112.186 Y20.896 E7.24109
G1 X114.625 Y21.136 E7.28212
G1 X116.133 Y21.436 E7.30785
G1 X118.478 Y22.147 E7.34887
G1 X119.899 Y22.736 E7.37462
G1 X122.060 Y23.891 E7.41564
G1 X123.340 Y24.746 E7.44141
G1 X125.234 Y26.301 E7.48244
G1 X126.319 Y27.386 E7.50812
G1 X127.874 Y29.280 E7.54915
G1 X128.729 Y30.560 E7.57491
G1 X129.884 Y32.721 E7.61593
G1 X130.472 Y34.142 E7.64169
G1 X131.183 Y36.487 E7.68271
G1 X131.483 Y37.994 E7.70844
G1 X131.761 Y41.201 E7.76233
G1 X131.761 Y90.217 E8.58288
G1 X131.701 Y91.662 E8.60710
G1 X131.462 Y93.600 E8.63979
G1 X131.183 Y94.916 E8.66230
G1 X130.472 Y97.261 E8.70332
G1 X129.884 Y98.682 E8.72908
G1 X128.729 Y100.843 E8.77010
G1 X127.874 Y102.123 E8.79586
G1 X126.319 Y104.017 E8.83689
G1 X125.234 Y105.102 E8.86257
G1 X123.340 Y106.657 E8.90360
G1 X122.060 Y107.512 E8.92937
G1 X119.899 Y108.667 E8.97038
G1 X118.478 Y109.256 E8.99614
G1 X116.133 Y109.967 E9.03716
G1 X114.625 Y110.267 E9.06289
G1 X112.186 Y110.507 E9.10392
G1 X110.650 Y110.507 E9.12963
G1 X108.211 Y110.267 E9.17066
G1 X106.703 Y109.967 E9.19639
G1 X104.358 Y109.256 E9.23742
G1 X102.937 Y108.667 E9.26317
G1 X100.776 Y107.512 E9.30419
G1 X99.496 Y106.657 E9.32996
G1 X97.602 Y105.102 E9.37098
G1 X96.517 Y104.017 E9.39667
G1 X94.962 Y102.123 E9.43769
G1 X94.107 Y100.843 E9.46346
G1 X92.952 Y98.682 E9.50448
G1 X92.363 Y97.261 E9.53023
G1 X91.652 Y94.916 E9.57125
G1 X91.374 Y93.604 E9.59370
G1 X91.075 Y90.702 E9.64254
G1 X91.113 Y40.433 E10.48407
G1 X91.353 Y37.994 E10.52510
G1 X91.652 Y36.487 E10.55083
G1 X92.346 Y34.199 E10.59085
G1 F2400.000 E0.59085
G1 Z0.860 F9000.000
G92 E0
T1
G92 E0
G1 X46.016 Y33.249 F9000.000
G1 Z0.260 F9000.000
G1 X46.577 Y31.894 E0.02293 F1800.000
G1 X47.732 Y29.733 E0.06126
G1 X48.547 Y28.514 E0.08421
G1 X50.102 Y26.620 E0.12255
G1 X51.136 Y25.586 E0.14542
G1 X53.030 Y24.031 E0.18376
G1 X54.250 Y23.216 E0.20670
G1 X56.411 Y22.061 E0.24503
G1 X57.765 Y21.500 E0.26797
G1 X60.110 Y20.789 E0.30630
G1 X61.547 Y20.503 E0.32921
G1 X63.986 Y20.263 E0.36755
G1 X65.450 Y20.263 E0.39045
G1 X67.889 Y20.503 E0.42879
G1 X69.326 Y20.789 E0.45171
G1 X71.671 Y21.500 E0.49004
G1 X73.025 Y22.061 E0.51297
G1 X75.186 Y23.216 E0.55130
G1 X76.406 Y24.031 E0.57425
G1 X78.300 Y25.586 E0.61258
G1 X79.334 Y26.620 E0.63546
G1 X80.889 Y28.514 E0.67379
G1 X81.704 Y29.733 E0.69674
G1 X82.859 Y31.894 E0.73507
G1 X83.420 Y33.249 E0.75800
G1 X84.131 Y35.594 E0.79634
G1 X84.416 Y37.031 E0.81925
G1 X84.692 Y40.201 E0.86904
G1 X84.692 Y89.216 E1.63579
G1 X84.635 Y90.617 E1.65773
G1 X84.396 Y92.555 E1.68827
G1 X84.131 Y93.809 E1.70832
G1 X83.420 Y96.154 E1.74665
G1 X82.859 Y97.509 E1.76959
G1 X81.704 Y99.670 E1.80792
G1 X80.889 Y100.889 E1.83086
G1 X79.334 Y102.783 E1.86920
G1 X78.300 Y103.817 E1.89207
G1 X76.406 Y105.372 E1.93041
G1 X75.186 Y106.187 E1.95336
G1 X73.025 Y107.342 E1.99169
G1 X71.671 Y107.903 E2.01462
G1 X69.326 Y108.614 E2.05295
G1 X67.889 Y108.900 E2.07587
G1 X65.450 Y109.140 E2.11420
G1 X63.986 Y109.140 E2.13710
G1 X61.547 Y108.900 E2.17544
G1 X60.110 Y108.614 E2.19836
G1 X57.765 Y107.903 E2.23669
G1 X56.411 Y107.342 E2.25962
G1 X54.250 Y106.187 E2.29795
G1 X53.030 Y105.372 E2.32090
G1 X51.136 Y103.817 E2.35924
G1 X50.102 Y102.783 E2.38211
G1 X48.547 Y100.889 E2.42045
G1 X47.732 Y99.670 E2.44339
G1 X46.577 Y97.509 E2.48172
G1 X46.016 Y96.154 E2.50466
G1 X45.305 Y93.809 E2.54299
G1 X45.040 Y92.559 E2.56298
G1 X44.744 Y89.702 E2.60791
G1 X44.779 Y39.470 E3.39371
G1 X45.020 Y37.031 E3.43205
G1 X45.305 Y35.594 E3.45496
G1 X45.994 Y33.321 E3.49212
G1 X46.369 Y33.356 F9000.000
G1 X46.902 Y32.068 E3.51392 F1800.000
G1 X48.057 Y29.907 E3.55225
G1 X48.832 Y28.748 E3.57407
G1 X50.387 Y26.854 E3.61241
G1 X51.370 Y25.871 E3.63415
G1 X53.264 Y24.316 E3.67249
G1 X54.423 Y23.541 E3.69430
G1 X56.584 Y22.386 E3.73263
G1 X57.872 Y21.852 E3.75443
G1 X60.217 Y21.141 E3.79277
G1 X61.583 Y20.870 E3.81455
G1 X64.022 Y20.630 E3.85289
G1 X65.414 Y20.630 E3.87466
G1 X67.853 Y20.870 E3.91300
G1 X69.219 Y21.141 E3.93478
G1 X71.564 Y21.852 E3.97312
G1 X72.851 Y22.386 E3.99492
G1 X75.012 Y23.541 E4.03325
G1 X76.172 Y24.316 E4.05507
G1 X78.066 Y25.871 E4.09340
G1 X79.049 Y26.854 E4.11515
G1 X80.604 Y28.748 E4.15348
G1 X81.379 Y29.907 E4.17530
G1 X82.534 Y32.068 E4.21363
G1 X83.067 Y33.356 E4.23543
G1 X83.778 Y35.701 E4.27376
G1 X84.050 Y37.067 E4.29555
G1 X84.324 Y40.201 E4.34477
G1 X84.324 Y89.216 E5.11151
G1 X84.269 Y90.572 E5.13275
G1 X84.030 Y92.510 E5.16330
G1 X83.778 Y93.702 E5.18236
G1 X83.067 Y96.047 E5.22069
G1 X82.534 Y97.335 E5.24249
G1 X81.379 Y99.496 E5.28082
G1 X80.604 Y100.655 E5.30264
G1 X79.049 Y102.549 E5.34097
G1 X78.066 Y103.532 E5.36272
G1 X76.172 Y105.087 E5.40105
G1 X75.012 Y105.862 E5.42287
G1 X72.851 Y107.017 E5.46120
G1 X71.564 Y107.551 E5.48300
G1 X69.219 Y108.262 E5.52133
G1 X67.853 Y108.533 E5.54312
G1 X65.414 Y108.773 E5.58146
G1 X64.022 Y108.773 E5.60323
G1 X61.583 Y108.533 E5.64157
G1 X60.217 Y108.262 E5.66335
G1 X57.872 Y107.551 E5.70168
G1 X56.584 Y107.017 E5.72349
G1 X54.423 Y105.862 E5.76182
G1 X53.264 Y105.087 E5.78363
G1 X51.370 Y103.532 E5.82197
G1 X50.387 Y102.549 E5.84371
G1 X48.832 Y100.655 E5.88205
G1 X48.057 Y99.496 E5.90386
G1 X46.902 Y97.335 E5.94219
G1 X46.369 Y96.047 E5.96400
G1 X45.658 Y93.702 E6.00233
G1 X45.406 Y92.514 E6.02133
G1 X45.112 Y89.702 E6.06555
G1 X45.146 Y39.506 E6.85079
G1 X45.386 Y37.067 E6.88913
G1 X45.658 Y35.701 E6.91091
G1 X46.347 Y33.428 E6.94807
G1 F3600.000 E-3.05193
G1 Z0.860 F9000.000
G92 E0
T0
G92 E0
G1 X93.422 Y34.463 F9000.000
G1 Z0.260 F9000.000
G1 E10.00000 F2400.000
G1 X93.927 Y33.242 E10.02212 F1800.000
G1 X95.082 Y31.081 E10.06314
G1 X95.817 Y29.981 E10.08528
G1 X97.372 Y28.087 E10.12630
G1 X98.304 Y27.155 E10.14836
G1 X100.198 Y25.600 E10.18939
G1 X101.297 Y24.866 E10.21152
G1 X103.458 Y23.711 E10.25254
G1 X104.679 Y23.205 E10.27467
G1 X107.024 Y22.494 E10.31569
G1 X108.319 Y22.237 E10.33779
G1 X110.758 Y21.997 E10.37882
G1 X112.078 Y21.997 E10.40091
G1 X114.517 Y22.237 E10.44194
G1 X115.812 Y22.494 E10.46404
G1 X118.157 Y23.205 E10.50506
G1 X119.378 Y23.711 E10.52718
G1 X121.539 Y24.866 E10.56820
G1 X122.638 Y25.600 E10.59034
G1 X124.532 Y27.155 E10.63136
G1 X125.464 Y28.087 E10.65343
G1 X127.019 Y29.981 E10.69445
G1 X127.754 Y31.081 E10.71659
G1 X128.909 Y33.242 E10.75761
G1 X129.414 Y34.463 E10.77973
G1 X130.125 Y36.808 E10.82075
G1 X130.383 Y38.103 E10.84285
G1 X130.655 Y41.201 E10.89493
G1 X130.655 Y90.215 E11.71545
G1 X130.603 Y91.527 E11.73743
G1 X130.125 Y94.595 E11.78941
G1 X129.414 Y96.940 E11.83043
G1 X128.909 Y98.161 E11.85256
G1 X127.754 Y100.322 E11.89358
G1 X127.019 Y101.422 E11.91571
G1 X125.464 Y103.316 E11.95673
G1 X124.532 Y104.248 E11.97880
G1 X122.638 Y105.803 E12.01982
G1 X121.539 Y106.537 E12.04196
G1 X119.378 Y107.692 E12.08298
G1 X118.157 Y108.198 E12.10510
G1 X115.812 Y108.909 E12.14612
G1 X114.517 Y109.166 E12.16823
G1 X112.078 Y109.406 E12.20925
G1 X110.758 Y109.406 E12.23134
G1 X108.319 Y109.166 E12.27237
G1 X107.024 Y108.909 E12.29448
G1 X104.679 Y108.198 E12.33550
G1 X103.458 Y107.692 E12.35762
G1 X101.297 Y106.537 E12.39864
G1 X100.198 Y105.803 E12.42077
G1 X98.304 Y104.248 E12.46180
G1 X97.372 Y103.316 E12.48386
G1 X95.817 Y101.422 E12.52489
G1 X95.082 Y100.322 E12.54702
G1 X93.927 Y98.161 E12.58804
G1 X93.422 Y96.940 E12.61016
G1 X92.472 Y93.468 E12.67042
G1 X92.181 Y90.702 E12.71698
G1 X92.213 Y40.542 E13.55670
G1 X92.453 Y38.103 E13.59773
G1 X92.711 Y36.808 E13.61983
G1 X93.404 Y34.520 E13.65985
G1 X93.774 Y34.570 F9000.000
G1 X94.252 Y33.416 E13.68076 F1800.000
G1 X95.407 Y31.255 E13.72178
G1 X96.102 Y30.215 E13.74271
G1 X97.657 Y28.321 E13.78373
G1 X98.538 Y27.440 E13.80459
G1 X100.432 Y25.885 E13.84561
G1 X101.471 Y25.191 E13.86654
G1 X103.632 Y24.036 E13.90756
G1 X104.786 Y23.558 E13.92847
G1 X107.131 Y22.847 E13.96949
G1 X108.355 Y22.604 E13.99038
G1 X110.794 Y22.364 E14.03141
G1 X112.042 Y22.364 E14.05229
G1 X114.481 Y22.604 E14.09332
G1 X115.705 Y22.847 E14.11421
G1 X118.050 Y23.558 E14.15524
G1 X119.204 Y24.036 E14.17615
G1 X121.365 Y25.191 E14.21717
G1 X122.404 Y25.885 E14.23809
G1 X124.298 Y27.440 E14.27912
G1 X125.179 Y28.321 E14.29997
G1 X126.734 Y30.215 E14.34100
G1 X127.429 Y31.255 E14.36192
G1 X128.584 Y33.416 E14.40294
G1 X129.062 Y34.570 E14.42385
G1 X129.773 Y36.915 E14.46487
G1 X130.016 Y38.139 E14.48577
G1 X130.286 Y41.201 E14.53724
G1 X130.286 Y90.214 E15.35774
G1 X130.238 Y91.482 E15.37898
G1 X129.773 Y94.488 E15.42991
G1 X129.062 Y96.833 E15.47093
G1 X128.584 Y97.987 E15.49184
G1 X127.429 Y100.148 E15.53286
G1 X126.734 Y101.188 E15.55379
G1 X125.179 Y103.082 E15.59481
G1 X124.298 Y103.963 E15.61567
G1 X122.404 Y105.518 E15.65669
G1 X121.365 Y106.212 E15.67762
G1 X119.204 Y107.367 E15.71864
G1 X118.050 Y107.845 E15.73955
G1 X115.705 Y108.556 E15.78057
G1 X114.481 Y108.799 E15.80146
G1 X112.042 Y109.039 E15.84249
G1 X110.794 Y109.039 E15.86337
G1 X108.355 Y108.799 E15.90440
G1 X107.131 Y108.556 E15.92530
G1 X104.786 Y107.845 E15.96632
G1 X103.632 Y107.367 E15.98723
G1 X101.471 Y106.212 E16.02825
G1 X100.432 Y105.518 E16.04917
G1 X98.538 Y103.963 E16.09020
G1 X97.657 Y103.082 E16.11105
G1 X96.102 Y101.188 E16.15208
G1 X95.407 Y100.148 E16.17300
G1 X94.252 Y97.987 E16.21402
G1 X93.774 Y96.833 E16.23493
G1 X92.838 Y93.423 E16.29414
G1 X92.549 Y90.702 E16.33994
G1 X92.580 Y40.578 E17.17906
G1 X92.820 Y38.139 E17.22008
G1 X93.063 Y36.915 E17.24098
G1 X93.757 Y34.627 E17.28100
G1 F2400.000 E14.28100
G1 Z0.860 F9000.000
G92 E0
G1 X122.800 Y94.916 F9000.000
G1 Z0.260 F9000.000
G1 E3.00000 F2400.000
G1 X121.662 Y97.046 E3.04043 F1800.000
G1 X120.129 Y98.913 E3.08086
G1 X118.262 Y100.445 E3.12129
G1 X116.133 Y101.583 E3.16171
G1 X113.822 Y102.284 E3.20214
G1 X111.418 Y102.521 E3.24257
G1 X109.014 Y102.284 E3.28301
G1 X106.703 Y101.583 E3.32344
G1 X104.573 Y100.445 E3.36386
G1 X102.707 Y98.913 E3.40429
G1 X101.174 Y97.046 E3.44472
G1 X100.036 Y94.916 E3.48515
G1 X99.335 Y92.605 E3.52558
G1 X99.130 Y90.522 E3.56061
G1 X99.098 Y90.522 E3.56115
G1 X99.098 Y41.880 E4.37545
G1 X99.166 Y41.880 E4.37659
G1 X99.099 Y41.201 E4.38801
G1 X99.335 Y38.798 E4.42844
G1 X100.036 Y36.487 E4.46887
G1 X101.174 Y34.357 E4.50930
G1 X102.707 Y32.490 E4.54973
G1 X104.573 Y30.958 E4.59016
G1 X106.703 Y29.820 E4.63058
G1 X109.014 Y29.119 E4.67101
G1 X111.418 Y28.882 E4.71144
G1 X113.822 Y29.119 E4.75188
G1 X116.133 Y29.820 E4.79231
G1 X118.262 Y30.958 E4.83273
G1 X120.129 Y32.490 E4.87316
G1 X121.662 Y34.357 E4.91359
G1 X122.800 Y36.487 E4.95402
G1 X123.501 Y38.798 E4.99445
G1 X123.737 Y41.201 E5.03488
G1 X123.670 Y41.880 E5.04630
G1 X123.737 Y41.880 E5.04742
G1 X123.737 Y90.522 E5.86172
G1 X123.705 Y90.522 E5.86224
G1 X123.501 Y92.605 E5.89728
G1 X122.817 Y94.859 E5.93670
G1 X122.402 Y94.956 F9000.000
G1 X122.458 Y94.775 F9000.000
G1 X121.354 Y96.840 E5.97591 F1800.000
G1 X119.867 Y98.651 E6.01513
G1 X118.057 Y100.137 E6.05434
G1 X115.991 Y101.241 E6.09355
G1 X113.749 Y101.921 E6.13276
G1 X111.418 Y102.150 E6.17198
G1 X109.086 Y101.921 E6.21120
G1 X106.845 Y101.241 E6.25042
G1 X104.779 Y100.137 E6.28962
G1 X102.969 Y98.651 E6.32884
G1 X101.482 Y96.840 E6.36806
G1 X100.378 Y94.775 E6.40726
G1 X99.699 Y92.533 E6.44648
G1 X99.466 Y90.174 E6.48615
G1 X99.466 Y42.249 E7.28845
G1 X99.572 Y42.249 E7.29022
G1 X99.469 Y41.201 E7.30785
G1 X99.699 Y38.870 E7.34706
G1 X100.378 Y36.628 E7.38628
G1 X101.482 Y34.563 E7.42549
G1 X102.969 Y32.752 E7.46470
G1 X104.779 Y31.266 E7.50392
G1 X106.845 Y30.162 E7.54313
G1 X109.086 Y29.482 E7.58234
G1 X111.418 Y29.253 E7.62156
G1 X113.749 Y29.482 E7.66078
G1 X115.991 Y30.162 E7.69999
G1 X118.057 Y31.266 E7.73920
G1 X119.867 Y32.752 E7.77841
G1 X121.354 Y34.563 E7.81763
G1 X122.458 Y36.628 E7.85684
G1 X123.137 Y38.870 E7.89605
G1 X123.367 Y41.201 E7.93527
G1 X123.264 Y42.249 E7.95289
G1 X123.368 Y42.249 E7.95465
G1 X123.368 Y90.185 E8.75712
G1 X123.137 Y92.533 E8.79662
G1 X122.475 Y94.717 E8.83483
G1 X122.115 Y94.633 F9000.000
G1 X121.046 Y96.634 E8.87282 F1800.000
G1 X119.605 Y98.389 E8.91082
G1 X117.851 Y99.829 E8.94882
G1 X115.849 Y100.899 E8.98682
G1 X113.677 Y101.558 E9.02481
G1 X111.418 Y101.780 E9.06282
G1 X109.159 Y101.558 E9.10082
G1 X106.987 Y100.899 E9.13882
G1 X104.985 Y99.829 E9.17681
G1 X103.231 Y98.389 E9.21481
G1 X101.790 Y96.634 E9.25281
G1 X100.720 Y94.633 E9.29081
G1 X100.062 Y92.461 E9.32880
G1 X99.835 Y90.156 E9.36757
G1 X99.835 Y42.618 E10.16339
G1 X99.979 Y42.618 E10.16580
G1 X99.840 Y41.201 E10.18962
G1 X100.062 Y38.942 E10.22763
G1 X100.720 Y36.770 E10.26562
G1 X101.790 Y34.769 E10.30362
G1 X103.231 Y33.014 E10.34162
G1 X104.985 Y31.574 E10.37962
G1 X106.987 Y30.504 E10.41761
G1 X109.159 Y29.845 E10.45561
G1 X111.418 Y29.623 E10.49361
G1 X113.677 Y29.845 E10.53162
G1 X115.849 Y30.504 E10.56961
G1 X117.851 Y31.574 E10.60761
G1 X119.605 Y33.014 E10.64561
G1 X121.046 Y34.769 E10.68361
G1 X122.115 Y36.770 E10.72160
G1 X122.774 Y38.942 E10.75960
G1 X122.996 Y41.201 E10.79760
G1 X122.857 Y42.618 E10.82142
