; generated by Slic3r 1.2.1 on 2014-12-19 at 19:59:37

; external perimeters extrusion width = 0.40mm
; perimeters extrusion width = 0.48mm
; infill extrusion width = 0.48mm
; solid infill extrusion width = 0.48mm
; top infill extrusion width = 0.48mm

; external perimeters extrusion width = 0.50mm
; perimeters extrusion width = 0.72mm
; infill extrusion width = 0.72mm
; solid infill extrusion width = 0.72mm
; top infill extrusion width = 0.72mm

M190 S65 ; wait for bed temperature to be reached
M104 S200 T0 ; set temperature
M104 S190 T1 ; set temperature
G28 ; home all axes
M109 S200 T0 ; wait for temperature to be reached
M109 S190 T1 ; wait for temperature to be reached
G21 ; set units to millimeters
G90 ; use absolute coordinates
M82 ; use absolute distances for extrusion
G92 E0
T0
G92 E0
M106 S89
G1 E-3.00000 F2400.000
G92 E0
G1 Z0.600 F5400.000
G1 X72.359 Y37.231 F5400.000
G1 Z0.260 F5400.000
G1 E3.00000 F2400.000
G1 X73.449 Y35.731 E3.04838 F2700.000
G1 X75.089 Y34.150 E3.10783
G1 X76.717 Y33.357 E3.15509
G1 X78.481 Y32.784 E3.20348
G1 X80.500 Y32.464 E3.25683
G1 X104.500 Y32.464 E3.88314
G1 X106.519 Y32.784 E3.93649
G1 X108.283 Y33.357 E3.98488 F2700.000
G1 X110.293 Y34.428 E4.04432
G1 X111.551 Y35.731 E4.09159
G1 X112.641 Y37.231 E4.13997
G1 X113.808 Y40.051 E4.21961
G1 X113.955 Y40.978 E4.24410
G1 X114.036 Y42.000 E4.27086
G1 X114.036 Y131.000 E6.59339
G1 X113.955 Y132.022 E6.62014
G1 X113.808 Y132.949 E6.64464
G1 X112.641 Y135.769 E6.72427
G1 X111.398 Y137.471 E6.77928
G1 X103.579 Y147.397 E7.10901
G1 X102.818 Y148.210 E7.13807
G1 X101.575 Y149.329 E7.18171
G1 X100.470 Y150.132 E7.21736
G1 X99.022 Y150.968 E7.26101
G1 X97.773 Y151.524 E7.29667
G1 X96.183 Y152.041 E7.34032
G1 X94.846 Y152.325 E7.37597
G1 X93.183 Y152.500 E7.41961
G1 X91.817 Y152.500 E7.45527
G1 X90.154 Y152.325 E7.49891
G1 X88.817 Y152.041 E7.53457
G1 X87.227 Y151.524 E7.57821
G1 X85.978 Y150.968 E7.61387
G1 X84.530 Y150.132 E7.65752
G1 X83.425 Y149.329 E7.69317
G1 X82.182 Y148.210 E7.73681
G1 X81.421 Y147.397 E7.76587
G1 X73.449 Y137.269 E8.10222
G1 X72.359 Y135.769 E8.15061
G1 X71.192 Y132.949 E8.23024
G1 X71.045 Y132.022 E8.25474
G1 X70.964 Y131.000 E8.28149
G1 X70.964 Y42.000 E10.60402
G1 X71.045 Y40.978 E10.63078
G1 X71.192 Y40.051 E10.65528
G1 X72.336 Y37.287 E10.73334
G1 E7.73334 F2400.000
G92 E0
G1 Z0.860 F5400.000
G1 X80.327 Y43.092 F5400.000
G1 Z0.260 F5400.000
G1 E3.00000 F2400.000
G1 X81.220 Y41.862 E3.03967 F2700.000
G1 X83.368 Y41.164 E3.09860
G1 X101.632 Y41.164 E3.57523
G1 X103.389 Y41.735 E3.62344
G1 X103.780 Y41.862 E3.63415 F2700.000
G1 X105.189 Y43.801 E3.69671
G1 X105.189 Y44.164 E3.70618
G1 X105.336 Y44.164 E3.71001
G1 X105.336 Y128.836 E5.91958
G1 X105.189 Y128.836 E5.92341
G1 X105.189 Y129.199 E5.93288
G1 X103.780 Y131.138 E5.99544
G1 X101.632 Y131.836 E6.05436
G1 X83.368 Y131.836 E6.53100
G1 X81.220 Y131.138 E6.58992
G1 X79.811 Y129.199 E6.65247
G1 X79.811 Y128.836 E6.66195
G1 X79.664 Y128.836 E6.66578
G1 X79.664 Y44.164 E8.87535
G1 X79.811 Y44.164 E8.87918
G1 X79.811 Y43.801 E8.88865
G1 X80.291 Y43.141 E8.90997
G1 X80.725 Y43.455 F5400.000
G1 X81.551 Y42.318 E8.94666 F2700.000
G1 X83.452 Y41.700 E8.99883
G1 X101.548 Y41.700 E9.47104 F2700.000
G1 X103.449 Y42.318 E9.52321
G1 X104.653 Y43.975 E9.57668
G1 X104.653 Y44.700 E9.59559
G1 X104.800 Y44.700 E9.59942
G1 X104.800 Y128.300 E11.78103
G1 X104.653 Y128.300 E11.78486
G1 X104.653 Y129.025 E11.80377
G1 X103.449 Y130.682 E11.85724
G1 X101.548 Y131.300 E11.90941
G1 X83.452 Y131.300 E12.38162
G1 X81.551 Y130.682 E12.43379
G1 X80.347 Y129.025 E12.48726
G1 X80.347 Y128.300 E12.50617
G1 X80.200 Y128.300 E12.51000
G1 X80.200 Y44.700 E14.69161
G1 X80.347 Y44.700 E14.69544
G1 X80.347 Y43.975 E14.71435
G1 X80.689 Y43.504 E14.72956
G1 X85.922 Y49.127 F5400.000
G1 X86.168 Y48.911 E14.73811 F2700.000
G1 X86.436 Y48.724 E14.74662
G1 X86.718 Y48.565 E14.75508
G1 X87.015 Y48.430 E14.76360
G1 X87.327 Y48.317 E14.77224
G1 X87.650 Y48.228 E14.78101
G1 X88.321 Y48.110 E14.79877
G1 X88.666 Y48.081 E14.80782
G1 X89.265 Y48.076 E14.82345
G1 X89.562 Y48.093 E14.83121 F2700.000
G1 X90.084 Y48.159 E14.84494
G1 X90.974 Y48.335 E14.86862
G1 X90.974 Y48.403 E14.87038
G1 X91.243 Y48.529 E14.87814
G1 X91.638 Y48.784 E14.89039
G1 X91.821 Y48.948 E14.89681
G1 X91.944 Y49.094 E14.90180
G1 X92.355 Y49.094 E14.91252
G1 X92.221 Y50.251 E14.94290
G1 X92.110 Y50.532 E14.95081
G1 X91.926 Y50.771 E14.95866
G1 X91.712 Y50.936 E14.96573
G1 X91.502 Y51.041 E14.97185
G1 X91.297 Y51.106 E14.97746
G1 X91.094 Y51.142 E14.98284
G1 X90.721 Y51.142 E14.99256
G1 X90.400 Y51.062 E15.00120
G1 X90.048 Y50.909 E15.01121
G1 X89.777 Y50.816 E15.01868
G1 X89.391 Y50.735 E15.02900
G1 X89.032 Y50.707 E15.03838
G1 X88.583 Y50.717 E15.05009
G1 X88.418 Y50.750 E15.05449
G1 X88.308 Y50.792 E15.05757
G1 X88.160 Y50.884 E15.06212
G1 X88.172 Y51.125 E15.06841
G1 X88.243 Y51.532 E15.07921
G1 X88.399 Y52.043 E15.09313
G1 X88.510 Y52.323 E15.10100
G1 X88.802 Y52.931 E15.11861
G1 X88.982 Y53.253 E15.12823
G1 X89.414 Y53.924 E15.14907
G1 X89.666 Y54.273 E15.16029
G1 X90.237 Y54.972 E15.18385
G1 X90.907 Y55.673 E15.20915
G1 X91.315 Y56.043 E15.22352
G1 X91.897 Y56.465 E15.24228
G1 X92.504 Y56.768 E15.25998
G1 X92.939 Y56.913 E15.27195
G1 X93.420 Y57.015 E15.28477
G1 X93.973 Y57.075 E15.29929
G1 X95.135 Y57.120 E15.32965
G1 X95.135 Y56.691 E15.34085
G1 X96.565 Y57.603 E15.38510
G1 X96.743 Y57.746 E15.39105
G1 X96.904 Y57.912 E15.39709
G1 X97.044 Y58.102 E15.40326
G1 X97.150 Y58.302 E15.40916
G1 X97.275 Y58.686 E15.41969
G1 X97.306 Y58.882 E15.42487
G1 X97.323 Y59.225 E15.43384
G1 X97.110 Y59.742 E15.44843
G1 X96.648 Y60.009 E15.46235
G1 X96.288 Y60.083 E15.47195
G1 X95.954 Y60.100 E15.48068
G1 X92.653 Y59.978 E15.56686
G1 X92.556 Y60.289 E15.57537
G1 X92.801 Y60.448 E15.58299
G1 X93.157 Y60.728 E15.59481
G1 X93.606 Y61.130 E15.61054
G1 X94.075 Y61.594 E15.62776
G1 X94.777 Y62.382 E15.65530
G1 X95.456 Y63.280 E15.68467
G1 X95.882 Y63.937 E15.70510
G1 X96.079 Y64.278 E15.71540
G1 X96.438 Y64.982 E15.73601
G1 X96.742 Y65.721 E15.75686
G1 X97.039 Y66.701 E15.78359
G1 X97.135 Y67.289 E15.79913
G1 X97.174 Y67.693 E15.80972
G1 X97.176 Y68.464 E15.82986
G1 X97.088 Y69.203 E15.84927
G1 X97.010 Y69.579 E15.85930
G1 X96.905 Y69.959 E15.86959
G1 X96.768 Y70.330 E15.87991
G1 X96.601 Y70.685 E15.89015
G1 X96.400 Y71.027 E15.90050
G1 X96.160 Y71.353 E15.91105
G1 X95.883 Y71.652 E15.92169
G1 X95.572 Y71.917 E15.93235
G1 X95.221 Y72.155 E15.94341
G1 X94.819 Y72.354 E15.95512
G1 X94.379 Y72.496 E15.96720
G1 X93.915 Y72.577 E15.97948
G1 X93.430 Y72.603 E15.99216
G1 X92.863 Y72.571 E16.00697
G1 X92.303 Y72.475 E16.02180
G1 X91.754 Y72.315 E16.03672
G1 X91.225 Y72.097 E16.05167
G1 X90.721 Y71.835 E16.06647
G1 X90.240 Y71.540 E16.08122
G1 X89.775 Y71.209 E16.09611
G1 X89.328 Y70.843 E16.11119
G1 X88.901 Y70.448 E16.12636
G1 X88.494 Y70.028 E16.14162
G1 X88.107 Y69.581 E16.15705
G1 X87.740 Y69.111 E16.17261
G1 X87.081 Y68.141 E16.20322
G1 X86.787 Y67.646 E16.21824
G1 X86.270 Y66.640 E16.24776
G1 X86.052 Y66.136 E16.26209
G1 X85.863 Y65.633 E16.27611
G1 X85.703 Y65.131 E16.28985
G1 X85.574 Y64.638 E16.30316
G1 X85.480 Y64.160 E16.31587
G1 X85.423 Y63.696 E16.32807
G1 X85.403 Y63.255 E16.33960
G1 X85.436 Y62.656 E16.35525
G1 X85.479 Y62.377 E16.36261
G1 X85.624 Y61.865 E16.37650
G1 X85.724 Y61.631 E16.38314
G1 X85.847 Y61.409 E16.38977
G1 X85.993 Y61.205 E16.39630
G1 X86.157 Y61.023 E16.40268
G1 X86.339 Y60.864 E16.40901
G1 X86.540 Y60.726 E16.41537
G1 X86.754 Y60.617 E16.42163
G1 X87.193 Y60.478 E16.43364
G1 X87.672 Y60.432 E16.44621
G1 X88.077 Y60.477 E16.45684
G1 X88.487 Y60.610 E16.46808
G1 X88.868 Y60.812 E16.47935
G1 X89.220 Y61.068 E16.49069
G1 X89.544 Y61.358 E16.50204
G1 X89.851 Y61.675 E16.51356
G1 X90.147 Y62.025 E16.52552
G1 X90.432 Y62.405 E16.53793
G1 X90.706 Y62.808 E16.55063
G1 X91.222 Y63.671 E16.57686
G1 X91.466 Y64.132 E16.59048
G1 X91.915 Y65.071 E16.61764
G1 X92.304 Y66.014 E16.64427
G1 X92.628 Y66.936 E16.66976
G1 X92.880 Y67.819 E16.69372
G1 X92.975 Y68.240 E16.70499
G1 X93.089 Y69.011 E16.72534
G1 X93.116 Y69.622 E16.74129
G1 X93.440 Y69.521 E16.75015
G1 X93.565 Y69.457 E16.75382
G1 X93.676 Y69.361 E16.75766
G1 X93.778 Y69.214 E16.76233
G1 X93.879 Y68.973 E16.76914
G1 X93.920 Y68.818 E16.77332
G1 X93.972 Y68.411 E16.78402
G1 X93.979 Y68.160 E16.79058
G1 X93.966 Y67.759 E16.80107
G1 X93.925 Y67.355 E16.81165
G1 X93.858 Y66.947 E16.82243
G1 X93.762 Y66.532 E16.83356
G1 X93.499 Y65.689 E16.85660
G1 X93.160 Y64.862 E16.87993
G1 X92.749 Y64.055 E16.90355
G1 X92.275 Y63.281 E16.92726
G1 X91.754 Y62.551 E16.95065
G1 X90.962 Y61.609 E16.98278
G1 X90.827 Y61.360 E16.99016
G1 X90.755 Y61.012 E16.99944
G1 X90.831 Y60.603 E17.01028
G1 X91.357 Y59.934 E17.03250
G1 X89.185 Y59.875 E17.08920
G1 X86.925 Y59.845 E17.14818
G1 X86.393 Y59.799 E17.16212
G1 X86.061 Y59.721 E17.17101
G1 X85.890 Y59.654 E17.17582
G1 X85.712 Y59.554 E17.18114
G1 X85.537 Y59.411 E17.18705
G1 X85.385 Y59.222 E17.19336
G1 X85.280 Y59.006 E17.19964
G1 X85.225 Y58.788 E17.20550
G1 X85.206 Y58.534 E17.21215
G1 X85.269 Y58.197 E17.22108
G1 X85.448 Y57.893 E17.23030
G1 X85.665 Y57.682 E17.23820
G1 X85.886 Y57.537 E17.24509
G1 X86.105 Y57.429 E17.25147
G1 X86.571 Y57.267 E17.26433
G1 X87.096 Y57.148 E17.27839
G1 X87.982 Y57.022 E17.30174
G1 X87.593 Y56.542 E17.31786
G1 X87.119 Y55.909 E17.33851
G1 X85.998 Y54.278 E17.39015
G1 X86.118 Y54.278 E17.39329
G1 X85.743 Y53.464 E17.41668
G1 X85.475 Y52.752 E17.43653
G1 X85.364 Y52.394 E17.44631
G1 X85.203 Y51.671 E17.46563
G1 X85.161 Y51.315 E17.47499
G1 X85.147 Y50.955 E17.48439
G1 X85.168 Y50.614 E17.49330
G1 X85.235 Y50.273 E17.50239
G1 X85.351 Y49.944 E17.51148
G1 X85.510 Y49.640 E17.52044
G1 X85.703 Y49.369 E17.52911
G1 X85.882 Y49.171 E17.53607
G1 X86.279 Y49.531 F5400.000
G1 X86.499 Y49.333 E17.54379 F1890.000
G1 X86.721 Y49.178 E17.55086
G1 X86.961 Y49.043 E17.55805
G1 X87.489 Y48.828 E17.57292
G1 X88.075 Y48.686 E17.58864
G1 X88.381 Y48.642 E17.59673
G1 X88.935 Y48.609 E17.61119
G1 X89.272 Y48.612 E17.62000 F1890.000
G1 X89.759 Y48.652 E17.63274
G1 X90.439 Y48.775 E17.65078
G1 X90.819 Y48.921 E17.66140
G1 X91.156 Y49.098 E17.67133
G1 X91.436 Y49.322 E17.68069
G1 X91.552 Y49.459 E17.68538
G1 X91.649 Y49.630 E17.69050
G1 X91.754 Y49.630 E17.69324
G1 X91.697 Y50.119 E17.70610
G1 X91.640 Y50.265 E17.71019
G1 X91.544 Y50.389 E17.71428
G1 X91.426 Y50.481 E17.71819
G1 X91.170 Y50.585 E17.72540
G1 X91.034 Y50.608 E17.72899
G1 X90.789 Y50.609 E17.73539
G1 X90.585 Y50.558 E17.74086
G1 X90.148 Y50.373 E17.75327
G1 X89.781 Y50.265 E17.76325
G1 X89.271 Y50.184 E17.77671
G1 X88.811 Y50.167 E17.78872
G1 X88.516 Y50.185 E17.79645
G1 X88.270 Y50.233 E17.80298
G1 X88.069 Y50.310 E17.80860
G1 X87.905 Y50.412 E17.81363
G1 X87.780 Y50.531 E17.81814
G1 X87.696 Y50.658 E17.82212
G1 X87.646 Y50.801 E17.82605
G1 X87.628 Y50.976 E17.83065
G1 X87.638 Y51.174 E17.83582
G1 X87.722 Y51.658 E17.84865
G1 X87.895 Y52.227 E17.86417
G1 X88.161 Y52.851 E17.88188
G1 X88.329 Y53.183 E17.89159
G1 X88.735 Y53.873 E17.91248
G1 X88.975 Y54.230 E17.92370
G1 X89.525 Y54.961 E17.94758
G1 X89.836 Y55.327 E17.96011
G1 X90.533 Y56.057 E17.98643
G1 X91.189 Y56.627 E18.00912
G1 X91.619 Y56.922 E18.02273
G1 X91.841 Y57.049 E18.02941
G1 X92.305 Y57.266 E18.04277
G1 X92.547 Y57.355 E18.04950
G1 X93.062 Y57.494 E18.06343
G1 X93.337 Y57.544 E18.07071
G1 X93.936 Y57.609 E18.08643
G1 X95.129 Y57.657 E18.11761
G1 X95.671 Y57.759 E18.13199
G1 X95.671 Y57.668 E18.13438
G1 X96.253 Y58.038 E18.15237
G1 X96.494 Y58.258 E18.16089
G1 X96.589 Y58.387 E18.16507
G1 X96.713 Y58.660 E18.17290
G1 X96.772 Y58.938 E18.18031
G1 X96.782 Y59.132 E18.18538
G1 X96.685 Y59.369 E18.19208
G1 X96.455 Y59.502 E18.19899
G1 X96.220 Y59.550 E18.20526
G1 X95.951 Y59.564 E18.21227
G1 X91.366 Y59.398 E18.33202
G1 X89.197 Y59.339 E18.38862
G1 X86.942 Y59.309 E18.44747
G1 X86.619 Y59.289 E18.45593
G1 X86.350 Y59.246 E18.46305
G1 X86.120 Y59.169 E18.46938
G1 X85.920 Y59.032 E18.47569
G1 X85.841 Y58.934 E18.47898
G1 X85.786 Y58.820 E18.48227
G1 X85.755 Y58.701 E18.48548
G1 X85.745 Y58.564 E18.48908
G1 X85.778 Y58.388 E18.49374
G1 X85.873 Y58.227 E18.49862
G1 X86.002 Y58.102 E18.50332
G1 X86.321 Y57.920 E18.51290
G1 X86.715 Y57.783 E18.52378
G1 X87.463 Y57.630 E18.54370
G1 X88.064 Y57.560 E18.55948
G1 X89.167 Y57.495 E18.58832
G1 X88.487 Y56.778 E18.61411
G1 X88.013 Y56.210 E18.63340
G1 X87.556 Y55.600 E18.65331
G1 X87.016 Y54.814 E18.67819
G1 X87.030 Y54.814 E18.67856
G1 X86.550 Y53.941 E18.70456
G1 X86.387 Y53.599 E18.71444
G1 X86.103 Y52.919 E18.73367
G1 X85.880 Y52.248 E18.75213
G1 X85.794 Y51.916 E18.76109
G1 X85.696 Y51.273 E18.77805
G1 X85.683 Y50.961 E18.78620
G1 X85.700 Y50.683 E18.79346
G1 X85.753 Y50.414 E18.80062
G1 X85.843 Y50.159 E18.80769
G1 X85.968 Y49.921 E18.81469
G1 X86.121 Y49.705 E18.82161
G1 X86.239 Y49.575 E18.82617
G1 X89.137 Y48.880 F5400.000
G1 E15.82617 F2400.000
G92 E0
G1 Z0.860 F5400.000
G1 X87.471 Y60.978 F5400.000
G1 Z0.260 F5400.000
G1 E3.00000 F2400.000
G1 X87.656 Y60.970 E3.00484 F1890.000
G1 X87.964 Y61.004 E3.01293
G1 X88.277 Y61.105 E3.02153
G1 X88.584 Y61.268 E3.03058
G1 X88.883 Y61.486 E3.04023
G1 X89.172 Y61.744 E3.05037
G1 X89.453 Y62.035 E3.06092
G1 X89.728 Y62.359 E3.07201
G1 X90.257 Y63.100 E3.09576
G1 X90.753 Y63.930 E3.12098
G1 X91.214 Y64.832 E3.14743
G1 X91.622 Y65.747 E3.17356
G1 X91.804 Y66.205 E3.18643
G1 X92.117 Y67.099 E3.21115
G1 X92.360 Y67.947 E3.23417
G1 X92.450 Y68.346 E3.24484
G1 X92.555 Y69.054 E3.26353
G1 X92.569 Y69.371 E3.27180
G1 X92.553 Y69.558 E3.27670
G1 X92.504 Y69.742 E3.28168
G1 X92.357 Y70.041 E3.29035
G1 X92.744 Y70.105 E3.30059
G1 X93.201 Y70.116 E3.31251
G1 X93.349 Y70.097 E3.31639
G1 X93.627 Y70.024 E3.32391
G1 X93.866 Y69.902 E3.33092
G1 X94.074 Y69.721 E3.33811
G1 X94.166 Y69.606 E3.34193
G1 X94.325 Y69.313 E3.35063
G1 X94.444 Y68.931 E3.36107
G1 X94.507 Y68.444 E3.37390
G1 X94.500 Y67.723 E3.39271
G1 X94.457 Y67.285 E3.40421
G1 X94.384 Y66.843 E3.41588
G1 X94.152 Y65.950 E3.43995
G1 X93.835 Y65.070 E3.46437
G1 X93.440 Y64.212 E3.48904
G1 X92.977 Y63.385 E3.51376
G1 X92.453 Y62.596 E3.53847
G1 X91.896 Y61.871 E3.56234
G1 X91.411 Y61.313 E3.58164
G1 X91.336 Y61.173 E3.58576
G1 X91.300 Y61.006 E3.59024
G1 X91.333 Y60.831 E3.59488
G1 X91.448 Y60.684 E3.59974
G1 X91.599 Y60.615 E3.60409
G1 X91.691 Y60.605 E3.60650
G1 X91.942 Y60.629 E3.61307 F1890.000
G1 X92.268 Y60.752 E3.62217
G1 X92.496 Y60.888 E3.62909
G1 X92.812 Y61.138 E3.63959
G1 X93.239 Y61.520 E3.65455
G1 X93.689 Y61.965 E3.67107
G1 X94.139 Y62.459 E3.68852
G1 X94.585 Y62.999 E3.70681
G1 X95.223 Y63.894 E3.73548
G1 X95.611 Y64.538 E3.75510
G1 X95.787 Y64.869 E3.76489
G1 X96.103 Y65.552 E3.78450
G1 X96.238 Y65.902 E3.79431
G1 X96.516 Y66.817 E3.81926
G1 X96.603 Y67.358 E3.83355
G1 X96.639 Y67.727 E3.84325
G1 X96.651 Y68.097 E3.85290
G1 X96.611 Y68.769 E3.87048
G1 X96.489 Y69.454 E3.88861
G1 X96.395 Y69.795 E3.89786
G1 X96.274 Y70.123 E3.90698
G1 X96.126 Y70.435 E3.91598
G1 X95.952 Y70.732 E3.92498
G1 X95.747 Y71.011 E3.93400
G1 X95.512 Y71.264 E3.94303
G1 X95.247 Y71.490 E3.95211
G1 X94.951 Y71.691 E3.96145
G1 X94.617 Y71.857 E3.97116
G1 X94.250 Y71.975 E3.98123
G1 X93.854 Y72.044 E3.99172
G1 X93.431 Y72.067 E4.00278
G1 X92.924 Y72.038 E4.01603
G1 X92.424 Y71.952 E4.02927
G1 X91.932 Y71.809 E4.04265
G1 X91.451 Y71.611 E4.05623
G1 X90.985 Y71.369 E4.06992
G1 X90.535 Y71.093 E4.08368
G1 X90.100 Y70.783 E4.09763
G1 X89.679 Y70.439 E4.11182
G1 X89.275 Y70.065 E4.12618
G1 X88.889 Y69.666 E4.14067
G1 X88.521 Y69.241 E4.15534
G1 X88.170 Y68.791 E4.17022
G1 X87.536 Y67.858 E4.19968
G1 X87.253 Y67.382 E4.21413
G1 X86.757 Y66.416 E4.24245
G1 X86.549 Y65.935 E4.25613
G1 X86.370 Y65.457 E4.26946
G1 X86.218 Y64.982 E4.28248
G1 X86.097 Y64.518 E4.29498
G1 X86.010 Y64.075 E4.30678
G1 X85.957 Y63.651 E4.31792
G1 X85.939 Y63.250 E4.32840
G1 X85.968 Y62.720 E4.34225
G1 X86.005 Y62.480 E4.34857
G1 X86.126 Y62.055 E4.36012
G1 X86.301 Y61.695 E4.37056
G1 X86.533 Y61.405 E4.38025
G1 X86.814 Y61.188 E4.38953
G1 X87.133 Y61.047 E4.39861
G1 X87.411 Y60.987 E4.40604
G1 X91.824 Y60.391 F5400.000
