; generated by Slic3r 1.2.1 on 2014-12-19 at 20:00:07

; external perimeters extrusion width = 0.40mm
; perimeters extrusion width = 0.48mm
; infill extrusion width = 0.48mm
; solid infill extrusion width = 0.48mm
; top infill extrusion width = 0.48mm

; external perimeters extrusion width = 0.50mm
; perimeters extrusion width = 0.72mm
; infill extrusion width = 0.72mm
; solid infill extrusion width = 0.72mm
; top infill extrusion width = 0.72mm

M190 S65 ; wait for bed temperature to be reached
M104 S200 T0 ; set temperature
M104 S190 T1 ; set temperature
G28 ; home all axes
M109 S200 T0 ; wait for temperature to be reached
M109 S190 T1 ; wait for temperature to be reached
G21 ; set units to millimeters
G90 ; use absolute coordinates
M82 ; use absolute distances for extrusion
G92 E0
T0
G92 E0
M106 S89
G1 E-3.00000 F2400.000
G92 E0
G1 Z0.600 F5400.000
G1 X69.859 Y29.731 F5400.000
G1 Z0.260 F5400.000
G1 E3.00000 F2400.000
G1 X70.949 Y28.231 E3.04838 F2700.000
G1 X72.589 Y26.650 E3.10783
G1 X74.217 Y25.857 E3.15509
G1 X75.981 Y25.284 E3.20348
G1 X78.000 Y24.964 E3.25683
G1 X107.000 Y24.964 E4.01361
G1 X109.019 Y25.284 E4.06697
G1 X110.783 Y25.857 E4.11535 F2700.000
G1 X112.793 Y26.928 E4.17480
G1 X114.051 Y28.231 E4.22206
G1 X115.141 Y29.731 E4.27045
G1 X116.308 Y32.551 E4.35009
G1 X116.455 Y33.478 E4.37458
G1 X116.536 Y34.500 E4.40134
G1 X116.536 Y138.500 E7.11531
G1 X116.455 Y139.522 E7.14206
G1 X116.308 Y140.449 E7.16656
G1 X115.141 Y143.269 E7.24619
G1 X114.051 Y144.769 E7.29458
G1 X113.294 Y145.637 E7.32463
G1 X102.976 Y155.563 E7.69826
G1 X101.575 Y156.829 E7.74753
G1 X100.470 Y157.632 E7.78318
G1 X99.022 Y158.468 E7.82682
G1 X97.773 Y159.024 E7.86248
G1 X96.183 Y159.541 E7.90613
G1 X94.846 Y159.825 E7.94178
G1 X93.183 Y160.000 E7.98543
G1 X91.817 Y160.000 E8.02108
G1 X90.154 Y159.825 E8.06472
G1 X88.817 Y159.541 E8.10038
G1 X87.227 Y159.024 E8.14402
G1 X85.978 Y158.468 E8.17968
G1 X84.530 Y157.632 E8.22333
G1 X83.425 Y156.829 E8.25898
G1 X82.024 Y155.563 E8.30825
G1 X71.706 Y145.637 E8.68188
G1 X70.949 Y144.769 E8.71193
G1 X69.859 Y143.269 E8.76032
G1 X68.692 Y140.449 E8.83995
G1 X68.545 Y139.522 E8.86445
G1 X68.464 Y138.500 E8.89120
G1 X68.464 Y34.500 E11.60517
G1 X68.545 Y33.478 E11.63193
G1 X68.692 Y32.551 E11.65642
G1 X69.836 Y29.787 E11.73449
G1 E8.73449 F2400.000
G92 E0
G1 Z0.860 F5400.000
G1 X77.827 Y35.592 F5400.000
G1 Z0.260 F5400.000
G1 E3.00000 F2400.000
G1 X78.720 Y34.362 E3.03967 F2700.000
G1 X80.868 Y33.664 E3.09860
G1 X104.132 Y33.664 E3.70571
G1 X105.889 Y34.235 E3.75392
G1 X106.280 Y34.362 E3.76463 F2700.000
G1 X107.689 Y36.301 E3.82719
G1 X107.689 Y36.664 E3.83666
G1 X107.836 Y36.664 E3.84049
G1 X107.836 Y136.336 E6.44150
G1 X107.689 Y136.336 E6.44533
G1 X107.689 Y136.699 E6.45480
G1 X106.280 Y138.638 E6.51736
G1 X104.132 Y139.336 E6.57628
G1 X80.868 Y139.336 E7.18339
G1 X78.720 Y138.638 E7.24232
G1 X77.311 Y136.699 E7.30487
G1 X77.311 Y136.336 E7.31434
G1 X77.164 Y136.336 E7.31817
G1 X77.164 Y36.664 E9.91918
G1 X77.311 Y36.664 E9.92301
G1 X77.311 Y36.301 E9.93249
G1 X77.791 Y35.641 E9.95380
G1 X78.225 Y35.955 F5400.000
G1 X79.051 Y34.818 E9.99050 F2700.000
G1 X80.952 Y34.200 E10.04267
G1 X104.048 Y34.200 E10.64535 F2700.000
G1 X105.949 Y34.818 E10.69752
G1 X107.153 Y36.475 E10.75099
G1 X107.153 Y37.200 E10.76990
G1 X107.300 Y37.200 E10.77373
G1 X107.300 Y135.800 E13.34678
G1 X107.153 Y135.800 E13.35061
G1 X107.153 Y136.525 E13.36952
G1 X105.949 Y138.182 E13.42299
G1 X104.048 Y138.800 E13.47516
G1 X80.952 Y138.800 E14.07785
G1 X79.051 Y138.182 E14.13002
G1 X77.847 Y136.525 E14.18349
G1 X77.847 Y135.800 E14.20240
G1 X77.700 Y135.800 E14.20623
G1 X77.700 Y37.200 E16.77928
G1 X77.847 Y37.200 E16.78311
G1 X77.847 Y36.475 E16.80202
G1 X78.189 Y36.004 E16.81723
G1 X86.949 Y40.314 F5400.000
G1 X87.116 Y40.029 E16.82584 F2700.000
G1 X87.377 Y39.780 E16.83526
G1 X87.692 Y39.620 E16.84446
G1 X87.829 Y39.587 E16.84814
G1 X87.956 Y39.268 E16.85711
G1 X88.132 Y39.009 E16.86528
G1 X88.357 Y38.800 E16.87329
G1 X88.620 Y38.647 E16.88124
G1 X88.907 Y38.558 E16.88908
G1 X89.187 Y38.531 E16.89642
G1 X89.460 Y38.550 E16.90356
G1 X89.965 Y38.634 E16.91691 F2700.000
G1 X90.350 Y38.753 E16.92743
G1 X90.736 Y38.910 E16.93830
G1 X91.507 Y39.313 E16.96102
G1 X92.094 Y39.686 E16.97917
G1 X92.984 Y39.678 E17.00239
G1 X93.499 Y39.630 E17.01587
G1 X94.100 Y39.545 E17.03172
G1 X94.993 Y39.386 E17.05538
G1 X95.882 Y39.202 E17.07908
G1 X96.673 Y39.018 E17.10026
G1 X97.452 Y38.810 E17.12130
G1 X97.875 Y38.754 E17.13243
G1 X98.318 Y38.761 E17.14402
G1 X98.576 Y38.804 E17.15083
G1 X98.829 Y38.881 E17.15774
G1 X99.082 Y39.002 E17.16505
G1 X99.338 Y39.188 E17.17332
G1 X99.558 Y39.460 E17.18244
G1 X99.694 Y39.786 E17.19167
G1 X99.741 Y40.177 E17.20194
G1 X99.649 Y40.548 E17.21192
G1 X99.450 Y40.828 E17.22088
G1 X99.247 Y41.005 E17.22790
G1 X99.050 Y41.134 E17.23403
G1 X98.427 Y41.431 E17.25204
G1 X97.386 Y41.787 E17.28076
G1 X96.153 Y42.116 E17.31407
G1 X95.070 Y42.341 E17.34295
G1 X96.082 Y43.541 E17.38390
G1 X96.858 Y44.604 E17.41826
G1 X97.211 Y45.146 E17.43514
G1 X97.536 Y45.694 E17.45175
G1 X97.830 Y46.241 E17.46797
G1 X98.091 Y46.790 E17.48382
G1 X98.321 Y47.342 E17.49944
G1 X98.513 Y47.897 E17.51477
G1 X98.654 Y48.447 E17.52957
G1 X98.740 Y48.988 E17.54387
G1 X98.770 Y49.514 E17.55762
G1 X98.758 Y49.769 E17.56428
G1 X98.722 Y50.016 E17.57078
G1 X98.658 Y50.258 E17.57733
G1 X98.566 Y50.487 E17.58377
G1 X98.452 Y50.693 E17.58992
G1 X98.320 Y50.881 E17.59591
G1 X98.167 Y51.053 E17.60191
G1 X97.996 Y51.207 E17.60791
G1 X97.813 Y51.339 E17.61382
G1 X97.418 Y51.540 E17.62539
G1 X97.209 Y51.611 E17.63113
G1 X96.791 Y51.698 E17.64228
G1 X96.351 Y51.726 E17.65378
G1 X95.967 Y51.703 E17.66383
G1 X95.567 Y51.632 E17.67443
G1 X95.167 Y51.518 E17.68529
G1 X94.768 Y51.366 E17.69643
G1 X94.375 Y51.184 E17.70773
G1 X93.986 Y50.977 E17.71922
G1 X93.207 Y50.486 E17.74326
G1 X92.431 Y49.900 E17.76863
G1 X92.044 Y49.575 E17.78181
G1 X91.280 Y48.867 E17.80900
G1 X90.910 Y48.496 E17.82269
G1 X90.194 Y47.720 E17.85023
G1 X89.517 Y46.906 E17.87784
G1 X89.196 Y46.489 E17.89160
G1 X88.590 Y45.636 E17.91889
G1 X88.313 Y45.210 E17.93215
G1 X87.817 Y44.364 E17.95773
G1 X87.599 Y43.945 E17.97006
G1 X87.232 Y43.121 E17.99362
G1 X87.082 Y42.714 E18.00494
G1 X86.960 Y42.310 E18.01593
G1 X86.869 Y41.916 E18.02650
G1 X86.812 Y41.530 E18.03668
G1 X86.792 Y41.154 E18.04650
G1 X86.806 Y40.872 E18.05386
G1 X86.853 Y40.595 E18.06121
G1 X86.929 Y40.370 E18.06739
G1 X87.437 Y40.542 F5400.000
G1 X87.540 Y40.365 E18.07273 F1890.000
G1 X87.690 Y40.222 E18.07816
G1 X87.879 Y40.126 E18.08369
G1 X88.087 Y40.075 E18.08926
G1 X88.286 Y40.062 E18.09449
G1 X88.358 Y39.705 E18.10399
G1 X88.432 Y39.520 E18.10917
G1 X88.541 Y39.360 E18.11423
G1 X88.678 Y39.233 E18.11912
G1 X88.837 Y39.140 E18.12391
G1 X89.093 Y39.078 E18.13078
G1 X89.510 Y39.091 E18.14167 F1890.000
G1 X89.834 Y39.154 E18.15030
G1 X90.170 Y39.257 E18.15947
G1 X90.517 Y39.399 E18.16924
G1 X90.872 Y39.573 E18.17957
G1 X91.237 Y39.775 E18.19045
G1 X91.931 Y40.221 E18.21197
G1 X93.015 Y40.212 E18.24028
G1 X93.563 Y40.162 E18.25462
G1 X94.186 Y40.074 E18.27105
G1 X95.554 Y39.820 E18.30736
G1 X96.800 Y39.538 E18.34070
G1 X97.573 Y39.332 E18.36156
G1 X97.905 Y39.289 E18.37032
G1 X98.261 Y39.295 E18.37959
G1 X98.453 Y39.327 E18.38468
G1 X98.635 Y39.382 E18.38964
G1 X98.807 Y39.464 E18.39461
G1 X98.966 Y39.580 E18.39976
G1 X99.093 Y39.737 E18.40502
G1 X99.171 Y39.923 E18.41030
G1 X99.197 Y40.144 E18.41609
G1 X99.154 Y40.320 E18.42084
G1 X99.050 Y40.466 E18.42552
G1 X98.923 Y40.577 E18.42991
G1 X98.776 Y40.673 E18.43447
G1 X98.430 Y40.848 E18.44460
G1 X98.004 Y41.019 E18.45659
G1 X97.505 Y41.190 E18.47034
G1 X96.339 Y41.519 E18.50196
G1 X95.089 Y41.792 E18.53535
G1 X93.963 Y41.972 E18.56512
G1 X94.819 Y42.869 E18.59747
G1 X95.248 Y43.364 E18.61456
G1 X96.050 Y44.385 E18.64844
G1 X96.756 Y45.429 E18.68134
G1 X97.069 Y45.957 E18.69736
G1 X97.352 Y46.483 E18.71294
G1 X97.602 Y47.008 E18.72812
G1 X97.821 Y47.533 E18.74295
G1 X97.999 Y48.052 E18.75727
G1 X98.129 Y48.556 E18.77086
G1 X98.207 Y49.045 E18.78379
G1 X98.233 Y49.517 E18.79612
G1 X98.197 Y49.909 E18.80638
G1 X98.149 Y50.089 E18.81126
G1 X97.997 Y50.409 E18.82049
G1 X97.787 Y50.675 E18.82935
G1 X97.660 Y50.789 E18.83379
G1 X97.376 Y50.972 E18.84261
G1 X97.058 Y51.097 E18.85152
G1 X96.720 Y51.167 E18.86053
G1 X96.359 Y51.190 E18.86997
G1 X96.030 Y51.170 E18.87858
G1 X95.687 Y51.109 E18.88767
G1 X95.335 Y51.010 E18.89720
G1 X94.976 Y50.872 E18.90724
G1 X94.614 Y50.704 E18.91767
G1 X94.249 Y50.510 E18.92843
G1 X93.512 Y50.045 E18.95119
G1 X92.768 Y49.485 E18.97549
G1 X92.396 Y49.171 E18.98819
G1 X91.655 Y48.484 E19.01457
G1 X91.294 Y48.123 E19.02789
G1 X90.597 Y47.367 E19.05472
G1 X89.938 Y46.574 E19.08163
G1 X89.624 Y46.167 E19.09503
G1 X89.035 Y45.338 E19.12159
G1 X88.767 Y44.925 E19.13443
G1 X88.288 Y44.109 E19.15912
G1 X87.893 Y43.312 E19.18232
G1 X87.730 Y42.925 E19.19329
G1 X87.477 Y42.172 E19.21401
G1 X87.395 Y41.817 E19.22353
G1 X87.346 Y41.477 E19.23250
G1 X87.329 Y41.153 E19.24095
G1 X87.339 Y40.931 E19.24677
G1 X87.374 Y40.726 E19.25218
G1 X87.417 Y40.599 E19.25568
G1 X89.206 Y38.695 F5400.000
G1 E16.25568 F2400.000
G92 E0
G1 Z0.860 F5400.000
G1 X90.499 Y52.615 F5400.000
G1 Z0.260 F5400.000
G1 E3.00000 F2400.000
G1 X90.922 Y52.517 E3.01133 F2700.000
G1 X91.361 Y52.445 E3.02296
G1 X92.512 Y52.353 E3.05308
G1 X95.605 Y52.247 E3.13385
G1 X97.554 Y52.226 E3.18472
G1 X97.554 Y52.250 E3.18533
G1 X98.220 Y52.333 E3.20283 F2700.000
G1 X98.589 Y52.437 E3.21285
G1 X98.767 Y52.513 E3.21789
G1 X98.944 Y52.613 E3.22319
G1 X99.117 Y52.746 E3.22890
G1 X99.269 Y52.913 E3.23477
G1 X99.387 Y53.099 E3.24053
G1 X99.470 Y53.300 E3.24621
G1 X99.517 Y53.507 E3.25175
G1 X99.520 Y53.898 E3.26196
G1 X99.483 Y54.094 E3.26715
G1 X99.409 Y54.298 E3.27282
G1 X99.293 Y54.491 E3.27871
G1 X99.150 Y54.650 E3.28427
G1 X98.996 Y54.772 E3.28941
G1 X98.832 Y54.866 E3.29432
G1 X98.672 Y54.931 E3.29884
G1 X98.395 Y55.001 E3.30630
G1 X97.878 Y55.050 E3.31985
G1 X91.850 Y55.125 E3.47716
G1 X91.472 Y55.170 E3.48710
G1 X91.185 Y55.250 E3.49487
G1 X90.979 Y55.342 E3.50076
G1 X90.767 Y55.477 E3.50732
G1 X91.076 Y56.057 E3.52447
G1 X91.511 Y56.688 E3.54449
G1 X92.085 Y57.364 E3.56762
G1 X92.297 Y57.580 E3.57553
G1 X92.734 Y57.964 E3.59071
G1 X93.359 Y57.927 E3.60704
G1 X94.669 Y57.951 E3.64123
G1 X95.826 Y58.021 E3.67148
G1 X96.820 Y58.127 E3.69758
G1 X97.662 Y58.259 E3.71982
G1 X98.353 Y58.416 E3.73832
G1 X98.918 Y58.608 E3.75388
G1 X99.158 Y58.724 E3.76085
G1 X99.395 Y58.877 E3.76820
G1 X99.662 Y59.149 E3.77813
G1 X99.813 Y59.586 E3.79022
G1 X99.745 Y60.050 E3.80245
G1 X99.559 Y60.405 E3.81292
G1 X99.279 Y60.665 E3.82289
G1 X98.982 Y60.816 E3.83158
G1 X98.707 Y60.897 E3.83906
G1 X98.440 Y60.944 E3.84613
G1 X97.756 Y60.977 E3.86400
G1 X93.342 Y60.837 E3.97924
G1 X91.669 Y60.821 E4.02292
G1 X91.287 Y60.866 E4.03296
G1 X90.977 Y60.950 E4.04133
G1 X90.655 Y61.104 E4.05064
G1 X90.441 Y61.293 E4.05810
G1 X90.737 Y61.694 E4.07110
G1 X91.153 Y62.149 E4.08719
G1 X91.694 Y62.667 E4.10674
G1 X92.104 Y63.013 E4.12073
G1 X92.551 Y63.353 E4.13540
G1 X93.027 Y63.676 E4.15042
G1 X93.518 Y63.972 E4.16536
G1 X94.009 Y64.216 E4.17968
G1 X94.091 Y64.251 E4.18199
G1 X94.869 Y64.208 E4.20234
G1 X95.803 Y64.195 E4.22670
G1 X96.279 Y64.227 E4.23917
G1 X96.743 Y64.289 E4.25137
G1 X97.378 Y64.432 E4.26836
G1 X97.777 Y64.576 E4.27942
G1 X98.154 Y64.785 E4.29067
G1 X98.351 Y64.944 E4.29728
G1 X98.537 Y65.169 E4.30489
G1 X98.671 Y65.459 E4.31324
G1 X98.717 Y65.768 E4.32140
G1 X98.691 Y66.023 E4.32808
G1 X98.614 Y66.259 E4.33457
G1 X98.482 Y66.473 E4.34112
G1 X98.321 Y66.636 E4.34710
G1 X98.163 Y66.748 E4.35216
G1 X97.858 Y66.888 E4.36090
G1 X97.442 Y66.979 E4.37201
G1 X97.027 Y67.013 E4.38289
G1 X93.964 Y67.044 E4.46282
G1 X91.621 Y67.108 E4.52400
G1 X89.905 Y67.216 E4.56887
G1 X89.051 Y67.335 E4.59137
G1 X88.422 Y67.398 E4.60785
G1 X87.909 Y67.400 E4.62125
G1 X87.477 Y67.339 E4.63262
G1 X87.255 Y67.270 E4.63870
G1 X87.015 Y67.148 E4.64573
G1 X86.771 Y66.936 E4.65415
G1 X86.587 Y66.622 E4.66365
G1 X86.529 Y66.278 E4.67278
G1 X86.568 Y65.958 E4.68118
G1 X86.675 Y65.683 E4.68889
G1 X86.831 Y65.453 E4.69614
G1 X87.019 Y65.264 E4.70310
G1 X87.235 Y65.110 E4.71001
G1 X87.467 Y64.990 E4.71682
G1 X87.710 Y64.894 E4.72363
G1 X88.251 Y64.741 E4.73832
G1 X88.900 Y64.606 E4.75560
G1 X88.132 Y63.826 E4.78417
G1 X87.714 Y63.324 E4.80121
G1 X87.376 Y62.818 E4.81709
G1 X87.246 Y62.556 E4.82472
G1 X87.149 Y62.270 E4.83260
G1 X87.110 Y61.978 E4.84028
G1 X87.129 Y61.629 E4.84941
G1 X87.181 Y61.317 E4.85766
G1 X87.266 Y61.013 E4.86591
G1 X87.384 Y60.722 E4.87410
G1 X87.529 Y60.448 E4.88217
G1 X87.696 Y60.191 E4.89019
G1 X87.887 Y59.947 E4.89827
G1 X88.327 Y59.508 E4.91448
G1 X88.830 Y59.125 E4.93099
G1 X89.215 Y58.885 E4.94283
G1 X88.752 Y58.253 E4.96328
G1 X88.355 Y57.637 E4.98239
G1 X88.023 Y57.045 E5.00012
G1 X87.759 Y56.493 E5.01608
G1 X87.567 Y55.985 E5.03023
G1 X87.451 Y55.521 E5.04272
G1 X87.429 Y55.261 E5.04953
G1 X87.466 Y54.964 E5.05735
G1 X87.562 Y54.685 E5.06505
G1 X87.693 Y54.438 E5.07235
G1 X87.852 Y54.205 E5.07971
G1 X88.044 Y53.978 E5.08745
G1 X88.263 Y53.765 E5.09545
G1 X88.506 Y53.565 E5.10365
G1 X89.070 Y53.196 E5.12122
G1 X89.390 Y53.030 E5.13063
G1 X90.100 Y52.739 E5.15065
G1 X90.441 Y52.633 E5.15999
G1 X90.600 Y53.145 F5400.000
G1 X91.026 Y53.042 E5.17141 F1890.000
G1 X91.432 Y52.976 E5.18214
G1 X92.048 Y52.917 E5.19829
G1 X93.481 Y52.849 E5.23574
G1 X96.288 Y52.771 E5.30901
G1 X97.019 Y52.766 E5.32808 F1890.000
G1 X97.764 Y52.805 E5.34756
G1 X98.263 Y52.894 E5.36078
G1 X98.529 Y52.994 E5.36820
G1 X98.647 Y53.060 E5.37172
G1 X98.753 Y53.142 E5.37522
G1 X98.910 Y53.347 E5.38195
G1 X98.958 Y53.463 E5.38524
G1 X98.995 Y53.710 E5.39174
G1 X98.965 Y53.951 E5.39809
G1 X98.923 Y54.066 E5.40129
G1 X98.782 Y54.258 E5.40750
G1 X98.598 Y54.383 E5.41331
G1 X98.297 Y54.474 E5.42151
G1 X97.858 Y54.515 E5.43301
G1 X92.089 Y54.583 E5.58358
G1 X91.582 Y54.610 E5.59684
G1 X91.368 Y54.644 E5.60248
G1 X91.003 Y54.746 E5.61238
G1 X90.715 Y54.876 E5.62062
G1 X90.502 Y55.024 E5.62739
G1 X90.361 Y55.175 E5.63277
G1 X90.277 Y55.329 E5.63735
G1 X90.234 Y55.513 E5.64229
G1 X90.266 Y55.651 E5.64597
G1 X90.399 Y55.948 E5.65446
G1 X90.620 Y56.338 E5.66616
G1 X90.914 Y56.780 E5.68001
G1 X91.273 Y57.250 E5.69544
G1 X91.924 Y57.965 E5.72068
G1 X92.161 Y58.184 E5.72911
G1 X92.578 Y58.517 E5.74304
G1 X93.362 Y58.463 E5.76354
G1 X94.025 Y58.469 E5.78085
G1 X95.234 Y58.515 E5.81241
G1 X96.751 Y58.658 E5.85219
G1 X97.906 Y58.856 E5.88277
G1 X98.477 Y59.013 E5.89822
G1 X98.895 Y59.192 E5.91010
G1 X99.055 Y59.295 E5.91504
G1 X99.195 Y59.438 E5.92027
G1 X99.264 Y59.638 E5.92579
G1 X99.229 Y59.882 E5.93224
G1 X99.128 Y60.075 E5.93792
G1 X98.970 Y60.221 E5.94353
G1 X98.783 Y60.316 E5.94899
G1 X98.584 Y60.375 E5.95442
G1 X98.131 Y60.435 E5.96634
G1 X97.285 Y60.432 E5.98841
G1 X92.804 Y60.289 E6.10540
G1 X91.896 Y60.279 E6.12910
G1 X91.402 Y60.306 E6.14201
G1 X91.185 Y60.340 E6.14775
G1 X90.800 Y60.444 E6.15816
G1 X90.485 Y60.581 E6.16712
G1 X90.246 Y60.741 E6.17464
G1 X90.154 Y60.827 E6.17791
G1 X90.020 Y61.013 E6.18389
G1 X89.940 Y61.216 E6.18959
G1 X89.913 Y61.427 E6.19514
G1 X90.110 Y61.761 E6.20525
G1 X90.459 Y62.192 E6.21971
G1 X90.947 Y62.701 E6.23811
G1 X91.338 Y63.067 E6.25209
G1 X92.000 Y63.611 E6.27445
G1 X92.485 Y63.960 E6.29004
G1 X92.997 Y64.289 E6.30592
G1 X93.523 Y64.580 E6.32162
G1 X94.002 Y64.794 E6.33530
G1 X94.666 Y64.752 E6.35267
G1 X95.562 Y64.727 E6.37607
G1 X96.006 Y64.741 E6.38766
G1 X96.443 Y64.785 E6.39912
G1 X96.854 Y64.855 E6.40999
G1 X97.226 Y64.946 E6.41999
G1 X97.559 Y65.066 E6.42922
G1 X97.844 Y65.223 E6.43773
G1 X97.972 Y65.327 E6.44202
G1 X98.080 Y65.457 E6.44643
G1 X98.153 Y65.614 E6.45095
G1 X98.177 Y65.781 E6.45535
G1 X98.164 Y65.912 E6.45878
G1 X98.125 Y66.032 E6.46209
G1 X98.058 Y66.140 E6.46541
G1 X97.973 Y66.226 E6.46856
G1 X97.788 Y66.340 E6.47424
G1 X97.479 Y66.430 E6.48263
G1 X97.131 Y66.471 E6.49177
G1 X93.954 Y66.509 E6.57469
G1 X91.598 Y66.573 E6.63620
G1 X90.102 Y66.661 E6.67531
