; generated by Slic3r 1.2.1 on 2014-12-19 at 20:00:54

; external perimeters extrusion width = 0.40mm
; perimeters extrusion width = 0.48mm
; infill extrusion width = 0.48mm
; solid infill extrusion width = 0.48mm
; top infill extrusion width = 0.48mm

; external perimeters extrusion width = 0.50mm
; perimeters extrusion width = 0.72mm
; infill extrusion width = 0.72mm
; solid infill extrusion width = 0.72mm
; top infill extrusion width = 0.72mm

M190 S65 ; wait for bed temperature to be reached
M104 S200 T0 ; set temperature
M104 S190 T1 ; set temperature
G28 ; home all axes
M109 S200 T0 ; wait for temperature to be reached
M109 S190 T1 ; wait for temperature to be reached
G21 ; set units to millimeters
G90 ; use absolute coordinates
M82 ; use absolute distances for extrusion
G92 E0
T0
G92 E0
M106 S89
G1 E-3.00000 F2400.000
G92 E0
G1 Z0.600 F5400.000
G1 X71.697 Y30.957 F5400.000
G1 Z0.260 F5400.000
G1 E3.00000 F2400.000
G1 X72.787 Y29.457 E3.04838 F2700.000
G1 X74.426 Y27.875 E3.10783
G1 X76.055 Y27.082 E3.15509
G1 X77.818 Y26.509 E3.20348
G1 X79.838 Y26.190 E3.25683
G1 X108.838 Y26.190 E4.01361
G1 X110.857 Y26.509 E4.06697
G1 X112.621 Y27.082 E4.11535 F2700.000
G1 X114.631 Y28.153 E4.17480
G1 X115.889 Y29.457 E4.22206
G1 X116.978 Y30.957 E4.27045
G1 X118.146 Y33.776 E4.35009
G1 X118.293 Y34.703 E4.37458
G1 X118.373 Y35.725 E4.40134
G1 X118.373 Y139.725 E7.11531
G1 X118.293 Y140.747 E7.14206
G1 X118.146 Y141.674 E7.16656
G1 X116.978 Y144.494 E7.24619
G1 X115.889 Y145.994 E7.29458
G1 X115.132 Y146.862 E7.32463
G1 X104.814 Y156.788 E7.69826
G1 X103.413 Y158.054 E7.74753
G1 X102.308 Y158.857 E7.78318
G1 X100.860 Y159.693 E7.82682
G1 X99.611 Y160.249 E7.86248
G1 X98.021 Y160.766 E7.90613
G1 X96.684 Y161.050 E7.94178
G1 X95.021 Y161.225 E7.98543
G1 X93.655 Y161.225 E8.02108
G1 X91.991 Y161.050 E8.06472
G1 X90.655 Y160.766 E8.10038
G1 X89.064 Y160.249 E8.14402
G1 X87.816 Y159.694 E8.17968
G1 X86.367 Y158.857 E8.22333
G1 X85.262 Y158.054 E8.25898
G1 X83.862 Y156.788 E8.30825
G1 X73.543 Y146.862 E8.68188
G1 X72.787 Y145.994 E8.71193
G1 X71.697 Y144.494 E8.76032
G1 X70.529 Y141.674 E8.83995
G1 X70.383 Y140.747 E8.86445
G1 X70.302 Y139.725 E8.89120
G1 X70.302 Y35.725 E11.60517
G1 X70.383 Y34.703 E11.63193
G1 X70.529 Y33.776 E11.65642
G1 X71.674 Y31.012 E11.73449
G1 E8.73449 F2400.000
G92 E0
G1 Z0.860 F5400.000
G1 X79.664 Y36.817 F5400.000
G1 Z0.260 F5400.000
G1 E3.00000 F2400.000
G1 X80.558 Y35.587 E3.03967 F2700.000
G1 X82.705 Y34.890 E3.09860
G1 X105.970 Y34.890 E3.70571
G1 X107.727 Y35.460 E3.75392
G1 X108.118 Y35.587 E3.76463 F2700.000
G1 X109.527 Y37.527 E3.82719
G1 X109.527 Y37.890 E3.83666
G1 X109.673 Y37.890 E3.84049
G1 X109.673 Y137.561 E6.44150
G1 X109.527 Y137.561 E6.44533
G1 X109.527 Y137.924 E6.45480
G1 X108.118 Y139.863 E6.51736
G1 X105.970 Y140.561 E6.57628
G1 X82.705 Y140.561 E7.18339
G1 X80.558 Y139.863 E7.24232
G1 X79.149 Y137.924 E7.30487
G1 X79.149 Y137.561 E7.31434
G1 X79.002 Y137.561 E7.31817
G1 X79.002 Y37.890 E9.91918
G1 X79.149 Y37.890 E9.92301
G1 X79.149 Y37.527 E9.93249
G1 X79.629 Y36.866 E9.95380
G1 X80.062 Y37.181 F5400.000
G1 X80.889 Y36.043 E9.99050 F2700.000
G1 X82.790 Y35.425 E10.04267
G1 X105.885 Y35.425 E10.64535 F2700.000
G1 X107.787 Y36.043 E10.69752
G1 X108.991 Y37.701 E10.75099
G1 X108.991 Y38.425 E10.76990
G1 X109.138 Y38.425 E10.77373
G1 X109.138 Y137.025 E13.34678
G1 X108.991 Y137.025 E13.35061
G1 X108.991 Y137.750 E13.36952
G1 X107.787 Y139.407 E13.42299
G1 X105.885 Y140.025 E13.47516
G1 X82.790 Y140.025 E14.07785
G1 X80.889 Y139.407 E14.13002
G1 X79.685 Y137.750 E14.18349
G1 X79.685 Y137.025 E14.20240
G1 X79.538 Y137.025 E14.20623
G1 X79.538 Y38.425 E16.77928
G1 X79.685 Y38.425 E16.78311
G1 X79.685 Y37.701 E16.80202
G1 X80.027 Y37.229 E16.81723
G1 X88.391 Y42.388 F5400.000
G1 X88.653 Y42.139 E16.82665 F2700.000
G1 X89.020 Y41.952 E16.83739
G1 X89.012 Y41.751 E16.84265
G1 X89.182 Y41.751 E16.84707
G1 X89.231 Y41.626 E16.85057
G1 X89.407 Y41.368 E16.85874
G1 X89.632 Y41.159 E16.86675
G1 X89.895 Y41.006 E16.87470
G1 X90.182 Y40.917 E16.88254
G1 X90.462 Y40.890 E16.88988
G1 X90.735 Y40.909 E16.89702
G1 X91.240 Y40.993 E16.91037 F2700.000
G1 X91.625 Y41.111 E16.92090
G1 X92.011 Y41.269 E16.93176
G1 X92.783 Y41.672 E16.95448
G1 X93.370 Y42.045 E16.97263
G1 X94.259 Y42.037 E16.99585
G1 X94.774 Y41.989 E17.00933
G1 X95.376 Y41.904 E17.02519
G1 X96.268 Y41.745 E17.04884
G1 X97.157 Y41.561 E17.07254
G1 X97.948 Y41.377 E17.09372
G1 X98.727 Y41.169 E17.11476
G1 X99.150 Y41.113 E17.12590
G1 X99.594 Y41.120 E17.13748
G1 X99.851 Y41.163 E17.14429
G1 X100.105 Y41.240 E17.15120
G1 X100.358 Y41.361 E17.15852
G1 X100.614 Y41.547 E17.16678
G1 X100.834 Y41.819 E17.17590
G1 X100.969 Y42.145 E17.18513
G1 X101.016 Y42.536 E17.19540
G1 X100.924 Y42.907 E17.20538
G1 X100.725 Y43.187 E17.21434
G1 X100.523 Y43.364 E17.22136
G1 X100.326 Y43.493 E17.22749
G1 X99.703 Y43.790 E17.24551
G1 X98.661 Y44.146 E17.27422
G1 X97.164 Y44.563 E17.31479
G1 X97.164 Y44.535 E17.31550
G1 X96.345 Y44.700 E17.33730
G1 X97.357 Y45.900 E17.37826
G1 X98.134 Y46.963 E17.41261
G1 X98.486 Y47.505 E17.42949
G1 X98.811 Y48.053 E17.44610
G1 X99.105 Y48.600 E17.46232
G1 X99.366 Y49.149 E17.47817
G1 X99.597 Y49.701 E17.49379
G1 X99.788 Y50.256 E17.50912
G1 X99.929 Y50.806 E17.52392
G1 X100.016 Y51.347 E17.53822
G1 X100.045 Y51.873 E17.55198
G1 X100.033 Y52.128 E17.55863
G1 X99.998 Y52.375 E17.56513
G1 X99.934 Y52.617 E17.57168
G1 X99.841 Y52.846 E17.57812
G1 X99.728 Y53.052 E17.58427
G1 X99.595 Y53.240 E17.59026
G1 X99.443 Y53.412 E17.59626
G1 X99.272 Y53.566 E17.60227
G1 X99.088 Y53.698 E17.60817
G1 X98.895 Y53.808 E17.61397
G1 X98.484 Y53.970 E17.62549
G1 X98.066 Y54.057 E17.63663
G1 X97.626 Y54.085 E17.64813
G1 X97.242 Y54.061 E17.65819
G1 X96.842 Y53.991 E17.66878
G1 X96.442 Y53.877 E17.67964
G1 X96.043 Y53.725 E17.69078
G1 X95.261 Y53.336 E17.71357
G1 X94.872 Y53.103 E17.72541
G1 X94.093 Y52.563 E17.75015
G1 X93.320 Y51.934 E17.77615
G1 X92.934 Y51.588 E17.78967
G1 X92.185 Y50.855 E17.81703
G1 X91.823 Y50.472 E17.83078
G1 X91.126 Y49.676 E17.85840
G1 X90.555 Y48.956 E17.88236
G1 X90.161 Y48.423 E17.89967
G1 X89.588 Y47.569 E17.92649
G1 X89.331 Y47.145 E17.93944
G1 X88.874 Y46.304 E17.96441
G1 X88.679 Y45.889 E17.97637
G1 X88.358 Y45.073 E17.99928
G1 X88.235 Y44.669 E18.01028
G1 X88.144 Y44.275 E18.02084
G1 X88.087 Y43.889 E18.03103
G1 X88.068 Y43.513 E18.04084
G1 X88.081 Y43.231 E18.04821
G1 X88.129 Y42.954 E18.05556
G1 X88.224 Y42.673 E18.06330
G1 X88.361 Y42.440 E18.07035
G1 X88.815 Y42.724 F5400.000
G1 X88.966 Y42.581 E18.07577 F1890.000
G1 X89.154 Y42.485 E18.08130
G1 X89.362 Y42.434 E18.08687
G1 X89.573 Y42.420 E18.09240
G1 X89.568 Y42.287 E18.09588
G1 X89.589 Y42.287 E18.09641
G1 X89.634 Y42.064 E18.10235
G1 X89.707 Y41.879 E18.10753
G1 X89.816 Y41.719 E18.11259
G1 X89.953 Y41.592 E18.11748
G1 X90.112 Y41.499 E18.12227
G1 X90.368 Y41.437 E18.12914
G1 X90.785 Y41.450 E18.14003 F1890.000
G1 X91.110 Y41.513 E18.14866
G1 X91.445 Y41.616 E18.15783
G1 X91.792 Y41.758 E18.16760
G1 X92.148 Y41.932 E18.17793
G1 X92.512 Y42.134 E18.18881
G1 X93.206 Y42.580 E18.21033
G1 X94.291 Y42.571 E18.23864
G1 X94.838 Y42.520 E18.25298
G1 X95.461 Y42.433 E18.26941
G1 X96.830 Y42.179 E18.30573
G1 X98.076 Y41.897 E18.33906
G1 X98.848 Y41.691 E18.35992
G1 X99.181 Y41.648 E18.36868
G1 X99.536 Y41.654 E18.37796
G1 X99.729 Y41.686 E18.38305
G1 X99.910 Y41.741 E18.38800
G1 X100.082 Y41.823 E18.39298
G1 X100.242 Y41.939 E18.39812
G1 X100.369 Y42.096 E18.40338
G1 X100.446 Y42.282 E18.40866
G1 X100.473 Y42.503 E18.41445
G1 X100.429 Y42.679 E18.41920
G1 X100.325 Y42.825 E18.42388
G1 X100.198 Y42.936 E18.42827
G1 X100.052 Y43.032 E18.43283
G1 X99.705 Y43.207 E18.44297
G1 X99.279 Y43.378 E18.45496
G1 X98.780 Y43.549 E18.46870
G1 X97.699 Y43.860 E18.49806
G1 X96.365 Y44.151 E18.53371
G1 X95.238 Y44.331 E18.56348
G1 X96.094 Y45.228 E18.59584
G1 X96.523 Y45.723 E18.61292
G1 X97.325 Y46.744 E18.64681
G1 X98.031 Y47.788 E18.67971
G1 X98.345 Y48.316 E18.69573
G1 X98.627 Y48.842 E18.71131
G1 X98.877 Y49.367 E18.72648
G1 X99.096 Y49.892 E18.74132
G1 X99.275 Y50.411 E18.75563
G1 X99.404 Y50.915 E18.76922
G1 X99.482 Y51.404 E18.78215
G1 X99.509 Y51.876 E18.79449
G1 X99.472 Y52.268 E18.80475
G1 X99.357 Y52.616 E18.81432
G1 X99.175 Y52.907 E18.82328
G1 X98.936 Y53.148 E18.83214
G1 X98.798 Y53.247 E18.83657
G1 X98.496 Y53.401 E18.84540
G1 X98.166 Y53.497 E18.85437
G1 X97.820 Y53.543 E18.86350
G1 X97.305 Y53.529 E18.87692
G1 X96.962 Y53.468 E18.88601
G1 X96.611 Y53.368 E18.89555
G1 X96.251 Y53.231 E18.90558
G1 X95.525 Y52.869 E18.92677
G1 X95.158 Y52.650 E18.93794
G1 X94.415 Y52.135 E18.96150
G1 X93.671 Y51.530 E18.98653
G1 X93.298 Y51.195 E18.99961
G1 X92.569 Y50.481 E19.02623
G1 X92.217 Y50.109 E19.03962
G1 X91.537 Y49.333 E19.06654
G1 X91.213 Y48.933 E19.07997
G1 X90.598 Y48.113 E19.10673
G1 X90.042 Y47.284 E19.13277
G1 X89.793 Y46.874 E19.14528
G1 X89.354 Y46.066 E19.16927
G1 X89.006 Y45.284 E19.19163
G1 X88.866 Y44.902 E19.20223
G1 X88.753 Y44.531 E19.21236
G1 X88.671 Y44.176 E19.22188
G1 X88.621 Y43.836 E19.23084
G1 X88.604 Y43.512 E19.23929
G1 X88.615 Y43.289 E19.24512
G1 X88.649 Y43.085 E19.25052
G1 X88.713 Y42.897 E19.25571
G1 X88.785 Y42.776 E19.25937
G1 X90.487 Y41.055 F5400.000
G1 X91.168 Y53.687 F5400.000
G1 X91.508 Y53.636 E19.26835 F1890.000
G1 X91.766 Y53.626 E19.27509
G1 X91.999 Y53.642 E19.28118
G1 X92.422 Y53.716 E19.29238 F1890.000
G1 X92.752 Y53.828 E19.30149
G1 X93.081 Y53.981 E19.31096
G1 X93.406 Y54.167 E19.32072
G1 X94.047 Y54.626 E19.34131
G1 X94.682 Y55.198 E19.36359
G1 X95.301 Y55.861 E19.38729
G1 X95.904 Y56.609 E19.41235
G1 X96.476 Y57.409 E19.43801
G1 X97.015 Y58.253 E19.46415
G1 X97.513 Y59.124 E19.49032
G1 X98.172 Y60.452 E19.52902
G1 X98.537 Y61.321 E19.55361
G1 X98.834 Y62.162 E19.57688
G1 X99.060 Y62.963 E19.59861
G1 X99.204 Y63.706 E19.61836
G1 X99.240 Y64.048 E19.62734
G1 X99.260 Y64.564 E19.64082
G1 X102.110 Y64.447 E19.71525
G1 X102.735 Y64.445 E19.73157
G1 X103.289 Y64.472 E19.74604
G1 X103.830 Y64.525 E19.76024
G1 X104.330 Y64.611 E19.77346
G1 X104.780 Y64.731 E19.78563
G1 X105.165 Y64.893 E19.79652
G1 X105.334 Y64.994 E19.80165
G1 X105.487 Y65.118 E19.80680
G1 X105.611 Y65.273 E19.81199
G1 X105.692 Y65.456 E19.81721
G1 X105.718 Y65.648 E19.82225
G1 X105.707 Y65.788 E19.82592
G1 X105.674 Y65.916 E19.82937
G1 X105.615 Y66.037 E19.83287
G1 X105.535 Y66.141 E19.83631
G1 X105.344 Y66.289 E19.84261
G1 X105.007 Y66.421 E19.85204
G1 X104.754 Y66.471 E19.85879
G1 X104.474 Y66.499 E19.86614
G1 X103.623 Y66.510 E19.88835
G1 X101.139 Y66.423 E19.95319
G1 X98.713 Y66.572 E20.01662
G1 X96.530 Y66.640 E20.07363
G1 X90.715 Y66.576 E20.22539
G1 X90.138 Y66.561 E20.24043
G1 X89.528 Y66.506 E20.25642
G1 X89.116 Y66.401 E20.26753
G1 X88.900 Y66.268 E20.27415
G1 X88.819 Y66.165 E20.27754
G1 X88.776 Y66.069 E20.28030
G1 X88.736 Y65.898 E20.28489
G1 X88.744 Y65.634 E20.29177
G1 X88.783 Y65.465 E20.29629
G1 X88.851 Y65.307 E20.30079
G1 X88.947 Y65.167 E20.30521
G1 X89.061 Y65.049 E20.30951
G1 X89.334 Y64.867 E20.31806
G1 X89.488 Y64.802 E20.32242
G1 X89.819 Y64.707 E20.33139
G1 X90.387 Y64.628 E20.34638
G1 X90.802 Y64.607 E20.35720
G1 X91.517 Y64.608 E20.37588
G1 X92.229 Y64.644 E20.39448
G1 X91.721 Y63.852 E20.41903
G1 X91.173 Y62.811 E20.44971
G1 X90.661 Y61.639 E20.48311
G1 X90.345 Y60.802 E20.50644
G1 X90.069 Y59.955 E20.52969
G1 X89.735 Y58.691 E20.56381
G1 X89.574 Y57.869 E20.58566
G1 X89.471 Y57.086 E20.60629
G1 X89.436 Y56.361 E20.62521
G1 X89.474 Y55.734 E20.64161
G1 X89.592 Y55.183 E20.65631
G1 X89.787 Y54.711 E20.66963
G1 X89.912 Y54.503 E20.67597
G1 X90.056 Y54.315 E20.68216
G1 X90.219 Y54.148 E20.68824
G1 X90.401 Y54.004 E20.69428
G1 X90.598 Y53.884 E20.70032
G1 X90.810 Y53.789 E20.70638
G1 X91.109 Y53.700 E20.71452
G1 X92.172 Y54.002 F5400.000
G1 X90.698 Y69.780 F5400.000
G1 X92.964 Y69.826 E20.77366 F1890.000
G1 X95.289 Y69.817 E20.83436
G1 X97.252 Y69.741 E20.88561
G1 X98.417 Y69.643 E20.91612
G1 X98.972 Y69.575 E20.93071
G1 X99.522 Y69.582 E20.94505
G1 X99.867 Y69.637 E20.95419
G1 X100.025 Y69.687 E20.95849
G1 X100.299 Y69.814 E20.96639
G1 X100.421 Y69.891 E20.97016
G1 X100.631 Y70.067 E20.97730
G1 X100.794 Y70.264 E20.98398
G1 X100.858 Y70.370 E20.98720
G1 X100.947 Y70.587 E20.99332
G1 X100.982 Y70.820 E20.99946
G1 X100.965 Y70.966 E21.00331
G1 X100.908 Y71.111 E21.00737
G1 X100.813 Y71.234 E21.01144
G1 X100.695 Y71.323 E21.01528
G1 X100.440 Y71.429 E21.02247
G1 X100.139 Y71.492 E21.03052
G1 X99.563 Y71.539 E21.04559
G1 X96.368 Y71.534 E21.12897
G1 X97.203 Y72.586 E21.16401
G1 X97.871 Y73.513 E21.19383
G1 X98.538 Y74.552 E21.22605
G1 X98.945 Y75.287 E21.24796
G1 X99.305 Y76.045 E21.26987
G1 X99.601 Y76.815 E21.29138
G1 X99.825 Y77.594 E21.31256
G1 X99.898 Y77.983 E21.32288
G1 X99.942 Y78.368 E21.33299
G1 X99.956 Y78.748 E21.34290
G1 X99.945 Y79.161 E21.35369
G1 X99.910 Y79.540 E21.36362
G1 X99.851 Y79.888 E21.37283
G1 X99.767 Y80.202 E21.38133
G1 X99.662 Y80.485 E21.38919
G1 X99.537 Y80.740 E21.39661
G1 X99.391 Y80.970 E21.40372
G1 X99.223 Y81.172 E21.41057
G1 X99.036 Y81.344 E21.41720
G1 X98.833 Y81.487 E21.42370
G1 X98.613 Y81.603 E21.43018
G1 X98.148 Y81.748 E21.44289
G1 X97.669 Y81.815 E21.45550
G1 X97.416 Y81.824 E21.46212
G1 X96.966 Y81.791 E21.47388
G1 X96.509 Y81.694 E21.48607
G1 X96.052 Y81.535 E21.49871
G1 X95.597 Y81.315 E21.51190
G1 X95.150 Y81.049 E21.52547
G1 X94.713 Y80.748 E21.53931
G1 X94.284 Y80.412 E21.55353
G1 X93.864 Y80.040 E21.56818
G1 X93.455 Y79.639 E21.58312
G1 X92.674 Y78.769 E21.61364
G1 X91.948 Y77.818 E21.64486
G1 X91.309 Y76.853 E21.67506
G1 X90.763 Y75.890 E21.70395
G1 X90.327 Y74.965 E21.73063
G1 X90.009 Y74.092 E21.75489
G1 X89.905 Y73.694 E21.76561
G1 X89.841 Y73.324 E21.77540
G1 X89.820 Y72.989 E21.78418
G1 X89.851 Y72.298 E21.80223
G1 X89.890 Y72.001 E21.81004
G1 X90.047 Y71.378 E21.82682
G1 X84.641 Y71.263 E21.96795
G1 X83.532 Y71.327 E21.99692
G1 X83.210 Y71.303 E22.00535
G1 X83.064 Y71.265 E22.00929
G1 X82.925 Y71.189 E22.01342
G1 X82.818 Y71.071 E22.01759
G1 X82.755 Y70.936 E22.02147
G1 X82.715 Y70.648 E22.02905
G1 X82.732 Y70.509 E22.03270
G1 X82.783 Y70.372 E22.03654
G1 X82.861 Y70.250 E22.04030
G1 X83.066 Y70.055 E22.04768
G1 X83.188 Y69.975 E22.05150
G1 X83.470 Y69.838 E22.05966
G1 X83.988 Y69.685 E22.07377
G1 X84.625 Y69.593 E22.09055
G1 X85.349 Y69.579 E22.10947
G1 X90.638 Y69.779 E22.24757 F1890.000
G1 X85.691 Y69.787 F5400.000
G1 X91.649 Y83.097 F5400.000
G1 X91.948 Y83.083 E22.25536 F2700.000
G1 X98.888 Y83.086 E22.43647
G1 X99.533 Y83.127 E22.45333 F2700.000
G1 X99.805 Y83.168 E22.46052
G1 X100.128 Y83.263 E22.46930
G1 X100.479 Y83.488 E22.48019
G1 X100.744 Y83.869 E22.49230
G1 X100.815 Y84.257 E22.50258
G1 X100.807 Y84.470 E22.50814
G1 X100.759 Y84.775 E22.51619
G1 X100.709 Y84.943 E22.52078
G1 X100.620 Y85.138 E22.52638
G1 X100.488 Y85.326 E22.53237
G1 X100.334 Y85.481 E22.53807
G1 X100.165 Y85.607 E22.54357
G1 X99.794 Y85.787 E22.55432
G1 X99.400 Y85.894 E22.56498
G1 X99.180 Y85.929 E22.57079
G1 X98.696 Y85.966 E22.58346
G1 X91.722 Y85.983 E22.76545
G1 X92.114 Y86.689 E22.78653
G1 X92.407 Y87.168 E22.80118
G1 X93.124 Y88.210 E22.83419
G1 X93.718 Y88.959 E22.85912
G1 X94.119 Y89.412 E22.87491
G1 X94.507 Y89.804 E22.88930
G1 X94.809 Y90.059 E22.89963
G1 X97.490 Y90.062 E22.96958
G1 X98.246 Y90.089 E22.98932
G1 X98.860 Y90.144 E23.00542
G1 X99.383 Y90.239 E23.01928
G1 X99.618 Y90.308 E23.02568
G1 X99.840 Y90.398 E23.03192
G1 X100.057 Y90.517 E23.03838
G1 X100.268 Y90.682 E23.04538
G1 X100.443 Y90.892 E23.05251
G1 X100.559 Y91.109 E23.05893
G1 X100.632 Y91.322 E23.06480
G1 X100.673 Y91.536 E23.07048
G1 X100.688 Y91.786 E23.07703
G1 X100.634 Y92.144 E23.08649
G1 X100.427 Y92.515 E23.09755
G1 X100.113 Y92.771 E23.10813
G1 X99.802 Y92.897 E23.11688
G1 X99.316 Y92.986 E23.12978
G1 X98.829 Y93.010 E23.14250
G1 X91.562 Y92.946 E23.33216
G1 X90.841 Y92.918 E23.35098
G1 X90.152 Y92.830 E23.36911
G1 X89.730 Y92.730 E23.38042
G1 X89.522 Y92.661 E23.38615
G1 X89.121 Y92.465 E23.39779
G1 X88.928 Y92.325 E23.40401
G1 X88.740 Y92.138 E23.41094
G1 X88.582 Y91.896 E23.41848
