; generated by Slic3r 1.2.1 on 2014-12-19 at 19:43:05

; external perimeters extrusion width = 0.40mm
; perimeters extrusion width = 0.48mm
; infill extrusion width = 0.48mm
; solid infill extrusion width = 0.48mm
; top infill extrusion width = 0.48mm

; external perimeters extrusion width = 0.50mm
; perimeters extrusion width = 0.72mm
; infill extrusion width = 0.72mm
; solid infill extrusion width = 0.72mm
; top infill extrusion width = 0.72mm

M190 S65 ; wait for bed temperature to be reached
M104 S200 T0 ; set temperature
M104 S190 T1 ; set temperature
G28 ; home all axes
M109 S200 T0 ; wait for temperature to be reached
M109 S190 T1 ; wait for temperature to be reached
G21 ; set units to millimeters
G90 ; use absolute coordinates
M82 ; use absolute distances for extrusion
G92 E0
T0
G92 E0
M106 S89
G1 E-3.00000 F2400.000
G92 E0
G1 Z0.600 F5400.000
G1 X69.354 Y25.696 F5400.000
G1 Z0.260 F5400.000
G1 E3.00000 F2400.000
G1 X70.522 Y22.877 E3.07964 F2700.000
G1 X71.611 Y21.377 E3.12802
G1 X73.251 Y19.796 E3.18746
G1 X74.879 Y19.003 E3.23473
G1 X76.643 Y18.430 E3.28312
G1 X78.662 Y18.110 E3.33647
G1 X102.662 Y18.110 E3.96277
G1 X104.682 Y18.430 E4.01613
G1 X106.445 Y19.003 E4.06451 F2700.000
G1 X108.456 Y20.073 E4.12395
G1 X109.713 Y21.377 E4.17122
G1 X110.803 Y22.877 E4.21961
G1 X111.971 Y25.696 E4.29924
G1 X112.117 Y26.624 E4.32374
G1 X112.198 Y27.646 E4.35049
G1 X112.197 Y81.751 E5.76242
G1 X110.972 Y157.711 E7.74492
G1 X110.892 Y158.628 E7.76894
G1 X110.745 Y159.555 E7.79343
G1 X109.578 Y162.375 E7.87307
G1 X108.335 Y164.077 E7.92808
G1 X100.516 Y174.003 E8.25780
G1 X99.756 Y174.816 E8.28686
G1 X98.513 Y175.935 E8.33051
G1 X97.407 Y176.738 E8.36616
G1 X95.959 Y177.574 E8.40980
G1 X94.711 Y178.130 E8.44546
G1 X93.120 Y178.647 E8.48911
G1 X91.784 Y178.931 E8.52476
G1 X90.120 Y179.106 E8.56841
G1 X88.754 Y179.106 E8.60406
G1 X87.091 Y178.931 E8.64770
G1 X85.754 Y178.647 E8.68336
G1 X84.164 Y178.130 E8.72700
G1 X82.915 Y177.574 E8.76266
G1 X81.467 Y176.738 E8.80631
G1 X80.362 Y175.935 E8.84196
G1 X79.119 Y174.816 E8.88561
G1 X78.358 Y174.003 E8.91466
G1 X70.539 Y164.077 E9.24439
G1 X69.296 Y162.375 E9.29940
G1 X68.129 Y159.555 E9.37904
G1 X67.982 Y158.628 E9.40353
G1 X67.901 Y157.606 E9.43029
G1 X67.902 Y103.501 E10.84221
G1 X69.127 Y27.540 E12.82472
G1 X69.207 Y26.624 E12.84873
G1 X69.344 Y25.756 E12.87166
G1 E9.87166 F2400.000
G92 E0
G1 Z0.860 F5400.000
G1 X80.305 Y102.770 F5400.000
G1 Z0.260 F5400.000
G1 E3.00000 F2400.000
G1 X98.569 Y102.770 E3.47663 F2700.000
G1 X100.326 Y103.341 E3.52484
G1 X100.717 Y103.468 E3.53556 F2700.000
G1 X102.126 Y105.407 E3.59811
G1 X102.126 Y105.770 E3.60758
G1 X102.273 Y105.770 E3.61142
G1 X102.273 Y155.442 E4.90763
G1 X102.126 Y155.442 E4.91146
G1 X102.126 Y155.805 E4.92093
G1 X100.717 Y157.744 E4.98349
G1 X98.569 Y158.442 E5.04241
G1 X80.305 Y158.442 E5.51904
G1 X78.157 Y157.744 E5.57797
G1 X76.748 Y155.805 E5.64052
G1 X76.748 Y155.442 E5.65000
G1 X76.601 Y155.442 E5.65383
G1 X76.601 Y105.770 E6.95004
G1 X76.748 Y105.770 E6.95387
G1 X76.748 Y105.407 E6.96334
G1 X78.157 Y103.468 E7.02590
G1 X80.248 Y102.789 E7.08326
G1 X80.390 Y103.306 F5400.000
G1 X98.485 Y103.306 E7.55546 F2700.000
G1 X100.386 Y103.924 E7.60763
G1 X101.590 Y105.581 E7.66110
G1 X101.590 Y106.306 E7.68001
G1 X101.737 Y106.306 E7.68384
G1 X101.737 Y154.906 E8.95210
G1 X101.590 Y154.906 E8.95593
G1 X101.590 Y155.631 E8.97484
G1 X100.386 Y157.288 E9.02831
G1 X98.485 Y157.906 E9.08048
G1 X80.390 Y157.906 E9.55269
G1 X78.488 Y157.288 E9.60486
G1 X77.284 Y155.631 E9.65833
G1 X77.284 Y154.906 E9.67724
G1 X77.137 Y154.906 E9.68107
G1 X77.137 Y106.306 E10.94933
G1 X77.284 Y106.306 E10.95316
G1 X77.284 Y105.581 E10.97206
G1 X78.488 Y103.924 E11.02554
G1 X80.155 Y103.382 E11.07127
G1 X85.606 Y109.250 F5400.000
G1 X85.870 Y109.097 E11.07923 F2700.000
G1 X86.157 Y109.008 E11.08707
G1 X86.437 Y108.982 E11.09441
G1 X86.829 Y109.009 E11.10468
G1 X87.214 Y109.084 E11.11492 F2700.000
G1 X87.600 Y109.203 E11.12544
G1 X87.985 Y109.360 E11.13631
G1 X88.757 Y109.763 E11.15903
G1 X89.344 Y110.136 E11.17717
G1 X90.234 Y110.128 E11.20039
G1 X90.748 Y110.080 E11.21388
G1 X91.350 Y109.995 E11.22973
G1 X92.242 Y109.837 E11.25338
G1 X93.132 Y109.652 E11.27709
G1 X93.922 Y109.469 E11.29826
G1 X94.701 Y109.261 E11.31931
G1 X95.124 Y109.204 E11.33044
G1 X95.568 Y109.212 E11.34202
G1 X95.825 Y109.254 E11.34883
G1 X96.079 Y109.331 E11.35575
G1 X96.332 Y109.452 E11.36306
G1 X96.588 Y109.638 E11.37133
G1 X96.808 Y109.910 E11.38045
G1 X96.943 Y110.237 E11.38967
G1 X96.991 Y110.627 E11.39995
G1 X96.898 Y110.999 E11.40993
G1 X96.699 Y111.278 E11.41889
G1 X96.497 Y111.456 E11.42591
G1 X96.300 Y111.584 E11.43205
G1 X95.677 Y111.881 E11.45005
G1 X94.636 Y112.237 E11.47877
G1 X93.403 Y112.566 E11.51207
G1 X92.319 Y112.792 E11.54095
G1 X92.907 Y113.469 E11.56437
G1 X93.732 Y114.520 E11.59921
G1 X94.460 Y115.597 E11.63315
G1 X94.786 Y116.144 E11.64975
G1 X95.079 Y116.692 E11.66598
G1 X95.341 Y117.240 E11.68183
G1 X95.571 Y117.793 E11.69745
G1 X95.763 Y118.348 E11.71277
G1 X95.903 Y118.897 E11.72758
G1 X95.990 Y119.438 E11.74187
G1 X96.019 Y119.965 E11.75564
G1 X96.008 Y120.219 E11.76229
G1 X95.972 Y120.466 E11.76879
G1 X95.908 Y120.709 E11.77534
G1 X95.816 Y120.938 E11.78178
G1 X95.702 Y121.144 E11.78793
G1 X95.570 Y121.331 E11.79392
G1 X95.417 Y121.503 E11.79992
G1 X95.246 Y121.657 E11.80592
G1 X94.869 Y121.900 E11.81761
G1 X94.667 Y121.991 E11.82340
G1 X94.250 Y122.113 E11.83476
G1 X93.829 Y122.169 E11.84584
G1 X93.601 Y122.176 E11.85178
G1 X93.216 Y122.153 E11.86184
G1 X92.817 Y122.082 E11.87243
G1 X92.416 Y121.969 E11.88329
G1 X92.017 Y121.816 E11.89443
G1 X91.624 Y121.634 E11.90574
G1 X91.236 Y121.427 E11.91723
G1 X90.456 Y120.936 E11.94127
G1 X90.067 Y120.654 E11.95381
G1 X89.294 Y120.026 E11.97981
G1 X88.909 Y119.679 E11.99333
G1 X88.159 Y118.946 E12.02069
G1 X87.444 Y118.170 E12.04823
G1 X86.767 Y117.356 E12.07585
G1 X86.135 Y116.514 E12.10333
G1 X85.840 Y116.086 E12.11690
G1 X85.563 Y115.660 E12.13015
G1 X85.067 Y114.815 E12.15574
G1 X84.653 Y113.981 E12.18003
G1 X84.481 Y113.571 E12.19163
G1 X84.209 Y112.761 E12.21393
G1 X84.118 Y112.366 E12.22450
G1 X84.062 Y111.980 E12.23468
G1 X84.042 Y111.605 E12.24449
G1 X84.056 Y111.323 E12.25186
G1 X84.103 Y111.045 E12.25921
G1 X84.198 Y110.764 E12.26696
G1 X84.366 Y110.480 E12.27556
G1 X84.627 Y110.230 E12.28498
G1 X84.941 Y110.070 E12.29419
G1 X85.078 Y110.037 E12.29787
G1 X85.206 Y109.718 E12.30684
G1 X85.382 Y109.459 E12.31501
G1 X85.562 Y109.291 E12.32144
G1 X85.927 Y109.683 F5400.000
G1 X86.086 Y109.590 E12.32625 F1890.000
G1 X86.342 Y109.528 E12.33311
G1 X86.759 Y109.541 E12.34401 F1890.000
G1 X87.084 Y109.604 E12.35264
G1 X87.420 Y109.708 E12.36180
G1 X87.766 Y109.849 E12.37157
G1 X88.122 Y110.023 E12.38190
G1 X88.486 Y110.225 E12.39278
G1 X89.180 Y110.671 E12.41430
G1 X90.265 Y110.663 E12.44262
G1 X90.812 Y110.612 E12.45695
G1 X91.436 Y110.524 E12.47338
G1 X92.804 Y110.270 E12.50970
G1 X94.050 Y109.989 E12.54304
G1 X94.822 Y109.783 E12.56389
G1 X95.155 Y109.739 E12.57265
G1 X95.510 Y109.745 E12.58193
G1 X95.703 Y109.777 E12.58702
G1 X95.885 Y109.832 E12.59198
G1 X96.057 Y109.914 E12.59695
G1 X96.216 Y110.030 E12.60209
G1 X96.343 Y110.187 E12.60736
G1 X96.420 Y110.374 E12.61264
G1 X96.447 Y110.594 E12.61842
G1 X96.403 Y110.771 E12.62318
G1 X96.299 Y110.917 E12.62785
G1 X96.172 Y111.028 E12.63225
G1 X96.026 Y111.123 E12.63681
G1 X95.680 Y111.298 E12.64694
G1 X95.253 Y111.470 E12.65893
G1 X94.755 Y111.640 E12.67268
G1 X93.589 Y111.970 E12.70430
G1 X92.339 Y112.242 E12.73768
G1 X91.212 Y112.422 E12.76746
G1 X92.068 Y113.320 E12.79982
G1 X92.497 Y113.814 E12.81690
G1 X92.910 Y114.322 E12.83398
G1 X93.664 Y115.354 E12.86735
G1 X94.319 Y116.407 E12.89970
G1 X94.601 Y116.934 E12.91528
G1 X94.851 Y117.458 E12.93046
G1 X95.070 Y117.983 E12.94530
G1 X95.249 Y118.502 E12.95961
G1 X95.378 Y119.006 E12.97320
G1 X95.457 Y119.495 E12.98613
G1 X95.483 Y119.967 E12.99847
G1 X95.446 Y120.359 E13.00872
G1 X95.331 Y120.707 E13.01830
G1 X95.149 Y120.998 E13.02726
G1 X94.910 Y121.239 E13.03612
G1 X94.772 Y121.338 E13.04054
G1 X94.471 Y121.492 E13.04937
G1 X94.141 Y121.588 E13.05834
G1 X93.794 Y121.635 E13.06747
G1 X93.280 Y121.620 E13.08090
G1 X92.937 Y121.559 E13.08999
G1 X92.585 Y121.460 E13.09952
G1 X92.226 Y121.323 E13.10956
G1 X91.863 Y121.154 E13.11999
G1 X91.499 Y120.961 E13.13076
G1 X90.762 Y120.496 E13.15350
G1 X90.390 Y120.226 E13.16549
G1 X89.646 Y119.621 E13.19051
G1 X89.273 Y119.286 E13.20360
G1 X88.544 Y118.573 E13.23022
G1 X87.847 Y117.817 E13.25704
G1 X87.512 Y117.424 E13.27052
G1 X87.187 Y117.024 E13.28395
G1 X86.572 Y116.204 E13.31072
G1 X86.016 Y115.375 E13.33675
G1 X85.767 Y114.966 E13.34926
G1 X85.329 Y114.157 E13.37326
G1 X85.143 Y113.763 E13.38464
G1 X84.840 Y112.993 E13.40622
G1 X84.727 Y112.622 E13.41634
G1 X84.645 Y112.267 E13.42586
G1 X84.595 Y111.927 E13.43482
G1 X84.578 Y111.604 E13.44328
G1 X84.589 Y111.381 E13.44910
G1 X84.624 Y111.176 E13.45450
G1 X84.688 Y110.988 E13.45969
G1 X84.789 Y110.816 E13.46491
G1 X84.940 Y110.672 E13.47034
G1 X85.129 Y110.576 E13.47587
G1 X85.336 Y110.525 E13.48145
G1 X85.536 Y110.512 E13.48667
G1 X85.608 Y110.155 E13.49617
G1 X85.681 Y109.971 E13.50135
G1 X85.791 Y109.810 E13.50641
G1 X85.883 Y109.724 E13.50972
G1 X86.493 Y109.158 F5400.000
G1 X88.171 Y122.967 F5400.000
G1 X88.611 Y122.895 E13.52135 F2700.000
G1 X90.161 Y122.761 E13.56195
G1 X90.161 Y122.786 E13.56260
G1 X93.531 Y122.685 E13.65058
G1 X94.804 Y122.677 E13.68380
G1 X94.804 Y122.700 E13.68441
G1 X95.469 Y122.783 E13.70191 F2700.000
G1 X95.839 Y122.887 E13.71193
G1 X96.016 Y122.963 E13.71697
G1 X96.194 Y123.063 E13.72228
G1 X96.367 Y123.197 E13.72799
G1 X96.518 Y123.363 E13.73386
G1 X96.636 Y123.549 E13.73961
G1 X96.720 Y123.750 E13.74530
G1 X96.767 Y123.957 E13.75083
G1 X96.770 Y124.349 E13.76104
G1 X96.733 Y124.544 E13.76624
G1 X96.658 Y124.748 E13.77190
G1 X96.542 Y124.942 E13.77780
G1 X96.400 Y125.100 E13.78335
G1 X96.245 Y125.223 E13.78850
G1 X96.082 Y125.316 E13.79341
G1 X95.922 Y125.381 E13.79793
G1 X95.645 Y125.451 E13.80538
G1 X95.127 Y125.500 E13.81894
G1 X89.100 Y125.575 E13.97625
G1 X88.722 Y125.620 E13.98619
G1 X88.435 Y125.700 E13.99395
G1 X88.229 Y125.792 E13.99984
G1 X88.016 Y125.927 E14.00641
G1 X88.325 Y126.507 E14.02355
G1 X88.761 Y127.138 E14.04357
G1 X89.334 Y127.814 E14.06671
G1 X89.546 Y128.031 E14.07461
G1 X89.984 Y128.414 E14.08979
G1 X90.608 Y128.377 E14.10612
G1 X91.918 Y128.401 E14.14032
G1 X93.075 Y128.471 E14.17056
G1 X94.070 Y128.577 E14.19666
G1 X94.912 Y128.709 E14.21890
G1 X95.603 Y128.866 E14.23740
G1 X96.167 Y129.058 E14.25296
G1 X96.408 Y129.175 E14.25993
G1 X96.645 Y129.327 E14.26729
G1 X96.911 Y129.599 E14.27722
G1 X97.063 Y130.036 E14.28931
G1 X96.995 Y130.500 E14.30154
G1 X96.809 Y130.855 E14.31200
G1 X96.528 Y131.115 E14.32198
G1 X96.231 Y131.266 E14.33067
G1 X95.956 Y131.347 E14.33815
G1 X95.690 Y131.394 E14.34522
G1 X95.006 Y131.427 E14.36308
G1 X90.592 Y131.287 E14.47833
G1 X88.918 Y131.271 E14.52200
G1 X88.536 Y131.316 E14.53205
G1 X88.226 Y131.400 E14.54042
G1 X87.905 Y131.554 E14.54973
G1 X87.690 Y131.744 E14.55719
G1 X87.842 Y131.961 E14.56410
G1 X87.812 Y131.961 E14.56489
G1 X88.402 Y132.600 E14.58758
G1 X88.944 Y133.117 E14.60713
G1 X89.353 Y133.463 E14.62112
G1 X89.801 Y133.803 E14.63579
G1 X90.277 Y134.127 E14.65081
G1 X90.767 Y134.422 E14.66575
G1 X91.259 Y134.667 E14.68007
G1 X91.340 Y134.701 E14.68238
G1 X92.813 Y134.641 E14.72083
G1 X93.529 Y134.677 E14.73955
G1 X93.992 Y134.739 E14.75175
G1 X94.422 Y134.827 E14.76319
G1 X94.830 Y134.948 E14.77430
G1 X95.215 Y135.119 E14.78530
G1 X95.403 Y135.235 E14.79107
G1 X95.600 Y135.394 E14.79767
G1 X95.786 Y135.619 E14.80529
G1 X95.921 Y135.909 E14.81364
G1 X95.966 Y136.218 E14.82180
G1 X95.941 Y136.473 E14.82848
G1 X95.863 Y136.709 E14.83496
G1 X95.732 Y136.923 E14.84151
G1 X95.571 Y137.086 E14.84749
G1 X95.412 Y137.198 E14.85256
G1 X95.108 Y137.338 E14.86130
G1 X94.826 Y137.408 E14.86889
G1 X94.555 Y137.445 E14.87601
G1 X94.004 Y137.472 E14.89041
G1 X91.214 Y137.494 E14.96322
G1 X88.870 Y137.558 E15.02440
G1 X87.154 Y137.666 E15.06927
G1 X86.208 Y137.800 E15.09422
G1 X86.228 Y138.185 E15.10429
G1 X86.900 Y138.221 E15.12185
G1 X87.481 Y138.312 E15.13721
G1 X88.066 Y138.461 E15.15294
G1 X88.650 Y138.665 E15.16910
G1 X89.226 Y138.915 E15.18549
G1 X89.792 Y139.203 E15.20206
G1 X90.349 Y139.532 E15.21894
G1 X90.897 Y139.899 E15.23615
G1 X91.432 Y140.302 E15.25363
G1 X91.952 Y140.736 E15.27130
G1 X92.457 Y141.202 E15.28923
G1 X92.947 Y141.699 E15.30745
G1 X93.415 Y142.221 E15.32574
G1 X93.853 Y142.760 E15.34388
G1 X94.263 Y143.316 E15.36190
G1 X94.644 Y143.889 E15.37986
G1 X94.993 Y144.477 E15.39771
G1 X95.306 Y145.078 E15.41537
G1 X95.582 Y145.689 E15.43287
G1 X95.822 Y146.315 E15.45037
G1 X96.018 Y146.953 E15.46778
G1 X96.160 Y147.593 E15.48489
G1 X96.246 Y148.232 E15.50171
G1 X96.275 Y148.862 E15.51819
G1 X96.232 Y149.527 E15.53556
G1 X96.102 Y150.176 E15.55285
G1 X95.994 Y150.505 E15.56189
G1 X95.851 Y150.825 E15.57101
G1 X95.675 Y151.126 E15.58011
G1 X95.466 Y151.410 E15.58933
G1 X95.218 Y151.674 E15.59878
G1 X94.935 Y151.909 E15.60838
G1 X94.624 Y152.112 E15.61805
G1 X94.282 Y152.286 E15.62808
G1 X93.899 Y152.427 E15.63874
G1 X93.483 Y152.525 E15.64987
G1 X93.047 Y152.581 E15.66136
G1 X92.568 Y152.600 E15.67387
G1 X91.725 Y152.529 E15.69594
G1 X90.841 Y152.319 E15.71965
G1 X89.937 Y151.978 E15.74486
G1 X89.005 Y151.512 E15.77205
G1 X88.051 Y150.915 E15.80143
G1 X87.088 Y150.184 E15.83298
G1 X86.117 Y149.323 E15.86685
G1 X85.136 Y148.335 E15.90319
G1 X84.365 Y147.446 E15.93389
G1 X83.674 Y146.524 E15.96396
G1 X83.072 Y145.610 E15.99252
G1 X82.563 Y144.729 E16.01906
G1 X82.150 Y143.899 E16.04326
G1 X81.981 Y143.506 E16.05443
G1 X81.717 Y142.769 E16.07486
G1 X81.627 Y142.433 E16.08392
G1 X81.568 Y142.113 E16.09243
G1 X81.546 Y141.812 E16.10030
G1 X81.561 Y141.459 E16.10951
G1 X81.609 Y141.131 E16.11817
G1 X81.695 Y140.813 E16.12677
G1 X81.832 Y140.493 E16.13584
G1 X82.057 Y140.170 E16.14610
G1 X82.388 Y139.906 E16.15717
G1 X82.776 Y139.753 E16.16806
G1 X83.155 Y139.712 E16.17800
G1 X83.447 Y139.315 E16.19085
G1 X83.620 Y139.135 E16.19736
G1 X84.015 Y138.820 E16.21054
G1 X84.240 Y138.682 E16.21744
G1 X84.483 Y138.560 E16.22453
G1 X85.014 Y138.362 E16.23932
G1 X85.536 Y138.249 E16.25326
G1 X85.509 Y137.861 E16.26341
G1 X85.158 Y137.851 E16.27257
G1 X84.727 Y137.789 E16.28394
G1 X84.505 Y137.720 E16.29002
G1 X84.265 Y137.598 E16.29705
G1 X84.021 Y137.387 E16.30547
G1 X83.837 Y137.072 E16.31498
G1 X83.778 Y136.728 E16.32410
G1 X83.818 Y136.408 E16.33250
G1 X83.925 Y136.133 E16.34021
G1 X84.081 Y135.903 E16.34747
G1 X84.269 Y135.714 E16.35442
G1 X84.485 Y135.561 E16.36133
G1 X84.716 Y135.441 E16.36814
G1 X85.218 Y135.263 E16.38203
G1 X86.149 Y135.056 E16.40692
G1 X85.381 Y134.276 E16.43548
G1 X84.964 Y133.774 E16.45252
G1 X84.626 Y133.268 E16.46841
G1 X84.496 Y133.006 E16.47603
G1 X84.398 Y132.720 E16.48392
G1 X84.360 Y132.428 E16.49160
G1 X84.379 Y132.079 E16.50072
G1 X84.430 Y131.767 E16.50897
G1 X84.516 Y131.463 E16.51722
G1 X84.634 Y131.172 E16.52542
G1 X84.778 Y130.899 E16.53349
G1 X84.946 Y130.641 E16.54151
G1 X85.137 Y130.397 E16.54959
G1 X85.576 Y129.958 E16.56580
G1 X86.080 Y129.575 E16.58231
G1 X86.465 Y129.335 E16.59415
G1 X86.002 Y128.703 E16.61459
G1 X85.604 Y128.087 E16.63371
G1 X85.272 Y127.495 E16.65144
G1 X85.009 Y126.943 E16.66739
G1 X84.817 Y126.436 E16.68154
G1 X84.701 Y125.971 E16.69403
G1 X84.679 Y125.711 E16.70084
G1 X84.716 Y125.414 E16.70866
G1 X84.812 Y125.135 E16.71636
G1 X84.942 Y124.888 E16.72366
G1 X85.102 Y124.655 E16.73103
G1 X85.293 Y124.429 E16.73876
G1 X85.513 Y124.215 E16.74676
G1 X85.756 Y124.015 E16.75496
G1 X86.319 Y123.646 E16.77253
G1 X86.981 Y123.329 E16.79168
G1 X87.748 Y123.066 E16.81286
G1 X88.113 Y122.981 E16.82262
G1 X88.234 Y123.502 F5400.000
G1 X88.681 Y123.426 E16.83446 F1890.000
G1 X89.625 Y123.341 E16.85918
G1 X92.146 Y123.251 E16.92500
G1 X93.537 Y123.221 E16.96133
G1 X94.268 Y123.216 E16.98040 F1890.000
G1 X95.013 Y123.256 E16.99987
