; generated by Slic3r 1.1.7 on 2014-12-19 at 20:57:09

; perimeters extrusion width = 0.40mm
; infill extrusion width = 0.42mm
; solid infill extrusion width = 0.42mm
; top infill extrusion width = 0.42mm

; perimeters extrusion width = 0.50mm
; infill extrusion width = 0.70mm
; solid infill extrusion width = 0.70mm
; top infill extrusion width = 0.70mm

G21 ; set units to millimeters
M190 S65 ; wait for bed temperature to be reached
M104 S200 T0 ; set temperature
M104 S180 T1 ; set temperature
G28 ; home all axes
M109 S200 T0 ; wait for temperature to be reached
M109 S180 T1 ; wait for temperature to be reached
G90 ; use absolute coordinates
G92 E0
M82 ; use absolute distances for extrusion
T0
G92 E0
M106 S89
G1 F2400.000 E-3.00000
G1 Z0.820 F9000.000
G92 E0
G1 X84.675 Y16.299 F9000.000
G1 Z0.220 F9000.000
G1 E3.00000 F2400.000
G1 X86.010 Y13.075 E3.06267 F1800.000
G1 X87.100 Y11.575 E3.09597
G1 X88.835 Y9.863 E3.13973
G1 X90.838 Y8.860 E3.17996
G1 X92.601 Y8.287 E3.21325
G1 X94.910 Y7.921 E3.25524
G1 X118.910 Y7.921 E3.68623
G1 X121.220 Y8.287 E3.72822
G1 X122.983 Y8.860 E3.76152 F1800.000
G1 X125.147 Y9.981 E3.80528
G1 X126.721 Y11.575 E3.84551
G1 X127.811 Y13.075 E3.87880
G1 X129.146 Y16.300 E3.94147
G1 X129.385 Y18.396 E3.97936
G1 X129.385 Y77.449 E5.03982
G1 X128.741 Y156.139 E6.45297
G1 X128.594 Y157.066 E6.46983
G1 X127.258 Y160.291 E6.53250
G1 X125.993 Y162.022 E6.57101
G1 X118.175 Y171.948 E6.79791
G1 X117.305 Y172.878 E6.82078
G1 X116.062 Y173.997 E6.85081
G1 X114.798 Y174.915 E6.87886
G1 X113.349 Y175.751 E6.90890
G1 X111.922 Y176.387 E6.93696
G1 X110.331 Y176.904 E6.96700
G1 X108.803 Y177.229 E6.99505
G1 X107.139 Y177.404 E7.02509
G1 X105.577 Y177.404 E7.05315
G1 X103.914 Y177.229 E7.08318
G1 X102.385 Y176.904 E7.11124
G1 X100.795 Y176.387 E7.14128
G1 X99.367 Y175.751 E7.16934
G1 X97.919 Y174.915 E7.19938
G1 X96.655 Y173.997 E7.22743
G1 X95.412 Y172.878 E7.25747
G1 X94.541 Y171.948 E7.28033
G1 X86.548 Y161.791 E7.51245
G1 X85.458 Y160.291 E7.54574
G1 X84.123 Y157.066 E7.60842
G1 X83.884 Y154.970 E7.64630
G1 X83.884 Y100.920 E8.61692
G1 X84.528 Y17.227 E10.11991
G1 X84.665 Y16.359 E10.13569
G1 X85.030 Y16.416 F9000.000
G1 X85.039 Y16.357 E10.13676 F1800.000
G1 X86.309 Y13.292 E10.19635
G1 X87.398 Y11.792 E10.22964
G1 X89.097 Y10.130 E10.27231
G1 X90.951 Y9.210 E10.30949
G1 X92.715 Y8.637 E10.34278
G1 X94.910 Y8.290 E10.38270
G1 X118.910 Y8.290 E10.81369
G1 X121.106 Y8.637 E10.85361
G1 X122.869 Y9.210 E10.88690 F1800.000
G1 X124.974 Y10.312 E10.92957
G1 X126.423 Y11.792 E10.96675
G1 X127.512 Y13.292 E11.00004
G1 X128.782 Y16.357 E11.05963
G1 X129.016 Y18.396 E11.09647
G1 X129.016 Y77.446 E12.15689
G1 X128.377 Y156.081 E13.56905
G1 X128.230 Y157.009 E13.58590
G1 X126.960 Y160.074 E13.64549
G1 X125.704 Y161.794 E13.68374
G1 X117.885 Y171.720 E13.91064
G1 X117.058 Y172.604 E13.93238
G1 X115.815 Y173.723 E13.96241
G1 X114.614 Y174.596 E13.98908
G1 X113.165 Y175.432 E14.01912
G1 X111.808 Y176.037 E14.04580
G1 X110.217 Y176.553 E14.07583
G1 X108.764 Y176.862 E14.10251
G1 X107.101 Y177.037 E14.13254
G1 X105.616 Y177.037 E14.15922
G1 X103.952 Y176.862 E14.18925
G1 X102.499 Y176.553 E14.21593
G1 X100.909 Y176.037 E14.24596
G1 X99.551 Y175.432 E14.27264
G1 X98.103 Y174.596 E14.30268
G1 X96.901 Y173.723 E14.32935
G1 X95.658 Y172.604 E14.35938
G1 X94.831 Y171.720 E14.38112
G1 X86.846 Y161.574 E14.61298
G1 X85.756 Y160.074 E14.64628
G1 X84.487 Y157.009 E14.70586
G1 X84.252 Y154.970 E14.74270
G1 X84.253 Y100.923 E15.71328
G1 X84.892 Y17.284 E17.21528
G1 X85.020 Y16.476 E17.22998
G1 F2400.000 E7.22998
G1 Z0.820 F9000.000
G92 E0
T1
G92 E0
G1 X38.334 Y15.533 F9000.000
G1 Z0.220 F9000.000
G1 X38.353 Y15.415 E0.00215 F1800.000
G1 X39.557 Y12.508 E0.05865
G1 X40.647 Y11.008 E0.09194
G1 X42.307 Y9.398 E0.13348
G1 X44.015 Y8.561 E0.16764
G1 X45.779 Y7.988 E0.20094
G1 X47.860 Y7.658 E0.23879
G1 X71.860 Y7.658 E0.66977
G1 X73.942 Y7.988 E0.70762
G1 X75.706 Y8.561 E0.74092 F1800.000
G1 X77.750 Y9.643 E0.78245
G1 X79.074 Y11.008 E0.81661
G1 X80.164 Y12.508 E0.84991
G1 X81.368 Y15.415 E0.90640
G1 X81.598 Y17.396 E0.94221
G1 X81.597 Y76.443 E2.00258
G1 X80.962 Y155.024 E3.41375
G1 X80.816 Y155.951 E3.43061
G1 X79.612 Y158.857 E3.48710
G1 X78.364 Y160.566 E3.52509
G1 X69.761 Y171.330 E3.77254
G1 X68.519 Y172.449 E3.80257
G1 X67.379 Y173.277 E3.82786
G1 X65.931 Y174.113 E3.85789
G1 X64.644 Y174.686 E3.88319
G1 X63.053 Y175.203 E3.91322
G1 X61.676 Y175.496 E3.93851
G1 X60.012 Y175.670 E3.96855
G1 X58.604 Y175.670 E3.99384
G1 X56.941 Y175.496 E4.02387
G1 X55.563 Y175.203 E4.04917
G1 X53.972 Y174.686 E4.07920
G1 X52.686 Y174.113 E4.10450
G1 X51.237 Y173.277 E4.13453
G1 X50.098 Y172.449 E4.15982
G1 X48.070 Y170.492 E4.21042
G1 X40.094 Y160.357 E4.44202
G1 X39.004 Y158.857 E4.47532
G1 X37.801 Y155.951 E4.53181
G1 X37.571 Y153.970 E4.56762
G1 X37.571 Y99.925 E5.53815
G1 X38.206 Y16.342 E7.03916
G1 X38.322 Y15.607 E7.05251
G1 X38.687 Y15.665 F9000.000
G1 X38.717 Y15.472 E7.05601 F1800.000
G1 X39.855 Y12.725 E7.10941
G1 X40.945 Y11.225 E7.14271
G1 X42.567 Y9.668 E7.18308
G1 X44.129 Y8.911 E7.21426
G1 X45.893 Y8.339 E7.24755
G1 X47.860 Y8.027 E7.28333
G1 X71.860 Y8.027 E7.71432
G1 X73.828 Y8.339 E7.75010
G1 X75.592 Y8.911 E7.78339 F1800.000
G1 X77.574 Y9.973 E7.82377
G1 X78.776 Y11.225 E7.85494
G1 X79.866 Y12.725 E7.88824
G1 X81.004 Y15.472 E7.94164
G1 X81.229 Y17.396 E7.97641
G1 X81.229 Y76.441 E9.03673
G1 X80.598 Y154.966 E10.44692
G1 X80.452 Y155.893 E10.46377
G1 X79.314 Y158.641 E10.51717
G1 X78.075 Y160.338 E10.55491
G1 X69.515 Y171.056 E10.80123
G1 X68.272 Y172.175 E10.83126
G1 X67.195 Y172.957 E10.85517
G1 X65.747 Y173.794 E10.88520
G1 X64.530 Y174.335 E10.90912
G1 X62.939 Y174.852 E10.93915
G1 X61.637 Y175.129 E10.96306
G1 X59.974 Y175.304 E10.99309
G1 X58.643 Y175.304 E11.01700
G1 X56.979 Y175.129 E11.04703
G1 X55.677 Y174.852 E11.07094
G1 X54.086 Y174.335 E11.10097
G1 X52.870 Y173.794 E11.12489
G1 X51.421 Y172.957 E11.15492
G1 X50.345 Y172.175 E11.17883
G1 X48.360 Y170.264 E11.22830
G1 X40.392 Y160.141 E11.45965
G1 X39.303 Y158.641 E11.49294
G1 X38.165 Y155.893 E11.54634
G1 X37.940 Y153.970 E11.58111
G1 X37.940 Y99.928 E12.55160
G1 X38.570 Y16.400 E14.05161
G1 X38.675 Y15.739 E14.06362
G1 F3600.000 E4.06362
G1 Z0.820 F9000.000
G92 E0
T0
G92 E0
G1 X92.237 Y17.527 F9000.000
G1 Z0.220 F9000.000
G1 E10.00000 F2400.000
G1 X93.258 Y16.122 E10.03119 F1800.000
G1 X94.939 Y15.576 E10.06293
G1 X118.882 Y15.576 E10.49289
G1 X120.486 Y16.097 E10.52318
G1 X120.563 Y16.122 E10.52462 F1800.000
G1 X121.584 Y17.527 E10.55582
G1 X121.584 Y18.576 E10.57465
G1 X121.730 Y18.576 E10.57729
G1 X121.730 Y77.216 E11.63033
G1 X121.584 Y77.216 E11.63296
G1 X121.584 Y78.264 E11.65180
G1 X120.563 Y79.670 E11.68299
G1 X118.882 Y80.216 E11.71472
G1 X113.561 Y80.216 E11.81027
G1 X114.347 Y81.979 E11.84494
G1 X114.687 Y83.578 E11.87429
G1 X114.687 Y85.213 E11.90365
G1 X114.347 Y86.812 E11.93300
G1 X113.682 Y88.305 E11.96235
G1 X112.721 Y89.627 E11.99171
G1 X111.506 Y90.721 E12.02106
G1 X110.091 Y91.539 E12.05042
G1 X108.562 Y92.041 E12.07931
G1 X106.910 Y92.215 E12.10914
G1 X105.285 Y92.044 E12.13849
G1 X103.730 Y91.539 E12.16784
G1 X102.315 Y90.721 E12.19720
G1 X101.100 Y89.627 E12.22655
G1 X100.139 Y88.305 E12.25591
G1 X99.474 Y86.812 E12.28526
G1 X99.134 Y85.213 E12.31461
G1 X99.134 Y83.578 E12.34397
G1 X99.474 Y81.979 E12.37332
G1 X100.259 Y80.216 E12.40799
G1 X94.939 Y80.216 E12.50354
G1 X93.258 Y79.670 E12.53527
G1 X92.237 Y78.264 E12.56646
G1 X92.237 Y77.216 E12.58530
G1 X92.090 Y77.216 E12.58793
G1 X92.090 Y18.576 E13.64097
G1 X92.237 Y18.576 E13.64361
G1 X92.237 Y17.587 E13.66136
G1 F2400.000 E10.66136
G1 Z0.820 F9000.000
G92 E0
G1 X120.513 Y16.173 F9000.000
G1 X120.335 Y16.435 F9000.000
G1 Z0.220 F9000.000
G1 E3.00000 F2400.000
G1 X121.215 Y17.647 E3.02689 F1800.000
G1 X121.215 Y18.944 E3.05019
G1 X121.362 Y18.944 E3.05283
G1 X121.362 Y76.847 E4.09263
G1 X121.215 Y76.847 E4.09527
G1 X121.215 Y78.144 E4.11857
G1 X120.335 Y79.356 E4.14546
G1 X118.824 Y79.847 E4.17400
G1 X112.994 Y79.847 E4.27868
G1 X113.994 Y82.094 E4.32285
G1 X114.318 Y83.617 E4.35081
G1 X114.318 Y85.174 E4.37878
G1 X113.994 Y86.697 E4.40674
G1 X113.361 Y88.120 E4.43470
G1 X112.446 Y89.379 E4.46266
G1 X111.288 Y90.421 E4.49063
G1 X109.940 Y91.200 E4.51859
G1 X108.459 Y91.681 E4.54655
G1 X106.910 Y91.844 E4.57452
G1 X105.362 Y91.681 E4.60248
G1 X103.881 Y91.200 E4.63044
G1 X102.532 Y90.421 E4.65840
G1 X101.375 Y89.379 E4.68637
G1 X100.460 Y88.120 E4.71433
G1 X99.827 Y86.697 E4.74229
G1 X99.503 Y85.174 E4.77025
G1 X99.503 Y83.617 E4.79822
G1 X99.827 Y82.094 E4.82618
G1 X100.827 Y79.847 E4.87035
G1 X94.997 Y79.847 E4.97503
G1 X93.486 Y79.356 E5.00357
G1 X92.606 Y78.144 E5.03046
G1 X92.606 Y76.847 E5.05376
G1 X92.459 Y76.847 E5.05640
G1 X92.459 Y18.944 E6.09620
G1 X92.606 Y18.944 E6.09884
G1 X92.606 Y17.647 E6.12214
G1 X93.486 Y16.435 E6.14903
G1 X94.997 Y15.944 E6.17757
G1 X118.824 Y15.944 E6.60543 F1800.000
G1 X120.278 Y16.417 E6.63289
G1 X120.107 Y16.749 F9000.000
G1 X120.846 Y17.766 E6.65548 F1800.000
G1 X120.846 Y19.313 E6.68325
G1 X120.993 Y19.313 E6.68588
G1 X120.993 Y76.478 E7.71245
G1 X120.846 Y76.478 E7.71509
G1 X120.846 Y78.025 E7.74285
G1 X120.107 Y79.042 E7.76545
G1 X118.765 Y79.478 E7.79078
G1 X112.426 Y79.478 E7.90461
G1 X113.642 Y82.208 E7.95828
G1 X113.949 Y83.656 E7.98485
G1 X113.949 Y85.135 E8.01142
G1 X113.642 Y86.583 E8.03799
G1 X113.040 Y87.934 E8.06456
G1 X112.170 Y89.131 E8.09113
G1 X111.071 Y90.122 E8.11771
G1 X109.789 Y90.861 E8.14428
G1 X108.382 Y91.319 E8.17085
G1 X106.910 Y91.473 E8.19742
G1 X105.439 Y91.319 E8.22399
G1 X104.032 Y90.861 E8.25056
G1 X102.750 Y90.122 E8.27713
G1 X101.651 Y89.131 E8.30371
G1 X100.781 Y87.934 E8.33028
G1 X100.179 Y86.583 E8.35685
G1 X99.871 Y85.135 E8.38342
G1 X99.871 Y83.656 E8.40999
G1 X100.179 Y82.208 E8.43656
G1 X101.395 Y79.478 E8.49023
G1 X95.056 Y79.478 E8.60406
G1 X93.714 Y79.042 E8.62939
G1 X92.974 Y78.025 E8.65198
G1 X92.974 Y76.478 E8.67975
G1 X92.828 Y76.478 E8.68239
G1 X92.828 Y19.313 E9.70895
G1 X92.974 Y19.313 E9.71159
G1 X92.974 Y17.766 E9.73936
G1 X93.714 Y16.749 E9.76195
G1 X95.056 Y16.313 E9.78729
G1 X118.705 Y16.313 E10.21198
G1 F2400.000 E7.21198
G1 Z0.820 F9000.000
G92 E0
G1 X115.563 Y21.122 F9000.000
G1 Z0.220 F9000.000
G1 E3.00000 F2400.000
G1 X116.584 Y22.527 E3.03119 F1800.000
G1 X116.584 Y23.576 E3.05003
G1 X116.730 Y23.576 E3.05266
G1 X116.730 Y72.216 E3.92613
G1 X116.584 Y72.216 E3.92876
G1 X116.584 Y73.264 E3.94759
G1 X115.563 Y74.669 E3.97879
G1 X113.882 Y75.216 E4.01052
G1 X99.939 Y75.216 E4.26091
G1 X98.258 Y74.670 E4.29264
G1 X97.237 Y73.264 E4.32384
G1 X97.237 Y72.216 E4.34267
G1 X97.090 Y72.216 E4.34530
G1 X97.090 Y23.576 E5.21877
G1 X97.237 Y23.576 E5.22140
G1 X97.237 Y22.527 E5.24024
G1 X98.258 Y21.122 E5.27143
G1 X99.939 Y20.576 E5.30316
G1 X113.882 Y20.576 E5.55355 F1800.000
G1 X115.505 Y21.103 E5.58420
G1 X115.335 Y21.435 F9000.000
G1 X116.215 Y22.647 E5.61110 F1800.000
G1 X116.215 Y23.944 E5.63440
G1 X116.362 Y23.944 E5.63703
G1 X116.362 Y71.847 E6.49726
G1 X116.215 Y71.847 E6.49990
G1 X116.215 Y73.144 E6.52320
G1 X115.335 Y74.356 E6.55009
G1 X113.824 Y74.847 E6.57862
G1 X99.997 Y74.847 E6.82691
G1 X98.486 Y74.356 E6.85545
G1 X97.606 Y73.144 E6.88234
G1 X97.606 Y71.847 E6.90564
G1 X97.459 Y71.847 E6.90827
G1 X97.459 Y33.887 E7.58995
G1 X97.693 Y33.838 E7.59424
G1 X97.761 Y33.992 E7.59726
G1 X97.974 Y34.214 E7.60280
G1 X98.221 Y34.343 E7.60779
G1 X98.446 Y34.409 E7.61201
G1 X98.893 Y34.471 E7.62010
G1 X110.874 Y34.415 E7.83527
G1 X113.041 Y34.456 E7.87419
G1 X114.592 Y34.542 E7.90208
G1 X114.847 Y34.528 E7.90666
G1 X115.100 Y34.476 E7.91131
G1 X115.349 Y34.369 E7.91618
G1 X115.555 Y34.201 E7.92094
G1 X115.690 Y34.019 E7.92501
G1 X115.782 Y33.837 E7.92868
G1 X115.840 Y33.638 E7.93239
G1 X115.862 Y33.401 E7.93666
G1 X115.803 Y33.116 E7.94189
G1 X115.650 Y32.866 E7.94716
G1 X115.457 Y32.674 E7.95205
G1 X115.228 Y32.509 E7.95713
G1 X114.950 Y32.366 E7.96273
G1 X114.635 Y32.263 E7.96868
G1 X114.295 Y32.198 E7.97490
G1 X113.925 Y32.165 E7.98157
G1 X112.901 Y32.165 E7.99996
G1 X108.745 Y32.228 E8.07460
G1 X108.269 Y31.691 E8.08748
G1 X107.670 Y30.856 E8.10593
G1 X107.325 Y30.270 E8.11814
G1 X107.038 Y29.680 E8.12993
G1 X106.818 Y29.104 E8.14100
G1 X106.739 Y28.832 E8.14609
G1 X106.652 Y28.345 E8.15498
G1 X106.656 Y27.950 E8.16207
G1 X106.691 Y27.822 E8.16445
G1 X106.738 Y27.735 E8.16622
G1 X106.883 Y27.616 E8.16960
G1 X107.043 Y27.560 E8.17263
G1 X107.287 Y27.518 E8.17707
G1 X107.621 Y27.502 E8.18309
G1 X108.693 Y27.506 E8.20233
G1 X110.549 Y27.545 E8.23567
G1 X113.080 Y27.650 E8.28117
G1 X113.647 Y27.649 E8.29136
G1 X113.980 Y27.597 E8.29740
G1 X114.269 Y27.483 E8.30298
G1 X114.505 Y27.324 E8.30808
G1 X114.607 Y27.224 E8.31065
G1 X114.755 Y27.011 E8.31531
G1 X114.810 Y26.894 E8.31763
G1 X114.870 Y26.677 E8.32168
G1 X114.900 Y26.309 E8.32831
G1 X114.748 Y25.918 E8.33583
G1 X114.362 Y25.752 E8.34338
G1 X113.771 Y25.626 E8.35422
G1 X113.011 Y25.550 E8.36795
G1 X112.073 Y25.500 E8.38481
G1 X110.640 Y25.460 E8.41056
G1 X107.087 Y25.453 E8.47436
G1 X106.201 Y25.520 E8.49031
G1 X105.820 Y25.581 E8.49725
G1 X105.474 Y25.661 E8.50362
G1 X105.157 Y25.760 E8.50959
G1 X104.865 Y25.882 E8.51527
G1 X104.603 Y26.029 E8.52066
G1 X104.371 Y26.199 E8.52584
G1 X104.168 Y26.396 E8.53091
G1 X103.999 Y26.621 E8.53596
G1 X103.874 Y26.862 E8.54084
G1 X103.789 Y27.104 E8.54545
G1 X103.698 Y27.601 E8.55453
G1 X103.687 Y27.862 E8.55922
G1 X103.703 Y28.235 E8.56592
G1 X103.751 Y28.611 E8.57272
G1 X103.830 Y28.987 E8.57962
G1 X104.071 Y29.729 E8.59362
G1 X104.221 Y30.088 E8.60062
G1 X104.577 Y30.792 E8.61479
G1 X104.996 Y31.464 E8.62900
G1 X105.579 Y32.239 E8.64643
G1 X99.144 Y32.302 E8.76200
G1 X98.582 Y32.383 E8.77219
G1 X98.317 Y32.463 E8.77716
G1 X98.051 Y32.594 E8.78249
G1 X97.811 Y32.808 E8.78826
G1 X97.681 Y33.046 E8.79313
G1 X97.459 Y32.989 E8.79724
G1 X97.459 Y23.944 E8.95966
G1 X97.606 Y23.944 E8.96230
G1 X97.606 Y22.647 E8.98560
G1 X98.486 Y21.435 E9.01249
G1 X99.997 Y20.944 E9.04103
G1 X113.764 Y20.944 E9.28824
G1 F2400.000 E6.28824
G1 Z0.820 F9000.000
G92 E0
G1 X112.964 Y26.554 F9000.000
G1 X115.993 Y29.616 F9000.000
G1 Z0.220 F9000.000
G1 E3.00000 F2400.000
G1 X115.993 Y32.687 E3.05515 F1800.000
G1 X115.696 Y32.391 E3.06268
G1 X115.420 Y32.193 E3.06878
G1 X115.093 Y32.025 E3.07540
G1 X114.728 Y31.906 E3.08229
G1 X114.346 Y31.832 E3.08927
G1 X113.942 Y31.796 E3.09656
G1 X112.898 Y31.797 E3.11530
G1 X108.902 Y31.858 E3.18706
G1 X108.556 Y31.460 E3.19654
G1 X108.163 Y30.932 E3.20836
G1 X107.809 Y30.379 E3.22015
G1 X107.504 Y29.812 E3.23171
G1 X107.264 Y29.259 E3.24255
G1 X107.096 Y28.741 E3.25232
G1 X107.019 Y28.311 E3.26017
G1 X107.026 Y27.957 E3.26652
G1 X107.327 Y27.885 E3.27209
G1 X107.629 Y27.870 E3.27752
G1 X109.665 Y27.889 E3.31408
G1 X113.073 Y28.018 E3.37532
G1 X113.674 Y28.017 E3.38611
G1 X114.075 Y27.954 E3.39342
G1 X114.441 Y27.809 E3.40048
G1 X114.746 Y27.604 E3.40709
G1 X114.991 Y27.330 E3.41368
G1 X115.153 Y27.030 E3.41981
G1 X115.250 Y26.634 E3.42712
G1 X115.271 Y26.246 E3.43411
G1 X115.035 Y25.641 E3.44576
G1 X114.486 Y25.403 E3.45651
G1 X114.263 Y25.341 E3.46067
G1 X113.581 Y25.231 E3.47308
G1 X112.740 Y25.163 E3.48823
G1 X110.647 Y25.091 E3.52583
G1 X109.101 Y25.076 E3.55359
G1 X107.074 Y25.084 E3.59000
G1 X106.154 Y25.155 E3.60657
G1 X105.749 Y25.219 E3.61392
G1 X105.378 Y25.305 E3.62077
G1 X105.030 Y25.414 E3.62731
G1 X104.704 Y25.550 E3.63367
G1 X104.403 Y25.718 E3.63985
G1 X104.132 Y25.917 E3.64589
G1 X103.891 Y26.152 E3.65193
G1 X103.686 Y26.424 E3.65805
G1 X103.535 Y26.716 E3.66395
G1 X103.435 Y27.001 E3.66937
G1 X103.369 Y27.282 E3.67456
G1 X103.330 Y27.569 E3.67977
G1 X103.318 Y27.863 E3.68504
G1 X103.335 Y28.267 E3.69230
G1 X103.387 Y28.672 E3.69965
G1 X103.472 Y29.077 E3.70707
G1 X103.588 Y29.476 E3.71453
G1 X103.727 Y29.862 E3.72190
G1 X104.061 Y30.610 E3.73660
G1 X104.467 Y31.328 E3.75141
G1 X104.825 Y31.877 E3.76320
G1 X99.120 Y31.934 E3.86567
G1 X98.801 Y31.966 E3.87142
G1 X98.494 Y32.024 E3.87702
G1 X98.182 Y32.119 E3.88289
G1 X97.828 Y32.293 E3.88997
