; generated by Slic3r 1.2.1 on 2014-12-19 at 19:44:00

; external perimeters extrusion width = 0.40mm
; perimeters extrusion width = 0.48mm
; infill extrusion width = 0.48mm
; solid infill extrusion width = 0.48mm
; top infill extrusion width = 0.48mm

; external perimeters extrusion width = 0.50mm
; perimeters extrusion width = 0.72mm
; infill extrusion width = 0.72mm
; solid infill extrusion width = 0.72mm
; top infill extrusion width = 0.72mm

M190 S65 ; wait for bed temperature to be reached
M104 S200 T0 ; set temperature
M104 S190 T1 ; set temperature
G28 ; home all axes
M109 S200 T0 ; wait for temperature to be reached
M109 S190 T1 ; wait for temperature to be reached
G21 ; set units to millimeters
G90 ; use absolute coordinates
M82 ; use absolute distances for extrusion
G92 E0
T0
G92 E0
M106 S89
G1 E-3.00000 F2400.000
G92 E0
G1 Z0.600 F5400.000
G1 X71.657 Y9.935 F5400.000
G1 Z0.260 F5400.000
G1 E3.00000 F2400.000
G1 X71.804 Y9.008 E3.02449 F2700.000
G1 X72.972 Y6.188 E3.10413
G1 X74.062 Y4.688 E3.15251
G1 X75.701 Y3.107 E3.21196
G1 X77.330 Y2.314 E3.25922
G1 X79.093 Y1.741 E3.30761
G1 X81.113 Y1.421 E3.36096
G1 X105.113 Y1.421 E3.98727
G1 X107.132 Y1.741 E4.04062
G1 X108.895 Y2.314 E4.08901 F2700.000
G1 X110.906 Y3.385 E4.14845
G1 X112.163 Y4.688 E4.19572
G1 X113.253 Y6.188 E4.24410
G1 X114.421 Y9.008 E4.32374
G1 X114.568 Y9.935 E4.34823
G1 X114.648 Y10.957 E4.37499
G1 X114.648 Y80.007 E6.17691
G1 X114.035 Y159.544 E8.25255
G1 X113.955 Y160.516 E8.27799
G1 X113.808 Y161.443 E8.30249
G1 X112.641 Y164.262 E8.38212
G1 X111.398 Y165.965 E8.43713
G1 X103.579 Y175.890 E8.76686
G1 X102.818 Y176.703 E8.79592
G1 X101.575 Y177.822 E8.83956
G1 X100.470 Y178.625 E8.87521
G1 X99.022 Y179.462 E8.91886
G1 X97.773 Y180.018 E8.95452
G1 X96.183 Y180.534 E8.99816
G1 X94.846 Y180.818 E9.03382
G1 X93.183 Y180.993 E9.07746
G1 X91.817 Y180.993 E9.11312
G1 X90.154 Y180.818 E9.15676
G1 X88.817 Y180.534 E9.19242
G1 X87.227 Y180.018 E9.23606
G1 X85.978 Y179.462 E9.27172
G1 X84.530 Y178.625 E9.31537
G1 X83.425 Y177.822 E9.35102
G1 X82.182 Y176.703 E9.39466
G1 X81.421 Y175.890 E9.42372
G1 X73.602 Y165.965 E9.75345
G1 X72.359 Y164.262 E9.80846
G1 X71.192 Y161.443 E9.88809
G1 X71.045 Y160.516 E9.91259
G1 X70.964 Y159.493 E9.93934
G1 X70.965 Y100.449 E11.48017
G1 X71.577 Y10.912 E13.81675
G1 X71.652 Y9.995 E13.84078
G1 E10.84078 F2400.000
G92 E0
G1 Z0.860 F5400.000
G1 X83.368 Y99.658 F5400.000
G1 Z0.260 F5400.000
G1 E3.00000 F2400.000
G1 X101.632 Y99.658 E3.47663 F2700.000
G1 X103.389 Y100.229 E3.52484
G1 X103.780 Y100.355 E3.53556 F2700.000
G1 X105.189 Y102.295 E3.59811
G1 X105.189 Y102.658 E3.60758
G1 X105.336 Y102.658 E3.61142
G1 X105.336 Y157.329 E5.03811
G1 X105.189 Y157.329 E5.04194
G1 X105.189 Y157.692 E5.05141
G1 X103.780 Y159.631 E5.11397
G1 X101.632 Y160.329 E5.17289
G1 X83.368 Y160.329 E5.64952
G1 X81.220 Y159.631 E5.70845
G1 X79.811 Y157.692 E5.77100
G1 X79.811 Y157.329 E5.78048
G1 X79.664 Y157.329 E5.78431
G1 X79.664 Y102.658 E7.21100
G1 X79.811 Y102.658 E7.21483
G1 X79.811 Y102.295 E7.22430
G1 X81.220 Y100.355 E7.28686
G1 X83.311 Y99.676 E7.34422
G1 X83.452 Y100.193 F5400.000
G1 X101.548 Y100.193 E7.81642 F2700.000
G1 X103.449 Y100.811 E7.86859
G1 X104.653 Y102.469 E7.92206
G1 X104.653 Y103.193 E7.94097
G1 X104.800 Y103.193 E7.94480
G1 X104.800 Y156.793 E9.34354
G1 X104.653 Y156.793 E9.34737
G1 X104.653 Y157.518 E9.36628
G1 X103.449 Y159.176 E9.41975
G1 X101.548 Y159.793 E9.47192
G1 X83.452 Y159.793 E9.94412
G1 X81.551 Y159.176 E9.99629
G1 X80.347 Y157.518 E10.04977
G1 X80.347 Y156.793 E10.06867
G1 X80.200 Y156.793 E10.07250
G1 X80.200 Y103.193 E11.47124
G1 X80.347 Y103.193 E11.47507
G1 X80.347 Y102.469 E11.49398
G1 X81.551 Y100.811 E11.54745
G1 X83.218 Y100.270 E11.59319
G1 X90.121 Y108.487 F5400.000
G1 X90.327 Y108.336 E11.59986 F1890.000
G1 X90.564 Y108.204 E11.60692
G1 X90.831 Y108.092 E11.61450
G1 X91.457 Y107.923 E11.63141
G1 X91.823 Y107.865 E11.64108
G1 X92.685 Y107.799 E11.66365
G1 X95.269 Y107.794 E11.73108
G1 X96.958 Y107.824 E11.77516 F1890.000
G1 X98.293 Y107.876 E11.81001
G1 X99.101 Y107.942 E11.83118
G1 X99.707 Y108.039 E11.84720
G1 X100.017 Y108.149 E11.85577
G1 X100.168 Y108.267 E11.86079
G1 X100.239 Y108.449 E11.86589
G1 X100.225 Y108.863 E11.87670
G1 X100.185 Y108.863 E11.87774
G1 X100.126 Y108.990 E11.88141
G1 X100.010 Y109.156 E11.88668
G1 X99.841 Y109.302 E11.89252
G1 X99.632 Y109.412 E11.89868
G1 X99.505 Y109.454 E11.90217
G1 X99.219 Y109.499 E11.90971
G1 X98.190 Y109.485 E11.93657
G1 X95.267 Y109.370 E12.01290
G1 X93.205 Y109.351 E12.06672
G1 X92.849 Y109.368 E12.07603
G1 X92.569 Y109.416 E12.08343
G1 X92.363 Y109.489 E12.08914
G1 X92.222 Y109.579 E12.09350
G1 X92.123 Y109.688 E12.09735
G1 X92.048 Y109.827 E12.10146
G1 X92.000 Y110.005 E12.10626
G1 X91.982 Y110.231 E12.11218
G1 X92.028 Y110.720 E12.12501
G1 X92.087 Y110.991 E12.13225
G1 X92.277 Y111.576 E12.14830
G1 X92.539 Y112.180 E12.16548
G1 X92.867 Y112.790 E12.18353
G1 X93.050 Y113.088 E12.19268
G1 X93.452 Y113.669 E12.21112
G1 X93.880 Y114.201 E12.22895
G1 X94.232 Y114.574 E12.24232
G1 X99.504 Y114.511 E12.37991
G1 X99.850 Y114.542 E12.38897
G1 X100.162 Y114.602 E12.39728
G1 X100.444 Y114.694 E12.40500
G1 X100.687 Y114.819 E12.41215
G1 X100.886 Y114.962 E12.41852
G1 X101.043 Y115.118 E12.42432
G1 X101.158 Y115.307 E12.43007
G1 X101.200 Y115.513 E12.43557
G1 X101.184 Y115.690 E12.44020
G1 X101.140 Y115.843 E12.44437
G1 X101.067 Y115.986 E12.44853
G1 X100.963 Y116.126 E12.45310
G1 X100.809 Y116.252 E12.45830
G1 X100.615 Y116.335 E12.46379
G1 X100.404 Y116.378 E12.46942
G1 X100.103 Y116.389 E12.47728
G1 X99.179 Y116.327 E12.50146
G1 X97.930 Y116.285 E12.53407
G1 X96.465 Y116.264 E12.57230
G1 X90.552 Y116.281 E12.72659
G1 X84.722 Y116.327 E12.87874
G1 X84.287 Y116.300 E12.89011
G1 X84.093 Y116.265 E12.89526
G1 X83.904 Y116.210 E12.90041
G1 X83.715 Y116.111 E12.90596
G1 X83.560 Y115.949 E12.91180
G1 X83.470 Y115.745 E12.91763
G1 X83.443 Y115.519 E12.92357
G1 X83.480 Y115.279 E12.92992
G1 X83.598 Y115.063 E12.93634
G1 X83.781 Y114.900 E12.94273
G1 X83.998 Y114.793 E12.94906
G1 X84.231 Y114.723 E12.95540
G1 X84.480 Y114.675 E12.96201
G1 X85.037 Y114.639 E12.97657
G1 X91.707 Y114.581 E13.15065
G1 X91.014 Y113.734 E13.17920
G1 X90.790 Y113.421 E13.18924
G1 X90.383 Y112.768 E13.20934
G1 X90.037 Y112.085 E13.22931
G1 X89.892 Y111.737 E13.23916
G1 X89.661 Y111.025 E13.25869
G1 X89.586 Y110.667 E13.26822
G1 X89.540 Y110.312 E13.27756
G1 X89.525 Y109.960 E13.28676
G1 X89.566 Y109.492 E13.29903
G1 X89.692 Y109.059 E13.31080
G1 X89.800 Y108.851 E13.31690
G1 X89.944 Y108.659 E13.32318
G1 X90.078 Y108.529 E13.32804
G1 X95.484 Y108.131 F5400.000
G1 X91.006 Y118.721 F5400.000
G1 X91.322 Y118.743 E13.33631 F1890.000
G1 X91.647 Y118.806 E13.34494 F1890.000
G1 X91.983 Y118.910 E13.35411
G1 X92.329 Y119.051 E13.36388
G1 X93.049 Y119.427 E13.38508
G1 X93.743 Y119.873 E13.40660
G1 X94.828 Y119.864 E13.43492
G1 X95.375 Y119.814 E13.44925
G1 X95.998 Y119.726 E13.46568
G1 X97.367 Y119.472 E13.50200
G1 X98.613 Y119.191 E13.53534
G1 X99.385 Y118.984 E13.55619
G1 X99.718 Y118.941 E13.56495
G1 X100.073 Y118.947 E13.57423
G1 X100.266 Y118.979 E13.57932
G1 X100.447 Y119.034 E13.58428
G1 X100.620 Y119.116 E13.58925
G1 X100.779 Y119.232 E13.59439
G1 X100.906 Y119.389 E13.59966
G1 X100.983 Y119.576 E13.60493
G1 X101.010 Y119.796 E13.61072
G1 X100.966 Y119.973 E13.61548
G1 X100.862 Y120.118 E13.62015
G1 X100.589 Y120.325 E13.62909
G1 X100.040 Y120.586 E13.64495
G1 X99.318 Y120.842 E13.66494
G1 X98.152 Y121.171 E13.69657
G1 X96.902 Y121.444 E13.72995
G1 X95.775 Y121.624 E13.75972
G1 X96.631 Y122.522 E13.79208
G1 X97.473 Y123.524 E13.82624
G1 X98.227 Y124.556 E13.85961
G1 X98.568 Y125.081 E13.87595
G1 X98.882 Y125.609 E13.89196
G1 X99.164 Y126.135 E13.90755
G1 X99.414 Y126.660 E13.92272
G1 X99.633 Y127.185 E13.93756
G1 X99.812 Y127.704 E13.95187
G1 X99.958 Y128.272 E13.96719
G1 X100.020 Y128.697 E13.97840
G1 X100.046 Y129.169 E13.99074
G1 X100.037 Y129.370 E13.99599
G1 X99.962 Y129.741 E14.00587
G1 X99.894 Y129.909 E14.01058
G1 X99.810 Y130.061 E14.01512
G1 X99.599 Y130.327 E14.02397
G1 X99.473 Y130.441 E14.02842
G1 X99.189 Y130.624 E14.03724
G1 X98.871 Y130.749 E14.04615
G1 X98.533 Y130.819 E14.05516
G1 X98.172 Y130.842 E14.06459
G1 X97.843 Y130.822 E14.07321
G1 X97.500 Y130.761 E14.08230
G1 X97.148 Y130.662 E14.09183
G1 X96.789 Y130.524 E14.10187
G1 X96.451 Y130.368 E14.11158
G1 X96.253 Y130.700 E14.12168
G1 X96.512 Y130.892 E14.13008
G1 X96.928 Y131.243 E14.14430
G1 X97.368 Y131.658 E14.16007
G1 X97.821 Y132.129 E14.17712
G1 X98.492 Y132.922 E14.20423
G1 X99.129 Y133.817 E14.23290
G1 X99.377 Y134.219 E14.24523
G1 X99.693 Y134.792 E14.26231
G1 X100.009 Y135.474 E14.28192
G1 X100.263 Y136.181 E14.30153
G1 X100.366 Y136.544 E14.31136
G1 X100.510 Y137.280 E14.33095
G1 X100.558 Y138.020 E14.35028
G1 X100.517 Y138.692 E14.36786
G1 X100.395 Y139.376 E14.38600
G1 X100.301 Y139.718 E14.39524
G1 X100.180 Y140.046 E14.40436
G1 X100.033 Y140.358 E14.41336
G1 X99.858 Y140.655 E14.42236
G1 X99.654 Y140.934 E14.43138
G1 X99.418 Y141.187 E14.44041
G1 X99.153 Y141.413 E14.44949
G1 X98.857 Y141.614 E14.45883
G1 X98.347 Y141.867 E14.47368
G1 X98.657 Y142.270 E14.48696
G1 X98.967 Y142.721 E14.50123
G1 X99.260 Y143.204 E14.51598
G1 X99.535 Y143.713 E14.53108
G1 X99.789 Y144.250 E14.54656
G1 X100.023 Y144.812 E14.56247
G1 X100.236 Y145.400 E14.57877
G1 X100.426 Y146.010 E14.59545
G1 X100.593 Y146.642 E14.61252
G1 X100.738 Y147.298 E14.63005
G1 X100.855 Y147.974 E14.64795
G1 X100.939 Y148.666 E14.66613
G1 X100.989 Y149.371 E14.68459
G1 X101.006 Y150.092 E14.70340
G1 X100.970 Y150.681 E14.71879
G1 X100.923 Y150.939 E14.72565
G1 X100.772 Y151.380 E14.73779
G1 X100.671 Y151.567 E14.74334
G1 X100.552 Y151.734 E14.74871
G1 X100.414 Y151.878 E14.75391
G1 X100.264 Y151.997 E14.75891
G1 X100.104 Y152.095 E14.76381
G1 X99.755 Y152.224 E14.77353
G1 X99.408 Y152.284 E14.78271
G1 X98.887 Y152.298 E14.79632
G1 X98.571 Y152.254 E14.80463
G1 X98.426 Y152.215 E14.80854
G1 X98.061 Y152.062 E14.81889
G1 X97.771 Y151.861 E14.82808
G1 X97.542 Y151.592 E14.83729
G1 X93.224 Y151.465 E14.95004
G1 X87.313 Y151.335 E15.10433
G1 X86.708 Y151.266 E15.12022
G1 X86.447 Y151.203 E15.12723
G1 X86.214 Y151.114 E15.13373
G1 X86.082 Y151.028 E15.13784
G1 X86.049 Y151.028 E15.13870
G1 X85.863 Y150.792 E15.14655
G1 X85.811 Y150.566 E15.15261
G1 X85.852 Y150.322 E15.15905
G1 X85.963 Y150.135 E15.16474
G1 X86.181 Y149.938 E15.17240
G1 X86.543 Y149.728 E15.18333
G1 X87.396 Y149.323 E15.20796
G1 X87.711 Y149.223 E15.21659
G1 X88.032 Y149.163 E15.22511
G1 X88.359 Y149.142 E15.23368
G1 X88.774 Y149.173 E15.24453
G1 X89.179 Y149.266 E15.25537
G1 X89.569 Y149.420 E15.26631
G1 X89.869 Y149.592 E15.27534
G1 X90.169 Y149.618 E15.28318
G1 X91.814 Y149.715 E15.32619
G1 X93.583 Y149.793 E15.37241
G1 X98.925 Y149.970 E15.51189
G1 X98.914 Y149.124 E15.53397
G1 X98.811 Y148.211 E15.55795
G1 X98.630 Y147.198 E15.58480
G1 X98.377 Y146.123 E15.61361
G1 X98.061 Y145.022 E15.64352
G1 X97.699 Y143.948 E15.67308
G1 X97.298 Y142.931 E15.70161
G1 X96.841 Y141.963 E15.72956
G1 X96.330 Y141.875 E15.74309
G1 X95.838 Y141.732 E15.75646
G1 X95.357 Y141.533 E15.77004
G1 X94.891 Y141.291 E15.78373
G1 X94.442 Y141.016 E15.79750
G1 X94.006 Y140.706 E15.81145
G1 X93.585 Y140.361 E15.82563
G1 X93.181 Y139.988 E15.83999
G1 X92.795 Y139.589 E15.85448
G1 X92.427 Y139.164 E15.86916
G1 X92.077 Y138.714 E15.88404
G1 X91.442 Y137.780 E15.91350
G1 X91.159 Y137.305 E15.92794
G1 X90.663 Y136.339 E15.95627
G1 X90.455 Y135.858 E15.96994
G1 X90.276 Y135.380 E15.98327
G1 X90.124 Y134.904 E15.99629
G1 X90.003 Y134.441 E16.00880
G1 X89.916 Y133.997 E16.02059
G1 X89.863 Y133.574 E16.03173
G1 X89.853 Y132.898 E16.04937
G1 X89.912 Y132.403 E16.06237
G1 X89.965 Y132.181 E16.06833
G1 X90.112 Y131.790 E16.07925
G1 X90.207 Y131.618 E16.08438
G1 X90.317 Y131.464 E16.08931
G1 X90.574 Y131.210 E16.09873
G1 X90.721 Y131.110 E16.10336
G1 X91.039 Y130.969 E16.11244
G1 X91.377 Y130.901 E16.12144
G1 X91.562 Y130.892 E16.12627
G1 X91.870 Y130.926 E16.13436
G1 X92.183 Y131.028 E16.14296
G1 X92.490 Y131.190 E16.15202
G1 X92.789 Y131.408 E16.16167
G1 X93.079 Y131.667 E16.17180
G1 X93.360 Y131.958 E16.18235
G1 X93.634 Y132.282 E16.19345
G1 X93.903 Y132.639 E16.20511
G1 X94.415 Y133.427 E16.22963
G1 X94.896 Y134.298 E16.25560
G1 X95.331 Y135.211 E16.28200
G1 X95.710 Y136.128 E16.30788
G1 X96.024 Y137.021 E16.33259
G1 X96.266 Y137.870 E16.35561
G1 X96.356 Y138.269 E16.36628
G1 X96.461 Y138.977 E16.38497
G1 X96.475 Y139.294 E16.39324
G1 X96.460 Y139.481 E16.39814
G1 X96.410 Y139.665 E16.40312
G1 X96.264 Y139.963 E16.41179
G1 X96.651 Y140.027 E16.42203
G1 X97.107 Y140.038 E16.43395
G1 X97.255 Y140.020 E16.43783
G1 X97.534 Y139.946 E16.44535
G1 X97.773 Y139.824 E16.45236
G1 X97.981 Y139.643 E16.45955
G1 X98.072 Y139.529 E16.46337
G1 X98.231 Y139.236 E16.47207
G1 X98.350 Y138.854 E16.48251
G1 X98.413 Y138.366 E16.49534
G1 X98.407 Y137.646 E16.51416
G1 X98.363 Y137.207 E16.52565
G1 X98.290 Y136.766 E16.53732
G1 X98.058 Y135.873 E16.56140
G1 X97.910 Y135.430 E16.57359
G1 X97.553 Y134.560 E16.59812
G1 X97.123 Y133.716 E16.62284
G1 X96.628 Y132.907 E16.64761
G1 X96.084 Y132.147 E16.67197
G1 X95.802 Y131.793 E16.68379
G1 X95.414 Y131.357 E16.69903
G1 X95.317 Y131.235 E16.70309
G1 X95.242 Y131.096 E16.70722
G1 X95.207 Y130.928 E16.71169
G1 X95.239 Y130.753 E16.71633
G1 X95.354 Y130.607 E16.72119
G1 X95.506 Y130.537 E16.72554
G1 X95.640 Y130.523 E16.72906
G1 X95.848 Y130.551 E16.73455
G1 X96.128 Y130.635 E16.74218
G1 X96.275 Y130.276 E16.75229
G1 X95.695 Y129.943 E16.76975
G1 X95.325 Y129.697 E16.78135
G1 X94.953 Y129.428 E16.79333
G1 X94.208 Y128.823 E16.81836
G1 X93.467 Y128.137 E16.84473
G1 X93.107 Y127.775 E16.85806
G1 X92.410 Y127.019 E16.88489
G1 X91.750 Y126.226 E16.91179
G1 X91.437 Y125.819 E16.92519
G1 X90.847 Y124.990 E16.95175
G1 X90.579 Y124.577 E16.96459
G1 X90.101 Y123.761 E16.98928
G1 X89.892 Y123.359 E17.00110
G1 X89.543 Y122.577 E17.02345
G1 X89.290 Y121.824 E17.04417
G1 X89.208 Y121.469 E17.05369
G1 X89.158 Y121.129 E17.06266
G1 X89.131 Y120.609 E17.07625
G1 X89.004 Y120.609 E17.07957
G1 X89.352 Y120.018 E17.09747
G1 X89.503 Y119.874 E17.10290
G1 X89.692 Y119.778 E17.10843
G1 X89.899 Y119.727 E17.11400
G1 X90.099 Y119.714 E17.11922
G1 X90.171 Y119.357 E17.12872
G1 X90.244 Y119.173 E17.13391
G1 X90.353 Y119.012 E17.13897
G1 X90.490 Y118.885 E17.14385
G1 X90.649 Y118.792 E17.14865
G1 X90.825 Y118.738 E17.15344
G1 X90.946 Y118.726 E17.15663
G1 X91.524 Y118.481 F5400.000
G1 E14.15663 F2400.000
G92 E0
G1 Z0.860 F5400.000
G1 X92.500 Y161.655 F5400.000
G1 Z0.260 F5400.000
G1 E3.00000 F2400.000
G1 X93.144 Y161.706 E3.01687 F2700.000
G1 X93.257 Y161.715 E3.01981 F2700.000
G1 X93.995 Y161.892 E3.03963
G1 X94.696 Y162.183 E3.05944
G1 X95.344 Y162.579 E3.07925
G1 X95.921 Y163.072 E3.09906
G1 X96.414 Y163.650 E3.11887
G1 X96.811 Y164.297 E3.13868
G1 X97.101 Y164.998 E3.15850
G1 X97.279 Y165.737 E3.17831
G1 X97.363 Y166.804 E3.20625
G1 X97.314 Y166.804 E3.20753
G1 X97.279 Y167.250 E3.21921
G1 X97.101 Y167.988 E3.23902
G1 X96.811 Y168.690 E3.25883
G1 X96.414 Y169.337 E3.27864
G1 X95.921 Y169.914 E3.29846
G1 X95.344 Y170.408 E3.31827
G1 X94.696 Y170.804 E3.33808
G1 X93.995 Y171.095 E3.35789
G1 X93.257 Y171.272 E3.37770
G1 X92.500 Y171.332 E3.39752
G1 X91.743 Y171.272 E3.41733
G1 X91.005 Y171.095 E3.43714
G1 X90.304 Y170.804 E3.45695
G1 X89.656 Y170.408 E3.47676
G1 X89.079 Y169.914 E3.49658
G1 X88.586 Y169.337 E3.51639
G1 X88.189 Y168.690 E3.53620
G1 X87.899 Y167.988 E3.55601
G1 X87.721 Y167.250 E3.57583
G1 X87.686 Y166.804 E3.58751
G1 X87.637 Y166.804 E3.58878
G1 X87.721 Y165.737 E3.61672
G1 X87.899 Y164.998 E3.63654
G1 X88.189 Y164.297 E3.65635
G1 X88.586 Y163.650 E3.67616
G1 X89.079 Y163.072 E3.69597
G1 X89.656 Y162.579 E3.71579
G1 X90.304 Y162.183 E3.73560
G1 X91.005 Y161.892 E3.75541
G1 X91.743 Y161.715 E3.77522
G1 X92.440 Y161.660 E3.79347
G1 X92.482 Y162.194 F5400.000
G1 X93.173 Y162.245 E3.81154 F1890.000
G1 X93.829 Y162.403 E3.82915
G1 X94.453 Y162.661 E3.84677
G1 X95.028 Y163.014 E3.86438
