; generated by Slic3r 1.1.7 on 2014-12-21 at 16:08:02

; perimeters extrusion width = 0.40mm
; infill extrusion width = 0.42mm
; solid infill extrusion width = 0.42mm
; top infill extrusion width = 0.42mm

G21 ; set units to millimeters
M190 S110 ; wait for bed temperature to be reached
M104 S245 ; set temperature
G28 ; home all axes
M109 S245 ; wait for temperature to be reached
G90 ; use absolute coordinates
G92 E0
M82 ; use absolute distances for extrusion
M106 S89
G1 F2400.000 E-3.00000
G1 Z0.820 F9000.000
G92 E0
G1 X52.126 Y30.532 F9000.000
G1 Z0.220 F9000.000
G1 E3.00000 F2400.000
G1 X52.849 Y29.299 E3.02567 F1800.000
G1 X53.760 Y28.068 E3.05317
G1 X55.656 Y26.016 E3.10334
G1 X56.824 Y25.000 E3.13114
G1 X59.018 Y23.478 E3.17909
G1 X60.226 Y22.803 E3.20394
G1 X62.717 Y21.716 E3.25275
G1 X63.941 Y21.309 E3.27591
G1 X67.849 Y20.488 E3.34762
G1 X71.006 Y20.266 E3.40444
G1 X127.755 Y16.865 E4.42536
G1 X130.102 Y16.959 E4.46755
G1 X131.879 Y17.141 E4.49963 F1800.000
G1 X132.409 Y17.214 E4.50923
G1 X134.667 Y17.636 E4.55048
G1 X136.319 Y18.063 E4.58112
G1 X137.561 Y18.511 E4.60483
G1 X139.777 Y19.552 E4.64880
G1 X140.835 Y20.164 E4.67075
G1 X142.418 Y21.274 E4.70546
G1 X143.872 Y22.633 E4.74120
G1 X144.822 Y23.811 E4.76838
G1 X145.667 Y25.136 E4.79660
G1 X166.188 Y66.877 E5.63187
G1 X166.917 Y69.901 E5.68772
G1 X168.115 Y149.675 E7.12044
G1 X168.024 Y150.516 E7.13564
G1 X167.688 Y152.029 E7.16347
G1 X167.412 Y152.841 E7.17888
G1 X166.809 Y154.155 E7.20483
G1 X166.351 Y154.932 E7.22103
G1 X165.621 Y155.954 E7.24359
G1 X164.980 Y156.702 E7.26128
G1 X164.085 Y157.576 E7.28373
G1 X163.503 Y158.052 E7.29724
G1 X162.435 Y158.774 E7.32039
G1 X161.727 Y159.165 E7.33491
G1 X160.740 Y159.615 E7.35440
G1 X159.904 Y159.922 E7.37039
G1 X159.160 Y160.150 E7.38437
G1 X156.056 Y160.831 E7.44143
G1 X152.676 Y161.123 E7.50235
G1 X147.349 Y161.403 E7.59815
G1 X140.094 Y161.675 E7.72852
G1 X129.759 Y161.671 E7.91412
G1 X123.256 Y161.102 E8.03134
G1 X57.243 Y154.850 E9.22208
G1 X51.892 Y153.575 E9.32087
G1 X46.722 Y151.543 E9.42062
G1 X42.477 Y149.246 E9.50730
G1 X41.146 Y148.315 E9.53646
G1 X33.016 Y141.114 E9.73150
G1 X31.727 Y139.601 E9.76719
G1 X25.920 Y130.446 E9.96188
G1 X25.140 Y128.767 E9.99513
G1 X21.655 Y117.659 E10.20419
G1 X21.357 Y116.162 E10.23160
G1 X20.183 Y102.016 E10.48650
G1 X20.741 Y93.320 E10.64299
G1 X20.889 Y92.217 E10.66297
G1 X22.576 Y84.362 E10.80724
G1 X22.937 Y83.189 E10.82929
G1 X25.728 Y76.294 E10.96286
G1 X26.185 Y75.350 E10.98170
G1 X52.096 Y30.584 E11.91054
G1 X52.414 Y30.770 F9000.000
G1 X53.167 Y29.485 E11.93729 F1800.000
G1 X54.031 Y28.318 E11.96336
G1 X55.927 Y26.266 E12.01353
G1 X57.035 Y25.303 E12.03990
G1 X59.228 Y23.781 E12.08784
G1 X60.374 Y23.141 E12.11141
G1 X62.865 Y22.054 E12.16021
G1 X64.025 Y21.668 E12.18217
G1 X67.875 Y20.856 E12.25283
G1 X71.028 Y20.634 E12.30959
G1 X127.743 Y17.233 E13.32989
G1 X130.065 Y17.326 E13.37162
G1 X131.842 Y17.507 E13.40370 F1800.000
G1 X132.344 Y17.577 E13.41281
G1 X134.575 Y17.993 E13.45355
G1 X136.227 Y18.420 E13.48419
G1 X137.404 Y18.844 E13.50667
G1 X139.604 Y19.878 E13.55031
G1 X140.623 Y20.466 E13.57145
G1 X142.206 Y21.576 E13.60617
G1 X143.585 Y22.864 E13.64005
G1 X144.535 Y24.042 E13.66723
G1 X145.336 Y25.299 E13.69398
G1 X165.858 Y67.040 E14.52926
G1 X166.548 Y69.907 E14.58221
G1 X167.749 Y149.635 E16.01411
G1 X167.657 Y150.476 E16.02930
G1 X167.339 Y151.910 E16.05569
G1 X167.063 Y152.722 E16.07109
G1 X166.491 Y153.968 E16.09569
G1 X166.034 Y154.746 E16.11190
G1 X165.341 Y155.714 E16.13329
G1 X164.700 Y156.462 E16.15098
G1 X163.852 Y157.290 E16.17226
G1 X163.269 Y157.767 E16.18578
G1 X162.257 Y158.451 E16.20772
G1 X161.549 Y158.842 E16.22224
G1 X160.613 Y159.269 E16.24072
G1 X159.777 Y159.576 E16.25672
G1 X159.071 Y159.793 E16.26997
G1 X156.024 Y160.464 E16.32601
G1 X152.657 Y160.755 E16.38670
G1 X147.335 Y161.034 E16.48240
G1 X140.080 Y161.307 E16.61277
G1 X129.791 Y161.303 E16.79755
G1 X123.290 Y160.735 E16.91472
G1 X57.324 Y154.491 E18.10463
G1 X52.023 Y153.230 E18.20248
G1 X46.898 Y151.218 E18.30135
G1 X42.652 Y148.922 E18.38802
G1 X41.391 Y148.040 E18.41567
G1 X33.260 Y140.838 E18.61072
G1 X32.038 Y139.404 E18.64456
G1 X26.231 Y130.249 E18.83924
G1 X25.491 Y128.657 E18.87077
G1 X22.007 Y117.549 E19.07983
G1 X21.725 Y116.129 E19.10582
G1 X20.550 Y102.040 E19.35971
G1 X21.109 Y93.343 E19.51620
G1 X21.249 Y92.294 E19.53521
G1 X22.937 Y84.440 E19.67947
G1 X23.279 Y83.327 E19.70038
G1 X26.070 Y76.433 E19.83395
G1 X26.504 Y75.534 E19.85186
G1 X52.383 Y30.822 E20.77960
G1 X52.702 Y31.008 F9000.000
G1 X53.485 Y29.671 E20.80742 F1800.000
G1 X54.302 Y28.569 E20.83206
G1 X56.198 Y26.516 E20.88223
G1 X57.245 Y25.606 E20.90716
G1 X59.438 Y24.084 E20.95510
G1 X60.521 Y23.479 E20.97738
G1 X63.012 Y22.392 E21.02618
G1 X64.109 Y22.027 E21.04694
G1 X67.901 Y21.223 E21.11655
G1 X71.050 Y21.002 E21.17324
G1 X127.731 Y17.602 E22.19292
G1 X130.027 Y17.692 E22.23420
G1 X131.804 Y17.874 E22.26627 F1800.000
G1 X132.280 Y17.940 E22.27490
G1 X134.483 Y18.350 E22.31513
G1 X136.134 Y18.777 E22.34577
G1 X137.248 Y19.178 E22.36702
G1 X139.447 Y20.211 E22.41066
G1 X140.412 Y20.768 E22.43066
G1 X141.995 Y21.877 E22.46538
G1 X143.298 Y23.095 E22.49740
G1 X144.248 Y24.274 E22.52459
G1 X145.005 Y25.461 E22.54988
G1 X165.527 Y67.203 E23.38515
G1 X166.179 Y69.912 E23.43520
G1 X167.383 Y149.595 E24.86628
G1 X167.291 Y150.436 E24.88147
G1 X166.990 Y151.792 E24.90641
G1 X166.714 Y152.604 E24.92181
G1 X166.174 Y153.781 E24.94507
G1 X165.062 Y155.474 E24.98146
G1 X164.425 Y156.217 E24.99902
G1 X163.619 Y157.005 E25.01927
G1 X163.036 Y157.482 E25.03279
G1 X162.079 Y158.129 E25.05353
G1 X161.371 Y158.519 E25.06805
G1 X160.486 Y158.923 E25.08552
G1 X159.650 Y159.230 E25.10152
G1 X158.983 Y159.435 E25.11405
G1 X155.991 Y160.097 E25.16907
G1 X152.637 Y160.387 E25.22953
G1 X147.321 Y160.666 E25.32513
G1 X140.066 Y160.938 E25.45549
G1 X129.823 Y160.936 E25.63944
G1 X123.325 Y160.368 E25.75658
G1 X57.405 Y154.131 E26.94564
G1 X52.154 Y152.886 E27.04255
G1 X47.073 Y150.894 E27.14055
G1 X42.828 Y148.598 E27.22722
G1 X41.635 Y147.764 E27.25336
G1 X33.505 Y140.562 E27.44841
G1 X32.349 Y139.206 E27.48039
G1 X26.542 Y130.051 E27.67508
G1 X25.843 Y128.546 E27.70488
G1 X22.359 Y117.438 E27.91394
G1 X22.092 Y116.096 E27.93851
G1 X20.918 Y102.063 E28.19139
G1 X21.477 Y93.367 E28.34788
G1 X21.610 Y92.372 E28.36591
G1 X23.284 Y84.576 E28.50910
G1 X23.620 Y83.465 E28.52994
G1 X26.411 Y76.571 E28.66350
G1 X26.823 Y75.719 E28.68050
G1 X52.671 Y31.060 E29.60712
G1 X53.873 Y31.764 F9000.000
G1 X54.822 Y30.144 E29.64083 F1800.000
G1 X55.142 Y29.711 E29.65050
G1 X57.405 Y27.262 E29.71037
G1 X57.815 Y26.905 E29.72014
G1 X60.431 Y25.089 E29.77733
G1 X60.856 Y24.852 E29.78606
G1 X63.776 Y23.578 E29.84328
G1 X64.206 Y23.435 E29.85141
G1 X67.408 Y22.686 E29.91047
G1 X67.801 Y22.626 E29.91760
G1 X71.296 Y22.380 E29.98053
G1 X71.721 Y22.387 E29.98815
G1 X76.614 Y22.878 E30.07646
G1 X77.163 Y22.997 E30.08655
G1 X81.645 Y24.512 E30.17151
G1 X82.192 Y24.775 E30.18241
G1 X86.150 Y27.308 E30.26679
G1 X86.602 Y27.679 E30.27729
G1 X89.924 Y31.129 E30.36330
G1 X90.174 Y31.433 E30.37036
G1 X91.708 Y33.634 E30.41856
G1 X92.328 Y34.678 E30.44035
G1 X92.674 Y34.732 E30.44665
G1 X93.570 Y33.925 E30.46829
G1 X95.031 Y32.674 E30.50283
G1 X102.866 Y26.968 E30.67689
G1 X103.163 Y26.782 E30.68319
G1 X110.958 Y22.639 E30.84172
G1 X111.356 Y22.470 E30.84947
G1 X119.093 Y19.949 E30.99560
G1 X119.590 Y19.841 E31.00474
G1 X127.150 Y19.002 E31.14133
G1 X127.507 Y18.988 E31.14774
G1 X129.528 Y19.054 E31.18407
G1 X131.766 Y19.270 E31.22444 F1800.000
G1 X133.852 Y19.633 E31.26246
G1 X136.009 Y20.183 E31.30244
G1 X136.446 Y20.340 E31.31077
G1 X139.066 Y21.571 E31.36275
G1 X139.437 Y21.786 E31.37045
G1 X141.482 Y23.219 E31.41530
G1 X141.994 Y23.697 E31.42788
G1 X143.500 Y25.566 E31.47098
G1 X143.981 Y26.526 E31.49026
G1 X144.506 Y28.593 E31.52856
G1 X144.583 Y29.208 E31.53969
G1 X144.583 Y29.965 E31.55328
G1 X144.566 Y30.248 E31.55838
G1 X144.419 Y31.533 E31.58159
G1 X144.219 Y32.266 E31.59525
G1 X143.601 Y33.654 E31.62252
G1 X143.034 Y34.455 E31.64015
G1 X141.889 Y35.539 E31.66847
G1 X141.077 Y36.055 E31.68574
G1 X139.568 Y36.644 E31.71483
G1 X138.627 Y36.817 E31.73201
G1 X132.746 Y36.753 E31.83763
G1 X128.752 Y37.065 E31.90956
G1 X124.697 Y37.991 E31.98426
G1 X120.462 Y39.569 E32.06542
G1 X115.916 Y41.887 E32.15706
G1 X113.937 Y43.019 E32.19800
G1 X111.604 Y44.648 E32.24909
G1 X108.831 Y46.853 E32.31271
G1 X105.674 Y49.605 E32.38793
G1 X102.985 Y52.173 E32.45470
G1 X100.497 Y54.406 E32.51473
G1 X99.073 Y55.569 E32.54774
G1 X99.003 Y55.750 E32.55124
G1 X99.282 Y57.666 E32.58601
G1 X99.645 Y60.418 E32.63585
G1 X100.001 Y63.401 E32.68980
G1 X100.208 Y66.214 E32.74046
G1 X100.769 Y66.317 E32.75070
G1 X101.084 Y65.639 E32.76414
G1 X101.807 Y64.725 E32.78507
G1 X103.284 Y63.558 E32.81886
G1 X104.869 Y63.009 E32.84899
G1 X106.044 Y63.013 E32.87009
G1 X110.964 Y63.295 E32.95858
G1 X115.081 Y63.493 E33.03261
G1 X118.480 Y63.610 E33.09368
G1 X121.185 Y63.649 E33.14227
G1 X125.634 Y63.629 E33.22215
G1 X127.684 Y63.572 E33.25899
G1 X129.863 Y63.475 E33.29815
G1 X132.117 Y63.342 E33.33870
G1 X138.274 Y62.761 E33.44976
G1 X143.472 Y62.335 E33.54341
G1 X147.668 Y62.072 E33.61891
G1 X147.788 Y62.020 E33.62127
G1 X147.825 Y61.985 E33.62217
G1 X152.858 Y61.985 E33.71256
G1 X153.043 Y62.166 E33.71722
G1 X153.162 Y62.221 E33.71957
G1 X154.720 Y62.338 E33.74763
G1 X155.018 Y62.378 E33.75303
G1 X158.596 Y63.087 E33.81854
G1 X159.202 Y63.290 E33.83001
G1 X162.081 Y64.688 E33.88748
G1 X163.231 Y65.805 E33.91628
G1 X164.640 Y68.512 E33.97107
G1 X164.860 Y70.297 E34.00338
G1 X164.261 Y72.817 E34.04990
G1 X164.107 Y79.031 E34.16152
G1 X163.987 Y86.570 E34.29691
G1 X163.916 Y94.919 E34.44684
G1 X163.904 Y99.151 E34.52286
G1 X163.970 Y103.222 E34.59596
G1 X164.207 Y109.359 E34.70625
G1 X164.604 Y116.791 E34.83991
G1 X165.167 Y125.611 E34.99862
G1 X165.811 Y141.680 E35.28741
G1 X165.972 Y146.375 E35.37177
G1 X166.030 Y148.956 E35.41813
G1 X166.016 Y149.282 E35.42398
G1 X165.877 Y150.554 E35.44698
G1 X165.759 Y151.086 E35.45675
G1 X165.314 Y152.395 E35.48158
G1 X165.102 Y152.856 E35.49069
G1 X164.405 Y154.041 E35.51539
G1 X164.148 Y154.400 E35.52331
G1 X163.220 Y155.482 E35.54890
G1 X162.907 Y155.788 E35.55677
G1 X161.980 Y156.546 E35.57828
G1 X161.605 Y156.800 E35.58640
G1 X160.528 Y157.394 E35.60849
G1 X160.184 Y157.551 E35.61528
G1 X159.019 Y157.978 E35.63756
G1 X158.724 Y158.066 E35.64310
G1 X157.671 Y158.310 E35.66250
G1 X156.496 Y158.619 E35.68432
G1 X156.080 Y158.691 E35.69190
G1 X152.607 Y158.994 E35.75450
G1 X147.287 Y159.273 E35.85017
G1 X139.819 Y159.552 E35.98437
G1 X130.277 Y159.568 E36.15573
G1 X123.349 Y158.972 E36.28059
G1 X123.077 Y158.933 E36.28553
G1 X117.059 Y157.728 E36.39575
G1 X116.732 Y157.639 E36.40183
G1 X111.219 Y155.729 E36.50662
G1 X110.518 Y155.352 E36.52090
G1 X106.272 Y152.107 E36.61687
G1 X105.919 Y151.778 E36.62553
G1 X102.877 Y148.340 E36.70797
G1 X102.517 Y147.809 E36.71949
G1 X100.598 Y144.002 E36.79605
G1 X100.361 Y143.271 E36.80986
G1 X99.735 Y139.359 E36.88100
G1 X99.704 Y138.965 E36.88810
G1 X99.704 Y137.741 E36.91008
G1 X99.738 Y136.839 E36.92628
G1 X99.879 Y135.621 E36.94830
G1 X100.074 Y134.599 E36.96699
G1 X100.322 Y133.604 E36.98540
G1 X100.434 Y133.263 E36.99185
G1 X102.554 Y128.090 E37.09225
G1 X102.846 Y127.566 E37.10302
G1 X105.644 Y123.726 E37.18834
G1 X106.359 Y123.065 E37.20582
G1 X107.763 Y122.202 E37.23542
G1 X107.570 Y121.643 E37.24604
G1 X105.048 Y121.934 E37.29163
G1 X104.485 Y121.935 E37.30175
G1 X101.068 Y121.553 E37.36349
G1 X100.534 Y121.433 E37.37332
G1 X97.244 Y120.302 E37.43580
G1 X96.791 Y120.093 E37.44474
G1 X93.667 Y118.258 E37.50980
G1 X93.322 Y118.014 E37.51739
G1 X90.348 Y115.505 E37.58726
G1 X90.063 Y115.222 E37.59447
G1 X88.097 Y112.928 E37.64874
G1 X87.842 Y112.572 E37.65661
G1 X86.163 Y109.724 E37.71596
G1 X86.009 Y109.416 E37.72215
G1 X84.625 Y106.089 E37.78686
G1 X84.535 Y105.835 E37.79170
G1 X83.406 Y102.000 E37.86349
G1 X83.345 Y101.740 E37.86828
G1 X82.596 Y97.601 E37.94383
G1 X82.215 Y95.260 E37.98642
G1 X81.929 Y95.083 E37.99246
G1 X80.712 Y95.462 E38.01536
G1 X79.170 Y96.163 E38.04577
G1 X77.689 Y96.928 E38.07572
G1 X76.219 Y97.602 E38.10475
G1 X75.065 Y98.030 E38.12685
G1 X74.654 Y98.144 E38.13451
G1 X73.645 Y98.332 E38.15294
G1 X73.189 Y98.375 E38.16117
G1 X71.988 Y98.375 E38.18274
G1 X70.384 Y97.810 E38.21327
G1 X69.250 Y96.899 E38.23941
G1 X68.794 Y96.421 E38.25126
G1 X68.246 Y95.667 E38.26801
G1 X67.922 Y95.062 E38.28031
G1 X67.606 Y94.207 E38.29669
G1 X67.465 Y93.605 E38.30780
G1 X67.374 Y92.618 E38.32560
G1 X67.376 Y92.090 E38.33508
G1 X67.411 Y91.389 E38.34768
G1 X67.499 Y90.658 E38.36089
G1 X67.601 Y90.091 E38.37125
G1 X67.822 Y89.151 E38.38858
G1 X68.022 Y88.605 E38.39904
G1 X69.365 Y85.952 E38.45242
G1 X69.632 Y85.534 E38.46133
G1 X71.456 Y83.221 E38.51423
G1 X71.778 Y82.884 E38.52260
G1 X73.985 Y80.966 E38.57511
G1 X73.971 Y80.613 E38.58145
G1 X71.556 Y78.783 E38.63586
G1 X68.054 Y77.015 E38.70632
G1 X64.782 Y75.812 E38.76892
G1 X62.033 Y75.245 E38.81933
G1 X59.020 Y75.205 E38.87343
G1 X56.014 Y75.543 E38.92776
G1 X53.671 Y76.409 E38.97261
G1 X51.549 Y77.857 E39.01874
G1 X49.407 Y80.163 E39.07526
G1 X46.704 Y84.242 E39.16314
G1 X44.568 Y89.288 E39.26153
G1 X43.008 Y95.460 E39.37586
G1 X42.107 Y102.630 E39.50563
G1 X42.106 Y103.770 E39.52610
G1 X43.135 Y111.789 E39.67128
G1 X45.047 Y118.609 E39.79847
G1 X47.774 Y124.247 E39.91094
G1 X51.197 Y128.682 E40.01155
G1 X54.132 Y130.758 E40.07611
G1 X57.362 Y132.337 E40.14067
G1 X60.646 Y133.271 E40.20199
G1 X64.122 Y133.589 E40.26466
G1 X66.032 Y133.461 E40.29903
G1 X67.921 Y133.070 E40.33369
G1 X69.758 Y132.418 E40.36869
G1 X71.483 Y131.532 E40.40351
G1 X73.039 Y130.416 E40.43789
G1 X74.689 Y129.456 E40.47218
G1 X75.026 Y129.292 E40.47891
G1 X76.679 Y128.639 E40.51082
G1 X77.222 Y128.493 E40.52092
G1 X78.742 Y128.263 E40.54852
G1 X79.115 Y128.234 E40.55525
G1 X80.270 Y128.258 E40.57599
G1 X80.805 Y128.311 E40.58565
G1 X81.231 Y128.392 E40.59344
G1 X82.291 Y128.689 E40.61321
G1 X82.609 Y128.887 E40.61994
G1 X82.992 Y129.027 E40.62726
G1 X84.224 Y129.987 E40.65530
G1 X85.100 Y131.274 E40.68326
G1 X85.448 Y132.032 E40.69824
G1 X85.745 Y133.135 E40.71875
G1 X85.820 Y133.551 E40.72635
G1 X85.916 Y134.572 E40.74475
G1 X85.927 Y135.449 E40.76051
G1 X85.804 Y137.045 E40.78924
G1 X85.750 Y137.394 E40.79559
G1 X85.404 Y138.912 E40.82356
G1 X85.325 Y139.187 E40.82870
G1 X84.694 Y140.944 E40.86221
G1 X83.928 Y142.605 E40.89506
G1 X83.751 Y142.925 E40.90163
G1 X83.093 Y143.930 E40.92320
G1 X82.213 Y145.072 E40.94908
G1 X81.226 Y146.188 E40.97585
G1 X79.989 Y147.447 E41.00753
G1 X79.616 Y147.758 E41.01626
G1 X76.354 Y149.977 E41.08712
G1 X75.952 Y150.199 E41.09536
G1 X72.354 Y151.776 E41.16590
G1 X71.934 Y151.917 E41.17386
G1 X68.025 Y152.852 E41.24604
G1 X67.627 Y152.914 E41.25327
G1 X63.433 Y153.221 E41.32878
G1 X63.068 Y153.221 E41.33534
G1 X58.251 Y152.866 E41.42207
G1 X57.889 Y152.812 E41.42865
G1 X53.154 Y151.749 E41.51579
G1 X52.815 Y151.647 E41.52216
G1 X48.181 Y149.885 E41.61118
G1 X47.881 Y149.748 E41.61711
G1 X43.240 Y147.237 E41.71186
G1 X42.772 Y146.910 E41.72211
G1 X34.166 Y139.288 E41.92856
G1 X33.713 Y138.755 E41.94111
G1 X27.544 Y129.031 E42.14793
G1 X27.269 Y128.440 E42.15962
G1 X23.607 Y116.766 E42.37933
G1 X23.503 Y116.240 E42.38896
G1 X22.301 Y102.723 E42.63266
G1 X22.296 Y102.342 E42.63949
G1 X22.882 Y93.207 E42.80387
G1 X22.933 Y92.844 E42.81047
G1 X24.704 Y84.599 E42.96189
G1 X24.830 Y84.188 E42.96963
G1 X27.814 Y76.819 E43.11239
G1 X28.036 Y76.392 E43.12102
G1 X32.188 Y70.024 E43.25755
G1 X32.372 Y69.777 E43.26307
G1 X37.384 Y63.842 E43.40257
G1 X37.784 Y63.462 E43.41249
G1 X43.552 Y59.096 E43.54239
G1 X44.110 Y58.777 E43.55393
G1 X50.562 Y56.126 E43.67918
G1 X51.201 Y55.958 E43.69106
G1 X56.779 Y55.260 E43.79200
G1 X56.941 Y54.858 E43.79979
G1 X55.771 Y53.415 E43.83315
G1 X55.535 Y53.067 E43.84070
G1 X53.520 Y49.483 E43.91453
G1 X53.324 Y49.038 E43.92326
G1 X52.091 Y45.276 E43.99436
