; generated by Slic3r 1.1.7 on 2014-12-19 at 19:09:50

; perimeters extrusion width = 0.40mm
; infill extrusion width = 0.42mm
; solid infill extrusion width = 0.42mm
; top infill extrusion width = 0.42mm

; perimeters extrusion width = 0.50mm
; infill extrusion width = 0.70mm
; solid infill extrusion width = 0.70mm
; top infill extrusion width = 0.70mm

G21 ; set units to millimeters
M190 S65 ; wait for bed temperature to be reached
M104 S200 T0 ; set temperature
M104 S180 T1 ; set temperature
G28 ; home all axes
M109 S200 T0 ; wait for temperature to be reached
M109 S180 T1 ; wait for temperature to be reached
G90 ; use absolute coordinates
G92 E0
M82 ; use absolute distances for extrusion
T0
G92 E0
M106 S89
G1 F2400.000 E-3.00000
G1 Z0.860 F5400.000
G92 E0
G1 X72.804 Y52.894 F5400.000
G1 Z0.260 F5400.000
G1 E3.00000 F2400.000
G1 X72.932 Y52.719 E3.00590 F2700.000
G1 X74.574 Y51.134 E3.06782
G1 X76.211 Y50.337 E3.11725
G1 X77.974 Y49.764 E3.16757
G1 X80.000 Y49.443 E3.22324
G1 X104.000 Y49.443 E3.87464
G1 X106.026 Y49.764 E3.93031
G1 X107.789 Y50.337 E3.98064 F2700.000
G1 X109.804 Y51.408 E4.04256
G1 X111.068 Y52.719 E4.09198
G1 X112.158 Y54.219 E4.14231
G1 X113.330 Y57.047 E4.22541
G1 X113.557 Y59.000 E4.27876
G1 X113.476 Y114.025 E5.77223
G1 X113.330 Y114.953 E5.79771
G1 X112.158 Y117.781 E5.88081
G1 X110.914 Y119.484 E5.93805
G1 X102.333 Y130.226 E6.31120
G1 X101.090 Y131.345 E6.35660
G1 X99.981 Y132.151 E6.39380
G1 X98.533 Y132.987 E6.43919
G1 X97.280 Y133.545 E6.47640
G1 X95.689 Y134.061 E6.52180
G1 X94.349 Y134.346 E6.55900
G1 X92.685 Y134.521 E6.60439
G1 X91.315 Y134.521 E6.64159
G1 X89.651 Y134.346 E6.68699
G1 X88.311 Y134.061 E6.72419
G1 X86.720 Y133.545 E6.76959
G1 X85.467 Y132.987 E6.80680
G1 X84.019 Y132.151 E6.85219
G1 X82.910 Y131.345 E6.88939
G1 X80.904 Y129.410 E6.96504
G1 X72.932 Y119.281 E7.31489
G1 X71.842 Y117.781 E7.36522
G1 X70.670 Y114.953 E7.44831
G1 X70.443 Y113.000 E7.50167
G1 X70.524 Y57.975 E8.99514
G1 X70.670 Y57.047 E9.02062
G1 X71.842 Y54.219 E9.10372
G1 X72.769 Y52.943 E9.14652
G1 F2400.000 E6.14652
G1 Z0.860 F5400.000
G92 E0
G1 X80.707 Y58.844 F5400.000
G1 Z0.260 F5400.000
G1 E3.00000 F2400.000
G1 X82.864 Y58.143 E3.06157 F2700.000
G1 X101.136 Y58.143 E3.55748
G1 X102.831 Y58.694 E3.60585
G1 X103.293 Y58.844 E3.61905 F2700.000
G1 X104.710 Y60.794 E3.68449
G1 X104.710 Y61.143 E3.69395
G1 X104.857 Y61.143 E3.69793
G1 X104.857 Y110.857 E5.04724
G1 X104.710 Y110.857 E5.05123
G1 X104.710 Y111.206 E5.06069
G1 X103.293 Y113.156 E5.12613
G1 X101.136 Y113.857 E5.18769
G1 X82.864 Y113.857 E5.68361
G1 X80.707 Y113.156 E5.74517
G1 X79.290 Y111.206 E5.81061
G1 X79.290 Y110.857 E5.82007
G1 X79.143 Y110.857 E5.82406
G1 X79.143 Y61.143 E7.17337
G1 X79.290 Y61.143 E7.17735
G1 X79.290 Y60.794 E7.18681
G1 X80.672 Y58.892 E7.25062
G1 X81.051 Y59.318 F5400.000
G1 X82.952 Y58.700 E7.30488 F2700.000
G1 X101.048 Y58.700 E7.79601 F2700.000
G1 X102.949 Y59.318 E7.85027
G1 X104.153 Y60.975 E7.90588
G1 X104.153 Y61.700 E7.92555
G1 X104.300 Y61.700 E7.92953
G1 X104.300 Y110.300 E9.24860
G1 X104.153 Y110.300 E9.25259
G1 X104.153 Y111.025 E9.27225
G1 X102.949 Y112.682 E9.32787
G1 X101.048 Y113.300 E9.38213
G1 X82.952 Y113.300 E9.87325
G1 X81.051 Y112.682 E9.92751
G1 X79.847 Y111.025 E9.98312
G1 X79.847 Y110.300 E10.00279
G1 X79.700 Y110.300 E10.00678
G1 X79.700 Y61.700 E11.32585
G1 X79.847 Y61.700 E11.32983
G1 X79.847 Y60.975 E11.34950
G1 X81.016 Y59.366 E11.40348
G1 X87.072 Y65.707 F5400.000
G1 X87.177 Y65.607 E11.40741 F2700.000
G1 X87.497 Y65.444 E11.41715
G1 X87.626 Y65.413 E11.42074
G1 X87.749 Y65.102 E11.42984
G1 X87.928 Y64.839 E11.43846
G1 X88.156 Y64.627 E11.44691
G1 X88.424 Y64.471 E11.45532
G1 X88.716 Y64.381 E11.46360
G1 X88.999 Y64.354 E11.47134
G1 X89.274 Y64.373 E11.47881
G1 X89.783 Y64.457 E11.49280 F2700.000
G1 X90.170 Y64.577 E11.50381
G1 X90.557 Y64.734 E11.51515
G1 X91.331 Y65.138 E11.53884
G1 X91.913 Y65.508 E11.55758
G1 X92.795 Y65.500 E11.58152
G1 X93.309 Y65.453 E11.59551
G1 X93.909 Y65.368 E11.61197
G1 X94.801 Y65.210 E11.63655
G1 X95.690 Y65.025 E11.66119
G1 X96.480 Y64.842 E11.68320
G1 X97.259 Y64.634 E11.70510
G1 X97.501 Y64.593 E11.71175
G1 X97.879 Y64.571 E11.72203
G1 X98.133 Y64.584 E11.72893
G1 X98.393 Y64.627 E11.73608
G1 X98.650 Y64.705 E11.74336
G1 X98.906 Y64.828 E11.75107
G1 X99.166 Y65.017 E11.75979
G1 X99.390 Y65.293 E11.76944
G1 X99.527 Y65.625 E11.77920
G1 X99.575 Y66.023 E11.79007
G1 X99.481 Y66.402 E11.80067
G1 X99.278 Y66.687 E11.81017
G1 X99.073 Y66.867 E11.81758
G1 X98.874 Y66.997 E11.82402
G1 X98.248 Y67.295 E11.84284
G1 X97.205 Y67.652 E11.87276
G1 X95.970 Y67.981 E11.90744
G1 X94.923 Y68.200 E11.93649
G1 X95.911 Y69.372 E11.97811
G1 X96.689 Y70.436 E12.01389
G1 X97.041 Y70.979 E12.03146
G1 X97.367 Y71.527 E12.04876
G1 X97.661 Y72.076 E12.06566
G1 X97.923 Y72.625 E12.08217
G1 X98.154 Y73.179 E12.09846
G1 X98.346 Y73.735 E12.11443
G1 X98.487 Y74.287 E12.12988
G1 X98.574 Y74.830 E12.14481
G1 X98.604 Y75.358 E12.15918
G1 X98.592 Y75.615 E12.16616
G1 X98.556 Y75.864 E12.17298
G1 X98.491 Y76.109 E12.17986
G1 X98.398 Y76.341 E12.18664
G1 X98.283 Y76.549 E12.19309
G1 X98.149 Y76.739 E12.19939
G1 X97.995 Y76.912 E12.20569
G1 X97.822 Y77.068 E12.21200
G1 X97.637 Y77.201 E12.21821
G1 X97.442 Y77.313 E12.22429
G1 X97.028 Y77.476 E12.23639
G1 X96.606 Y77.564 E12.24807
G1 X96.164 Y77.592 E12.26011
G1 X95.777 Y77.568 E12.27063
G1 X95.375 Y77.497 E12.28171
G1 X94.972 Y77.383 E12.29306
G1 X94.572 Y77.230 E12.30469
G1 X93.788 Y76.840 E12.32846
G1 X93.398 Y76.606 E12.34080
G1 X92.617 Y76.065 E12.36658
G1 X92.230 Y75.761 E12.37995
G1 X91.457 Y75.089 E12.40774
G1 X91.077 Y74.727 E12.42199
G1 X90.345 Y73.972 E12.45055
G1 X89.991 Y73.578 E12.46492
G1 X89.313 Y72.764 E12.49367
G1 X88.762 Y72.031 E12.51855
G1 X88.385 Y71.492 E12.53640
G1 X88.108 Y71.066 E12.55021
G1 X87.611 Y70.219 E12.57686
G1 X87.197 Y69.383 E12.60216
G1 X87.024 Y68.973 E12.61425
G1 X86.751 Y68.160 E12.63752
G1 X86.660 Y67.764 E12.64855
G1 X86.603 Y67.376 E12.65919
G1 X86.583 Y66.999 E12.66946
G1 X86.597 Y66.714 E12.67718
G1 X86.645 Y66.433 E12.68491
G1 X86.742 Y66.149 E12.69307
G1 X86.912 Y65.860 E12.70216
G1 X87.029 Y65.748 E12.70657
G1 X87.414 Y66.151 F5400.000
G1 X87.503 Y66.066 E12.70990 F1890.000
G1 X87.692 Y65.970 E12.71566
G1 X87.899 Y65.920 E12.72145
G1 X88.099 Y65.906 E12.72688
G1 X88.171 Y65.549 E12.73676
G1 X88.244 Y65.365 E12.74216
G1 X88.354 Y65.204 E12.74742
G1 X88.490 Y65.077 E12.75250
G1 X88.649 Y64.984 E12.75749
G1 X88.825 Y64.930 E12.76248
G1 X88.950 Y64.918 E12.76590
G1 X89.322 Y64.935 E12.77600 F1890.000
G1 X89.647 Y64.998 E12.78498
G1 X89.983 Y65.102 E12.79451
G1 X90.329 Y65.243 E12.80467
G1 X91.049 Y65.619 E12.82673
G1 X91.743 Y66.065 E12.84911
G1 X92.828 Y66.057 E12.87856
G1 X93.375 Y66.006 E12.89347
G1 X93.998 Y65.918 E12.91056
G1 X95.367 Y65.664 E12.94833
G1 X96.613 Y65.383 E12.98300
G1 X97.385 Y65.177 E13.00469
G1 X97.718 Y65.133 E13.01380
G1 X98.073 Y65.139 E13.02345
G1 X98.266 Y65.171 E13.02875
G1 X98.448 Y65.226 E13.03390
G1 X98.620 Y65.308 E13.03908
G1 X98.779 Y65.424 E13.04442
G1 X98.906 Y65.581 E13.04990
G1 X98.983 Y65.768 E13.05539
G1 X99.010 Y65.988 E13.06141
G1 X98.966 Y66.165 E13.06635
G1 X98.862 Y66.311 E13.07122
G1 X98.735 Y66.422 E13.07579
G1 X98.589 Y66.517 E13.08053
G1 X98.242 Y66.692 E13.09107
G1 X97.816 Y66.864 E13.10354
G1 X97.318 Y67.034 E13.11784
G1 X96.152 Y67.364 E13.15073
G1 X94.902 Y67.636 E13.18544
G1 X93.775 Y67.816 E13.21641
G1 X94.631 Y68.714 E13.25007
G1 X95.060 Y69.208 E13.26784
G1 X95.862 Y70.229 E13.30308
G1 X96.568 Y71.274 E13.33730
G1 X96.882 Y71.801 E13.35396
G1 X97.164 Y72.328 E13.37016
G1 X97.414 Y72.852 E13.38595
G1 X97.633 Y73.377 E13.40138
G1 X97.812 Y73.896 E13.41627
G1 X97.941 Y74.400 E13.43040
G1 X98.020 Y74.889 E13.44385
G1 X98.046 Y75.361 E13.45668
G1 X98.009 Y75.753 E13.46735
G1 X97.894 Y76.101 E13.47731
G1 X97.712 Y76.392 E13.48662
G1 X97.473 Y76.633 E13.49584
G1 X97.189 Y76.816 E13.50501
G1 X96.871 Y76.941 E13.51428
G1 X96.533 Y77.011 E13.52365
G1 X96.172 Y77.034 E13.53346
G1 X95.843 Y77.014 E13.54242
G1 X95.500 Y76.953 E13.55188
G1 X95.148 Y76.854 E13.56179
G1 X94.789 Y76.717 E13.57223
G1 X94.062 Y76.355 E13.59427
G1 X93.695 Y76.135 E13.60588
G1 X92.953 Y75.620 E13.63039
G1 X92.208 Y75.015 E13.65642
G1 X91.836 Y74.680 E13.67003
G1 X91.107 Y73.967 E13.69771
G1 X90.410 Y73.211 E13.72562
G1 X90.074 Y72.818 E13.73963
G1 X89.750 Y72.418 E13.75360
G1 X89.135 Y71.598 E13.78144
G1 X88.579 Y70.769 E13.80852
G1 X88.330 Y70.360 E13.82153
G1 X87.892 Y69.551 E13.84648
G1 X87.543 Y68.769 E13.86974
G1 X87.403 Y68.388 E13.88076
G1 X87.290 Y68.016 E13.89129
G1 X87.208 Y67.661 E13.90120
G1 X87.158 Y67.321 E13.91052
G1 X87.141 Y66.998 E13.91931
G1 X87.152 Y66.775 E13.92536
G1 X87.187 Y66.571 E13.93099
G1 X87.251 Y66.382 E13.93638
G1 X87.370 Y66.193 E13.94247
G1 X89.066 Y64.564 F5400.000
G1 F2400.000 E10.94247
G1 Z0.860 F5400.000
G92 E0
G1 X91.171 Y78.268 F5400.000
G1 Z0.260 F5400.000
G1 E3.00000 F2400.000
G1 X92.056 Y78.191 E3.02411 F2700.000
G1 X93.273 Y78.137 E3.05718
G1 X95.417 Y78.070 E3.11540
G1 X96.868 Y78.056 E3.15479
G1 X97.636 Y78.096 E3.17564 F2700.000
G1 X98.226 Y78.202 E3.19193
G1 X98.589 Y78.338 E3.20244
G1 X98.768 Y78.439 E3.20804
G1 X98.944 Y78.575 E3.21407
G1 X99.098 Y78.744 E3.22027
G1 X99.218 Y78.933 E3.22636
G1 X99.303 Y79.138 E3.23237
G1 X99.351 Y79.348 E3.23822
G1 X99.365 Y79.550 E3.24371
G1 X99.354 Y79.745 E3.24902
G1 X99.316 Y79.944 E3.25451
G1 X99.241 Y80.151 E3.26050
G1 X99.122 Y80.349 E3.26674
G1 X98.977 Y80.509 E3.27263
G1 X98.820 Y80.634 E3.27807
G1 X98.654 Y80.729 E3.28326
G1 X98.492 Y80.795 E3.28803
G1 X98.211 Y80.866 E3.29587
G1 X97.691 Y80.916 E3.31006
G1 X91.664 Y80.991 E3.47366
G1 X91.461 Y81.008 E3.47919
G1 X91.140 Y81.071 E3.48807
G1 X90.891 Y81.160 E3.49524
G1 X90.607 Y81.329 E3.50421
G1 X90.906 Y81.890 E3.52146
G1 X91.341 Y82.519 E3.54223
G1 X91.913 Y83.194 E3.56623
G1 X92.124 Y83.409 E3.57442
G1 X92.553 Y83.786 E3.58993
G1 X93.171 Y83.750 E3.60672
G1 X94.482 Y83.773 E3.64231
G1 X95.640 Y83.844 E3.67379
G1 X96.635 Y83.950 E3.70096
G1 X97.479 Y84.082 E3.72413
G1 X98.172 Y84.239 E3.74342
G1 X98.739 Y84.433 E3.75968
G1 X98.981 Y84.550 E3.76699
G1 X99.221 Y84.705 E3.77474
G1 X99.493 Y84.981 E3.78527
G1 X99.648 Y85.428 E3.79811
G1 X99.578 Y85.901 E3.81108
G1 X99.389 Y86.263 E3.82216
G1 X99.104 Y86.527 E3.83271
G1 X98.802 Y86.680 E3.84189
G1 X98.524 Y86.762 E3.84976
G1 X98.256 Y86.810 E3.85716
G1 X97.569 Y86.842 E3.87583
G1 X93.154 Y86.703 E3.99570
G1 X91.483 Y86.687 E4.04108
G1 X91.103 Y86.732 E4.05144
G1 X90.796 Y86.814 E4.06007
G1 X90.564 Y86.915 E4.06695
G1 X90.262 Y87.128 E4.07697
G1 X90.566 Y87.524 E4.09051
G1 X90.980 Y87.979 E4.10720
G1 X91.521 Y88.495 E4.12750
G1 X91.930 Y88.840 E4.14202
G1 X92.376 Y89.180 E4.15724
G1 X92.851 Y89.502 E4.17283
G1 X93.341 Y89.797 E4.18833
G1 X93.830 Y90.041 E4.20318
G1 X93.906 Y90.073 E4.20542
G1 X95.375 Y90.014 E4.24532
G1 X96.094 Y90.050 E4.26485
G1 X96.559 Y90.112 E4.27758
G1 X96.990 Y90.201 E4.28952
G1 X97.400 Y90.322 E4.30113
G1 X97.788 Y90.495 E4.31266
G1 X97.979 Y90.611 E4.31873
G1 X98.178 Y90.773 E4.32570
G1 X98.367 Y91.001 E4.33375
G1 X98.505 Y91.297 E4.34259
G1 X98.551 Y91.612 E4.35124
G1 X98.525 Y91.872 E4.35832
G1 X98.446 Y92.112 E4.36520
G1 X98.312 Y92.330 E4.37214
G1 X98.148 Y92.497 E4.37848
G1 X97.987 Y92.611 E4.38384
G1 X97.678 Y92.752 E4.39306
G1 X97.392 Y92.823 E4.40104
G1 X97.120 Y92.860 E4.40849
G1 X96.567 Y92.887 E4.42352
G1 X93.777 Y92.910 E4.49924
G1 X91.434 Y92.974 E4.56286
G1 X89.960 Y93.060 E4.60295
G1 X89.047 Y93.172 E4.62790
G1 X89.068 Y93.572 E4.63879
G1 X89.465 Y93.593 E4.64958
G1 X90.049 Y93.685 E4.66560
G1 X90.635 Y93.834 E4.68202
G1 X91.221 Y94.039 E4.69887
G1 X91.798 Y94.289 E4.71596
G1 X92.365 Y94.579 E4.73323
G1 X92.923 Y94.908 E4.75082
G1 X93.472 Y95.276 E4.76875
G1 X94.008 Y95.679 E4.78696
G1 X94.529 Y96.114 E4.80537
G1 X95.035 Y96.581 E4.82405
G1 X95.525 Y97.079 E4.84303
G1 X95.994 Y97.602 E4.86208
G1 X96.433 Y98.141 E4.88097
G1 X96.844 Y98.698 E4.89974
G1 X97.225 Y99.272 E4.91845
G1 X97.575 Y99.861 E4.93704
G1 X97.888 Y100.462 E4.95544
G1 X98.164 Y101.075 E4.97368
G1 X98.405 Y101.702 E4.99191
G1 X98.602 Y102.341 E5.01007
G1 X98.744 Y102.983 E5.02791
G1 X98.831 Y103.624 E5.04546
G1 X98.859 Y104.256 E5.06264
G1 X98.816 Y104.924 E5.08079
G1 X98.685 Y105.576 E5.09886
G1 X98.577 Y105.907 E5.10831
G1 X98.433 Y106.228 E5.11786
G1 X98.256 Y106.532 E5.12739
G1 X98.045 Y106.818 E5.13704
G1 X97.796 Y107.084 E5.14694
G1 X97.511 Y107.321 E5.15699
G1 X97.198 Y107.524 E5.16712
G1 X96.853 Y107.700 E5.17762
G1 X96.468 Y107.842 E5.18877
G1 X96.050 Y107.940 E5.20042
G1 X95.611 Y107.997 E5.21242
G1 X95.130 Y108.015 E5.22549
G1 X94.285 Y107.944 E5.24852
G1 X93.398 Y107.733 E5.27327
G1 X92.491 Y107.392 E5.29956
G1 X91.557 Y106.925 E5.32790
G1 X90.602 Y106.326 E5.35851
G1 X89.637 Y105.594 E5.39137
G1 X88.665 Y104.733 E5.42663
G1 X87.683 Y103.743 E5.46446
G1 X86.911 Y102.853 E5.49644
G1 X86.219 Y101.930 E5.52775
G1 X85.617 Y101.015 E5.55749
G1 X85.107 Y100.133 E5.58513
G1 X84.694 Y99.301 E5.61034
G1 X84.524 Y98.908 E5.62198
G1 X84.259 Y98.169 E5.64329
G1 X84.169 Y97.832 E5.65274
G1 X84.109 Y97.509 E5.66165
G1 X84.087 Y97.206 E5.66990
G1 X84.103 Y96.851 E5.67955
G1 X84.151 Y96.520 E5.68862
G1 X84.238 Y96.200 E5.69764
G1 X84.376 Y95.877 E5.70717
G1 X84.604 Y95.550 E5.71799
G1 X84.940 Y95.281 E5.72967
G1 X85.334 Y95.126 E5.74117
G1 X85.706 Y95.085 E5.75131
G1 X85.993 Y94.694 E5.76448
G1 X86.168 Y94.513 E5.77131
G1 X86.566 Y94.197 E5.78511
G1 X86.792 Y94.057 E5.79233
G1 X87.294 Y93.828 E5.80730
G1 X87.892 Y93.654 E5.82420
G1 X87.864 Y93.280 E5.83438
G1 X87.502 Y93.245 E5.84423
G1 X87.285 Y93.204 E5.85023
G1 X87.060 Y93.134 E5.85664
G1 X86.815 Y93.010 E5.86406
G1 X86.567 Y92.795 E5.87299
G1 X86.379 Y92.474 E5.88308
G1 X86.320 Y92.122 E5.89276
G1 X86.360 Y91.797 E5.90165
G1 X86.469 Y91.517 E5.90982
G1 X86.627 Y91.283 E5.91748
G1 X86.818 Y91.092 E5.92481
G1 X87.036 Y90.936 E5.93209
G1 X87.270 Y90.815 E5.93925
G1 X87.775 Y90.636 E5.95378
G1 X88.669 Y90.438 E5.97862
G1 X87.928 Y89.685 E6.00728
G1 X87.510 Y89.181 E6.02505
G1 X87.170 Y88.673 E6.04166
G1 X87.039 Y88.409 E6.04966
G1 X86.940 Y88.119 E6.05795
G1 X86.901 Y87.823 E6.06605
G1 X86.920 Y87.471 E6.07563
G1 X86.972 Y87.157 E6.08428
G1 X87.059 Y86.850 E6.09292
G1 X87.177 Y86.557 E6.10150
G1 X87.323 Y86.282 E6.10995
G1 X87.491 Y86.022 E6.11835
G1 X87.684 Y85.777 E6.12680
G1 X87.896 Y85.549 E6.13527
G1 X88.370 Y85.137 E6.15231
G1 X88.996 Y84.723 E6.17269
G1 X88.547 Y84.109 E6.19334
G1 X88.149 Y83.492 E6.21326
G1 X87.676 Y82.618 E6.24025
G1 X87.447 Y82.083 E6.25603
G1 X87.291 Y81.602 E6.26975
G1 X87.242 Y81.369 E6.27623
G1 X87.220 Y81.105 E6.28341
G1 X87.258 Y80.803 E6.29167
G1 X87.355 Y80.520 E6.29978
G1 X87.487 Y80.271 E6.30745
G1 X87.648 Y80.036 E6.31517
G1 X87.840 Y79.808 E6.32327
G1 X88.062 Y79.593 E6.33165
G1 X88.306 Y79.392 E6.34023
G1 X88.871 Y79.022 E6.35858
G1 X89.193 Y78.855 E6.36841
G1 X89.905 Y78.563 E6.38929
G1 X90.305 Y78.439 E6.40067
G1 X90.730 Y78.340 E6.41250
G1 X91.112 Y78.277 E6.42300
G1 X91.202 Y78.827 F5400.000
G1 X91.860 Y78.762 E6.44096 F1890.000
G1 X92.647 Y78.719 E6.46234
G1 X96.100 Y78.615 E6.55611
G1 X96.929 Y78.613 E6.57859 F1890.000
G1 X97.576 Y78.650 E6.59620
G1 X98.075 Y78.739 E6.60996
G1 X98.342 Y78.838 E6.61768
G1 X98.459 Y78.904 E6.62134
G1 X98.565 Y78.986 E6.62498
G1 X98.722 Y79.191 E6.63197
G1 X98.770 Y79.308 E6.63540
G1 X98.807 Y79.554 E6.64216
G1 X98.778 Y79.796 E6.64877
G1 X98.736 Y79.910 E6.65209
G1 X98.594 Y80.102 E6.65855
G1 X98.410 Y80.227 E6.66459
G1 X98.110 Y80.318 E6.67312
G1 X97.671 Y80.359 E6.68508
G1 X91.901 Y80.427 E6.84168
G1 X91.394 Y80.455 E6.85547
G1 X91.180 Y80.488 E6.86135
G1 X90.815 Y80.590 E6.87164
G1 X90.527 Y80.720 E6.88021
G1 X90.315 Y80.869 E6.88725
G1 X90.174 Y81.019 E6.89284
G1 X90.089 Y81.173 E6.89761
G1 X90.047 Y81.358 E6.90275
G1 X90.079 Y81.495 E6.90657
G1 X90.211 Y81.792 E6.91540
G1 X90.432 Y82.182 E6.92758
G1 X90.726 Y82.624 E6.94198
G1 X91.085 Y83.094 E6.95803
G1 X91.736 Y83.809 E6.98428
G1 X91.974 Y84.028 E6.99305
