; generated by Slic3r 1.1.7 on 2014-12-20 at 08:06:39

; perimeters extrusion width = 0.40mm
; infill extrusion width = 0.42mm
; solid infill extrusion width = 0.42mm
; top infill extrusion width = 0.42mm

; perimeters extrusion width = 0.50mm
; infill extrusion width = 0.70mm
; solid infill extrusion width = 0.70mm
; top infill extrusion width = 0.70mm

G21 ; set units to millimeters
M190 S65 ; wait for bed temperature to be reached
M104 S200 T0 ; set temperature
M104 S190 T1 ; set temperature
G28 ; home all axes
M109 S200 T0 ; wait for temperature to be reached
M109 S190 T1 ; wait for temperature to be reached
G90 ; use absolute coordinates
G92 E0
M82 ; use absolute distances for extrusion
T0
G92 E0
M106 S89
G1 F2400.000 E-3.00000
G1 Z0.820 F9000.000
G92 E0
G1 X71.100 Y36.180 F9000.000
G1 Z0.220 F9000.000
G1 E3.00000 F2400.000
G1 X72.190 Y34.680 E3.03330 F1800.000
G1 X73.925 Y32.968 E3.07706
G1 X75.927 Y31.964 E3.11729
G1 X77.691 Y31.391 E3.15058
G1 X80.000 Y31.026 E3.19257
G1 X104.000 Y31.026 E3.62356
G1 X106.309 Y31.391 E3.66555
G1 X108.073 Y31.964 E3.69884 F1800.000
G1 X110.237 Y33.085 E3.74261
G1 X111.810 Y34.679 E3.78283
G1 X112.900 Y36.180 E3.81613
G1 X114.236 Y39.404 E3.87880
G1 X114.474 Y41.500 E3.91669
G1 X114.382 Y131.669 E5.53592
G1 X114.236 Y132.596 E5.55277
G1 X112.900 Y135.820 E5.61545
G1 X111.635 Y137.552 E5.65396
G1 X103.817 Y147.478 E5.88086
G1 X102.946 Y148.408 E5.90372
G1 X101.704 Y149.527 E5.93376
G1 X100.440 Y150.445 E5.96181
G1 X98.991 Y151.281 E5.99185
G1 X97.564 Y151.917 E6.01991
G1 X95.973 Y152.434 E6.04995
G1 X94.445 Y152.759 E6.07801
G1 X92.781 Y152.933 E6.10804
G1 X91.219 Y152.933 E6.13610
G1 X89.556 Y152.759 E6.16613
G1 X88.027 Y152.434 E6.19419
G1 X86.436 Y151.917 E6.22423
G1 X85.009 Y151.281 E6.25229
G1 X83.560 Y150.445 E6.28233
G1 X82.296 Y149.527 E6.31038
G1 X81.054 Y148.408 E6.34041
G1 X80.183 Y147.478 E6.36328
G1 X72.190 Y137.320 E6.59540
G1 X71.100 Y135.820 E6.62869
G1 X69.764 Y132.596 E6.69136
G1 X69.526 Y130.500 E6.72925
G1 X69.618 Y40.331 E8.34848
G1 X69.764 Y39.404 E8.36534
G1 X71.077 Y36.235 E8.42693
G1 X71.398 Y36.396 F9000.000
G1 X72.488 Y34.896 E8.46023 F1800.000
G1 X74.186 Y33.235 E8.50289
G1 X76.041 Y32.315 E8.54007
G1 X77.804 Y31.742 E8.57337
G1 X80.000 Y31.394 E8.61329
G1 X104.000 Y31.394 E9.04427
G1 X106.196 Y31.742 E9.08419
G1 X107.959 Y32.315 E9.11749 F1800.000
G1 X110.064 Y33.416 E9.16015
G1 X111.512 Y34.896 E9.19733
G1 X112.602 Y36.396 E9.23063
G1 X113.872 Y39.462 E9.29021
G1 X114.106 Y41.500 E9.32706
G1 X114.018 Y131.611 E10.94525
G1 X113.872 Y132.538 E10.96211
G1 X112.602 Y135.604 E11.02169
G1 X111.346 Y137.324 E11.05994
G1 X103.527 Y147.250 E11.28684
G1 X102.700 Y148.134 E11.30858
G1 X101.457 Y149.253 E11.33862
G1 X100.255 Y150.126 E11.36529
G1 X98.807 Y150.962 E11.39532
G1 X97.450 Y151.566 E11.42201
G1 X95.859 Y152.083 E11.45204
G1 X94.406 Y152.392 E11.47872
G1 X92.743 Y152.567 E11.50875
G1 X91.257 Y152.567 E11.53542
G1 X89.594 Y152.392 E11.56546
G1 X88.141 Y152.083 E11.59213
G1 X86.550 Y151.566 E11.62217
G1 X85.193 Y150.962 E11.64885
G1 X83.745 Y150.126 E11.67888
G1 X82.543 Y149.253 E11.70556
G1 X81.300 Y148.134 E11.73559
G1 X80.473 Y147.250 E11.75733
G1 X72.488 Y137.104 E11.98919
G1 X71.398 Y135.604 E12.02248
G1 X70.128 Y132.538 E12.08206
G1 X69.894 Y130.500 E12.11891
G1 X69.982 Y40.389 E13.73711
G1 X70.128 Y39.462 E13.75396
G1 X71.375 Y36.452 E13.81247
G1 F2400.000 E3.81247
G1 Z0.820 F9000.000
G92 E0
T1
G92 E0
G1 X24.646 Y35.613 F9000.000
G1 Z0.220 F9000.000
G1 X25.736 Y34.113 E0.03330 F1800.000
G1 X27.397 Y32.503 E0.07483
G1 X29.105 Y31.665 E0.10900
G1 X30.868 Y31.093 E0.14229
G1 X32.950 Y30.763 E0.18014
G1 X56.950 Y30.763 E0.61113
G1 X59.032 Y31.093 E0.64897
G1 X60.795 Y31.665 E0.68227 F1800.000
G1 X62.840 Y32.747 E0.72381
G1 X64.164 Y34.113 E0.75797
G1 X65.254 Y35.613 E0.79127
G1 X66.457 Y38.519 E0.84776
G1 X66.687 Y40.500 E0.88356
G1 X66.604 Y130.554 E2.50073
G1 X66.457 Y131.481 E2.51758
G1 X65.254 Y134.387 E2.57407
G1 X64.006 Y136.096 E2.61207
G1 X55.403 Y146.860 E2.85951
G1 X54.160 Y147.979 E2.88955
G1 X53.021 Y148.807 E2.91483
G1 X51.573 Y149.643 E2.94487
G1 X50.286 Y150.216 E2.97017
G1 X48.695 Y150.733 E3.00020
G1 X47.317 Y151.025 E3.02549
G1 X45.654 Y151.200 E3.05553
G1 X44.246 Y151.200 E3.08082
G1 X42.583 Y151.025 E3.11085
G1 X41.205 Y150.733 E3.13614
G1 X39.614 Y150.216 E3.16618
G1 X38.327 Y149.643 E3.19147
G1 X36.879 Y148.807 E3.22151
G1 X35.740 Y147.979 E3.24680
G1 X33.712 Y146.022 E3.29740
G1 X25.736 Y135.887 E3.52900
G1 X24.646 Y134.387 E3.56230
G1 X23.443 Y131.481 E3.61879
G1 X23.213 Y129.500 E3.65459
G1 X23.296 Y39.446 E5.27176
G1 X23.443 Y38.519 E5.28861
G1 X24.618 Y35.682 E5.34376
G1 X24.944 Y35.830 F9000.000
G1 X26.034 Y34.329 E5.37705 F1800.000
G1 X27.656 Y32.772 E5.41743
G1 X29.219 Y32.016 E5.44860
G1 X30.982 Y31.443 E5.48190
G1 X32.950 Y31.131 E5.51768
G1 X56.950 Y31.131 E5.94866
G1 X58.918 Y31.443 E5.98444
G1 X60.681 Y32.016 E6.01774 F1800.000
G1 X62.663 Y33.077 E6.05811
G1 X63.866 Y34.329 E6.08929
G1 X64.956 Y35.830 E6.12258
G1 X66.093 Y38.577 E6.17598
G1 X66.319 Y40.500 E6.21075
G1 X66.240 Y130.496 E7.82688
G1 X66.093 Y131.423 E7.84374
G1 X64.956 Y134.170 E7.89714
G1 X63.716 Y135.868 E7.93488
G1 X55.157 Y146.586 E8.18120
G1 X53.914 Y147.705 E8.21123
G1 X52.837 Y148.487 E8.23513
G1 X51.388 Y149.324 E8.26517
G1 X50.172 Y149.865 E8.28908
G1 X48.581 Y150.382 E8.31912
G1 X47.279 Y150.659 E8.34302
G1 X45.616 Y150.834 E8.37306
G1 X44.284 Y150.834 E8.39697
G1 X42.621 Y150.659 E8.42700
G1 X41.319 Y150.382 E8.45091
G1 X39.728 Y149.865 E8.48094
G1 X38.512 Y149.324 E8.50485
G1 X37.063 Y148.487 E8.53489
G1 X35.986 Y147.705 E8.55879
G1 X34.002 Y145.794 E8.60827
G1 X26.034 Y135.670 E8.83961
G1 X24.944 Y134.170 E8.87291
G1 X23.807 Y131.423 E8.92631
G1 X23.581 Y129.500 E8.96108
G1 X23.660 Y39.504 E10.57721
G1 X23.807 Y38.577 E10.59406
G1 X24.916 Y35.899 E10.64611
G1 F3600.000 E0.64611
G1 Z0.820 F9000.000
G92 E0
T0
G92 E0
G1 X82.260 Y113.436 F9000.000
G1 Z0.220 F9000.000
G1 E10.00000 F2400.000
G1 X82.173 Y112.911 E10.00957 F1800.000
G1 X82.146 Y112.604 E10.01511
G1 X82.285 Y112.294 E10.02120
G1 F2400.000 E7.02120
G1 Z0.820 F9000.000
G92 E0
G1 X77.180 Y112.294 F9000.000
G1 Z0.220 F9000.000
G1 E3.00000 F2400.000
G1 X77.180 Y41.680 E4.26807 F1800.000
G1 X77.327 Y41.680 E4.27070
G1 X77.327 Y40.631 E4.28954
G1 X78.348 Y39.226 E4.32073
G1 X80.029 Y38.680 E4.35246
G1 X103.971 Y38.680 E4.78243
G1 X105.576 Y39.201 E4.81271
G1 X105.652 Y39.226 E4.81416 F1800.000
G1 X106.673 Y40.631 E4.84535
G1 X106.673 Y41.680 E4.86419
G1 X106.820 Y41.680 E4.86682
G1 X106.820 Y130.320 E6.45860
G1 X106.673 Y130.320 E6.46123
G1 X106.673 Y131.369 E6.48006
G1 X105.652 Y132.774 E6.51126
G1 X103.971 Y133.320 E6.54299
G1 X98.651 Y133.320 E6.63854
G1 X99.436 Y135.084 E6.67321
G1 X99.776 Y136.683 E6.70256
G1 X99.776 Y138.317 E6.73191
G1 X99.436 Y139.916 E6.76127
G1 X98.771 Y141.410 E6.79062
G1 X97.811 Y142.732 E6.81998
G1 X96.596 Y143.826 E6.84933
G1 X95.180 Y144.643 E6.87869
G1 X93.626 Y145.148 E6.90804
G1 X92.000 Y145.319 E6.93739
G1 X90.374 Y145.148 E6.96675
G1 X88.820 Y144.643 E6.99610
G1 X87.404 Y143.826 E7.02546
G1 X86.189 Y142.732 E7.05481
G1 X85.229 Y141.410 E7.08416
G1 X84.564 Y139.916 E7.11352
G1 X84.224 Y138.317 E7.14287
G1 X84.224 Y136.683 E7.17223
G1 X84.564 Y135.084 E7.20158
G1 X85.349 Y133.320 E7.23625
G1 X80.029 Y133.320 E7.33179
G1 X78.348 Y132.774 E7.36353
G1 X77.327 Y131.369 E7.39472
G1 X77.327 Y130.320 E7.41355
G1 X77.180 Y130.320 E7.41619
G1 X77.180 Y112.354 E7.73882
G1 F2400.000 E4.73882
G1 Z0.820 F9000.000
G92 E0
G1 X105.630 Y39.261 F9000.000
G1 X105.424 Y39.540 F9000.000
G1 Z0.220 F9000.000
G1 E3.00000 F2400.000
G1 X106.305 Y40.751 E3.02689 F1800.000
G1 X106.305 Y42.049 E3.05019
G1 X106.451 Y42.049 E3.05283
G1 X106.451 Y129.951 E4.63137
G1 X106.305 Y129.951 E4.63400
G1 X106.305 Y131.249 E4.65730
G1 X105.424 Y132.460 E4.68419
G1 X103.913 Y132.951 E4.71273
G1 X98.083 Y132.951 E4.81742
G1 X99.084 Y135.198 E4.86158
G1 X99.408 Y136.721 E4.88955
G1 X99.408 Y138.279 E4.91751
G1 X99.394 Y138.345 E4.91873
G1 X99.084 Y139.802 E4.94547
G1 X98.450 Y141.224 E4.97343
G1 X97.535 Y142.484 E5.00140
G1 X97.485 Y142.529 E5.00261
G1 X96.378 Y143.526 E5.02936
G1 X95.030 Y144.304 E5.05732
G1 X93.549 Y144.786 E5.08529
G1 X92.000 Y144.948 E5.11325
G1 X90.451 Y144.786 E5.14121
G1 X88.970 Y144.304 E5.16917
G1 X87.622 Y143.526 E5.19714
G1 X86.465 Y142.484 E5.22510
G1 X85.550 Y141.224 E5.25306
G1 X84.916 Y139.802 E5.28102
G1 X84.592 Y138.279 E5.30899
G1 X84.592 Y136.721 E5.33695
G1 X84.916 Y135.198 E5.36491
G1 X85.917 Y132.951 E5.40908
G1 X80.087 Y132.951 E5.51377
G1 X78.576 Y132.460 E5.54230
G1 X77.695 Y131.249 E5.56920
G1 X77.695 Y129.951 E5.59249
G1 X77.549 Y129.951 E5.59513
G1 X77.549 Y42.049 E7.17367
G1 X77.695 Y42.049 E7.17630
G1 X77.695 Y40.751 E7.19960
G1 X78.576 Y39.540 E7.22650
G1 X80.087 Y39.049 E7.25503
G1 X103.913 Y39.049 E7.68290 F1800.000
G1 X105.367 Y39.521 E7.71035
G1 X105.197 Y39.853 F9000.000
G1 X105.936 Y40.871 E7.73295 F1800.000
G1 X105.936 Y42.417 E7.76071
G1 X106.083 Y42.417 E7.76335
G1 X106.083 Y129.583 E9.32865
G1 X105.936 Y129.583 E9.33129
G1 X105.936 Y131.129 E9.35905
G1 X105.197 Y132.147 E9.38164
G1 X103.855 Y132.583 E9.40698
G1 X97.516 Y132.583 E9.52081
G1 X98.731 Y135.313 E9.57448
G1 X99.039 Y136.760 E9.60105
G1 X99.033 Y138.268 E9.62813
G1 X98.731 Y139.687 E9.65418
G1 X98.130 Y141.039 E9.68075
G1 X97.260 Y142.236 E9.70732
G1 X96.160 Y143.226 E9.73389
G1 X94.879 Y143.966 E9.76046
G1 X93.472 Y144.423 E9.78703
G1 X92.000 Y144.578 E9.81361
G1 X90.528 Y144.423 E9.84018
G1 X89.121 Y143.966 E9.86675
G1 X87.840 Y143.226 E9.89332
G1 X86.740 Y142.236 E9.91989
G1 X85.814 Y140.960 E9.94820
G1 X85.829 Y140.945 E9.94859
G1 X85.269 Y139.687 E9.97332
G1 X84.961 Y138.240 E9.99989
G1 X84.961 Y136.760 E10.02646
G1 X85.269 Y135.313 E10.05303
G1 X86.484 Y132.583 E10.10670
G1 X80.145 Y132.583 E10.22053
G1 X78.803 Y132.147 E10.24587
G1 X78.064 Y131.129 E10.26846
G1 X78.064 Y129.583 E10.29622
G1 X77.917 Y129.583 E10.29886
G1 X77.917 Y42.417 E11.86416
G1 X78.064 Y42.417 E11.86680
G1 X78.064 Y40.871 E11.89456
G1 X78.803 Y39.853 E11.91716
G1 X80.145 Y39.417 E11.94249
G1 X103.795 Y39.417 E12.36718
G1 F2400.000 E9.36718
G1 Z0.820 F9000.000
G92 E0
G1 X88.695 Y73.427 F9000.000
G1 Z0.220 F9000.000
G1 E3.00000 F2400.000
G1 X88.904 Y73.551 E3.00434 F1800.000
G1 X89.347 Y73.894 E3.01441
G1 X89.576 Y74.107 E3.02003
G1 X90.046 Y74.615 E3.03245
G1 X90.764 Y75.546 E3.05358
G1 X91.468 Y76.629 E3.07676
G1 X92.127 Y77.802 E3.10093
G1 X92.529 Y78.612 E3.11717
G1 X92.891 Y79.420 E3.13307
G1 X93.335 Y80.591 E3.15557
G1 X93.651 Y81.674 E3.17581
G1 X93.775 Y82.312 E3.18749
G1 X93.814 Y82.681 E3.19415
G1 X91.107 Y82.717 E3.24278
G1 X91.093 Y82.352 E3.24935
G1 X91.051 Y82.072 E3.25442
G1 X90.980 Y81.849 E3.25863
G1 X90.874 Y81.666 E3.26242
G1 X90.725 Y81.530 E3.26605
G1 X90.543 Y81.453 E3.26959
G1 X90.362 Y81.421 E3.27290
G1 X89.944 Y81.398 E3.28041
G1 X89.846 Y81.367 E3.28226
G1 X89.747 Y81.293 E3.28447
G1 X89.663 Y81.196 E3.28678
G1 X89.428 Y80.849 E3.29430
G1 X89.063 Y80.178 E3.30802
G1 X88.695 Y79.396 E3.32354
G1 X88.349 Y78.550 E3.33995
G1 X88.040 Y77.659 E3.35689
G1 X87.776 Y76.758 E3.37375
G1 X87.568 Y75.890 E3.38978
G1 X87.436 Y75.078 E3.40456
G1 X87.391 Y74.364 E3.41741
G1 X87.405 Y74.131 E3.42159
G1 X87.447 Y73.919 E3.42547
G1 X87.513 Y73.731 E3.42905
G1 X87.601 Y73.573 E3.43229
G1 X87.707 Y73.448 E3.43524
G1 X87.835 Y73.354 E3.43808
G1 X87.979 Y73.296 E3.44086
G1 X88.137 Y73.277 E3.44372
G1 X88.322 Y73.293 E3.44706 F1800.000
G1 X88.641 Y73.403 E3.45312
G1 X88.492 Y73.740 F9000.000
G1 X88.702 Y73.859 E3.45744 F1800.000
G1 X88.897 Y74.000 E3.46177
G1 X89.318 Y74.370 E3.47183
G1 X89.539 Y74.599 E3.47755
G1 X89.996 Y75.133 E3.49017
G1 X90.228 Y75.434 E3.49700
G1 X90.926 Y76.454 E3.51919
G1 X91.591 Y77.582 E3.54271
G1 X92.196 Y78.769 E3.56663
G1 X92.551 Y79.563 E3.58225
G1 X92.986 Y80.709 E3.60426
G1 X93.293 Y81.759 E3.62391
G1 X93.402 Y82.318 E3.63413
G1 X91.463 Y82.344 E3.66895
G1 X91.410 Y81.989 E3.67539
G1 X91.318 Y81.703 E3.68080
G1 X91.163 Y81.437 E3.68633
G1 X91.054 Y81.319 E3.68922
G1 X90.925 Y81.219 E3.69214
G1 X90.781 Y81.143 E3.69507
G1 X90.640 Y81.096 E3.69774
G1 X90.402 Y81.054 E3.70207
G1 X90.009 Y81.037 E3.70913
G1 X89.912 Y80.913 E3.71195
G1 X89.630 Y80.459 E3.72155
G1 X89.272 Y79.767 E3.73555
G1 X88.917 Y78.978 E3.75109
G1 X88.694 Y78.419 E3.76188
G1 X88.391 Y77.547 E3.77847
G1 X88.057 Y76.374 E3.80038
G1 X87.879 Y75.548 E3.81555
G1 X87.779 Y74.797 E3.82915
G1 X87.763 Y74.267 E3.83867
G1 X87.785 Y74.094 E3.84181
G1 X87.850 Y73.881 E3.84580
G1 X87.932 Y73.747 E3.84863
G1 X88.017 Y73.675 E3.85063
G1 X88.105 Y73.648 E3.85228
G1 X88.255 Y73.656 E3.85498
G1 X88.437 Y73.716 E3.85842 F1800.000
G1 F2400.000 E0.85842
G1 Z0.820 F9000.000
G92 E0
G1 X88.418 Y76.299 F9000.000
G1 Z0.220 F9000.000
G1 E3.00000 F2400.000
G1 X88.291 Y75.743 E3.01024 F1800.000
G1 X88.201 Y75.232 E3.01957
G1 X88.146 Y74.768 E3.02796
G1 X88.137 Y74.224 E3.03773
G1 X88.173 Y74.003 E3.04175 F1800.000
G1 X88.358 Y74.084 E3.04539
G1 X88.671 Y74.292 E3.05214
G1 X89.059 Y74.633 E3.06142
G1 X89.269 Y74.850 E3.06683
G1 X89.708 Y75.363 E3.07896
G1 X90.161 Y75.971 E3.09257
G1 X90.615 Y76.651 E3.10726
G1 X91.055 Y77.380 E3.12256
G1 X91.474 Y78.143 E3.13818
G1 X92.043 Y79.319 E3.16165
G1 X92.366 Y80.087 E3.17660
G1 X92.636 Y80.827 E3.19075
G1 X92.963 Y81.955 E3.21185
G1 X91.787 Y81.971 E3.23295
G1 X91.721 Y81.730 E3.23744
G1 X91.570 Y81.381 E3.24428
G1 X91.453 Y81.207 E3.24805
G1 X91.303 Y81.045 E3.25200
G1 X91.125 Y80.908 E3.25603
G1 X90.926 Y80.803 E3.26008
G1 X90.581 Y80.707 E3.26651
G1 X90.193 Y80.674 E3.27349
G1 X89.951 Y80.279 E3.28181
G1 X89.721 Y79.846 E3.29062
G1 X89.370 Y79.099 E3.30544
G1 X89.146 Y78.565 E3.31585
G1 X88.742 Y77.435 E3.33739
G1 X88.433 Y76.357 E3.35753
G1 F2400.000 E0.35753
G1 Z0.820 F9000.000
G92 E0
G1 X86.055 Y76.922 F9000.000
G1 Z0.220 F9000.000
G1 E3.00000 F2400.000
G1 X86.315 Y77.874 E3.01773 F1800.000
G1 X86.590 Y78.716 E3.03362
G1 X86.903 Y79.548 E3.04959
G1 X87.238 Y80.337 E3.06498
G1 X87.591 Y81.075 E3.07967
G1 X87.956 Y81.745 E3.09337
G1 X88.332 Y82.337 E3.10597
G1 X88.613 Y82.721 E3.11452
G1 X87.351 Y82.679 E3.13720
G1 X86.528 Y82.701 E3.15198
G1 X85.975 Y82.778 E3.16200
G1 X85.661 Y82.868 E3.16787
G1 X85.519 Y82.928 E3.17065
G1 X85.273 Y83.092 E3.17596
G1 X85.171 Y83.197 E3.17857
G1 X85.088 Y83.319 E3.18122
G1 X85.029 Y83.457 E3.18392
G1 X84.994 Y83.605 E3.18666
G1 X84.987 Y83.838 E3.19084
G1 X85.054 Y84.056 E3.19495
G1 X85.115 Y84.134 E3.19673
G1 X85.294 Y84.244 E3.20049
G1 X85.677 Y84.341 E3.20759
G1 X86.275 Y84.395 E3.21837
G1 X91.569 Y84.473 E3.31345
G1 X92.660 Y84.474 E3.33303
G1 X94.009 Y84.442 E3.35727
G1 X95.581 Y84.367 E3.38554
G1 X97.269 Y84.257 E3.41592
G1 X99.330 Y84.333 E3.45295
G1 X100.305 Y84.346 E3.47046
G1 X100.867 Y84.306 E3.48058
G1 X101.217 Y84.226 E3.48702
G1 X101.500 Y84.081 E3.49273
G1 X101.820 Y83.795 E3.50044
G1 X101.820 Y125.320 E4.24613
G1 X101.673 Y125.320 E4.24877
G1 X101.673 Y126.369 E4.26760
G1 X100.652 Y127.774 E4.29880
G1 X98.971 Y128.320 E4.33053
G1 X85.029 Y128.320 E4.58091
G1 X83.348 Y127.774 E4.61265
G1 X82.327 Y126.369 E4.64384
G1 X82.327 Y125.320 E4.66267
G1 X82.180 Y125.320 E4.66531
G1 X82.180 Y113.637 E4.87510
G1 X82.414 Y113.588 E4.87940
G1 X82.632 Y114.039 E4.88839
G1 X83.038 Y114.749 E4.90307
G1 X83.286 Y115.139 E4.91138
G1 X83.878 Y115.987 E4.92995
G1 X84.597 Y116.924 E4.95117
G1 X85.006 Y117.424 E4.96277
G1 X85.923 Y118.488 E4.98798
G1 X86.436 Y119.045 E5.00158
G1 X87.456 Y120.061 E5.02744
G1 X88.469 Y120.945 E5.05158
G1 X88.970 Y121.334 E5.06297
G1 X89.468 Y121.687 E5.07394
G1 X89.963 Y122.005 E5.08450
G1 X90.452 Y122.287 E5.09464
G1 X90.937 Y122.531 E5.10439
G1 X91.418 Y122.739 E5.11379
G1 X91.771 Y122.866 E5.12054
G1 X92.363 Y123.043 E5.13163
G1 X92.825 Y123.139 E5.14011
G1 X93.280 Y123.196 E5.14835
G1 X93.991 Y123.210 E5.16110
G1 X94.484 Y123.163 E5.16999
G1 X94.953 Y123.060 E5.17863
G1 X94.953 Y123.087 E5.17911
G1 X95.345 Y122.877 E5.18709
G1 X95.525 Y122.750 E5.19106
G1 X95.688 Y122.597 E5.19507
