; generated by Slic3r 1.1.7 on 2014-12-20 at 08:08:32

; perimeters extrusion width = 0.40mm
; infill extrusion width = 0.42mm
; solid infill extrusion width = 0.42mm
; top infill extrusion width = 0.42mm

; perimeters extrusion width = 0.50mm
; infill extrusion width = 0.70mm
; solid infill extrusion width = 0.70mm
; top infill extrusion width = 0.70mm

G21 ; set units to millimeters
M190 S65 ; wait for bed temperature to be reached
M104 S200 T0 ; set temperature
M104 S190 T1 ; set temperature
G28 ; home all axes
M109 S200 T0 ; wait for temperature to be reached
M109 S190 T1 ; wait for temperature to be reached
G90 ; use absolute coordinates
G92 E0
M82 ; use absolute distances for extrusion
T0
G92 E0
M106 S89
G1 F2400.000 E-3.00000
G1 Z0.820 F9000.000
G92 E0
G1 X68.600 Y28.680 F9000.000
G1 Z0.220 F9000.000
G1 E3.00000 F2400.000
G1 X69.690 Y27.180 E3.03330 F1800.000
G1 X71.425 Y25.468 E3.07706
G1 X73.427 Y24.464 E3.11729
G1 X75.191 Y23.891 E3.15058
G1 X77.500 Y23.526 E3.19257
G1 X106.500 Y23.526 E3.71335
G1 X108.809 Y23.891 E3.75534
G1 X110.573 Y24.464 E3.78863 F1800.000
G1 X112.737 Y25.585 E3.83240
G1 X114.310 Y27.180 E3.87262
G1 X115.400 Y28.680 E3.90592
G1 X116.736 Y31.904 E3.96859
G1 X116.974 Y34.000 E4.00647
G1 X116.882 Y139.169 E5.89507
G1 X116.736 Y140.096 E5.91193
G1 X115.400 Y143.320 E5.97460
G1 X114.310 Y144.820 E6.00790
G1 X113.445 Y145.814 E6.03155
G1 X102.946 Y155.907 E6.29309
G1 X101.704 Y157.027 E6.32312
G1 X100.440 Y157.945 E6.35117
G1 X98.991 Y158.781 E6.38121
G1 X97.564 Y159.417 E6.40928
G1 X95.973 Y159.934 E6.43931
G1 X94.444 Y160.259 E6.46737
G1 X92.781 Y160.433 E6.49740
G1 X91.219 Y160.433 E6.52546
G1 X89.556 Y160.259 E6.55549
G1 X88.027 Y159.934 E6.58355
G1 X86.436 Y159.417 E6.61359
G1 X85.009 Y158.781 E6.64165
G1 X83.560 Y157.945 E6.67169
G1 X82.296 Y157.027 E6.69974
G1 X80.873 Y155.740 E6.73420
G1 X70.555 Y145.814 E6.99131
G1 X69.690 Y144.820 E7.01497
G1 X68.600 Y143.320 E7.04826
G1 X67.264 Y140.096 E7.11093
G1 X67.026 Y138.000 E7.14882
G1 X67.118 Y32.831 E9.03742
G1 X67.264 Y31.904 E9.05427
G1 X68.577 Y28.735 E9.11587
G1 X68.898 Y28.896 F9000.000
G1 X69.988 Y27.396 E9.14916 F1800.000
G1 X71.686 Y25.735 E9.19183
G1 X73.541 Y24.815 E9.22901
G1 X75.304 Y24.242 E9.26230
G1 X77.500 Y23.894 E9.30222
G1 X106.500 Y23.894 E9.82300
G1 X108.696 Y24.242 E9.86292
G1 X110.459 Y24.815 E9.89621 F1800.000
G1 X112.564 Y25.916 E9.93888
G1 X114.012 Y27.396 E9.97606
G1 X115.102 Y28.896 E10.00935
G1 X116.372 Y31.962 E10.06894
G1 X116.606 Y34.000 E10.10578
G1 X116.518 Y139.111 E11.99334
G1 X116.372 Y140.038 E12.01020
G1 X115.102 Y143.104 E12.06978
G1 X114.012 Y144.604 E12.10308
G1 X113.190 Y145.548 E12.12556
G1 X102.700 Y155.634 E12.38688
G1 X101.457 Y156.753 E12.41691
G1 X100.255 Y157.626 E12.44359
G1 X98.807 Y158.462 E12.47362
G1 X97.450 Y159.066 E12.50030
G1 X95.859 Y159.583 E12.53034
G1 X94.406 Y159.892 E12.55701
G1 X92.743 Y160.067 E12.58705
G1 X91.257 Y160.067 E12.61372
G1 X89.594 Y159.892 E12.64375
G1 X88.141 Y159.583 E12.67043
G1 X86.550 Y159.066 E12.70046
G1 X85.193 Y158.462 E12.72714
G1 X83.745 Y157.626 E12.75718
G1 X82.543 Y156.753 E12.78385
G1 X81.129 Y155.474 E12.81809
G1 X70.810 Y145.548 E13.07520
G1 X69.988 Y144.604 E13.09769
G1 X68.898 Y143.104 E13.13099
G1 X67.628 Y140.038 E13.19057
G1 X67.394 Y138.000 E13.22741
G1 X67.482 Y32.889 E15.11498
G1 X67.628 Y31.962 E15.13183
G1 X68.875 Y28.952 E15.19034
G1 F2400.000 E5.19034
G1 Z0.820 F9000.000
G92 E0
T1
G92 E0
G1 X22.146 Y28.113 F9000.000
G1 Z0.220 F9000.000
G1 X23.236 Y26.613 E0.03330 F1800.000
G1 X24.897 Y25.003 E0.07483
G1 X26.605 Y24.165 E0.10900
G1 X28.368 Y23.593 E0.14229
G1 X30.450 Y23.263 E0.18014
G1 X59.450 Y23.263 E0.70091
G1 X61.532 Y23.593 E0.73876
G1 X63.295 Y24.165 E0.77206 F1800.000
G1 X65.340 Y25.247 E0.81359
G1 X66.664 Y26.613 E0.84776
G1 X67.754 Y28.113 E0.88105
G1 X68.957 Y31.019 E0.93755
G1 X69.187 Y33.000 E0.97335
G1 X69.104 Y138.054 E2.85988
G1 X68.957 Y138.981 E2.87674
G1 X67.754 Y141.887 E2.93323
G1 X66.664 Y143.387 E2.96652
G1 X65.884 Y144.282 E2.98784
G1 X55.403 Y154.360 E3.24894
G1 X54.160 Y155.479 E3.27898
G1 X53.021 Y156.307 E3.30427
G1 X51.573 Y157.143 E3.33430
G1 X50.286 Y157.716 E3.35960
G1 X48.695 Y158.233 E3.38963
G1 X47.317 Y158.525 E3.41492
G1 X45.654 Y158.700 E3.44496
G1 X44.246 Y158.700 E3.47025
G1 X42.583 Y158.525 E3.50028
G1 X41.205 Y158.233 E3.52557
G1 X39.614 Y157.716 E3.55561
G1 X38.327 Y157.143 E3.58090
G1 X36.879 Y156.307 E3.61094
G1 X35.740 Y155.479 E3.63623
G1 X34.334 Y154.208 E3.67025
G1 X24.016 Y144.282 E3.92736
G1 X23.236 Y143.387 E3.94868
G1 X22.146 Y141.887 E3.98198
G1 X20.943 Y138.981 E4.03847
G1 X20.713 Y137.000 E4.07428
G1 X20.796 Y31.946 E5.96080
G1 X20.943 Y31.019 E5.97766
G1 X22.118 Y28.182 E6.03280
G1 X22.444 Y28.330 F9000.000
G1 X23.534 Y26.829 E6.06610 F1800.000
G1 X25.156 Y25.272 E6.10648
G1 X26.719 Y24.516 E6.13765
G1 X28.482 Y23.943 E6.17095
G1 X30.450 Y23.631 E6.20673
G1 X59.450 Y23.631 E6.72750
G1 X61.418 Y23.943 E6.76328
G1 X63.181 Y24.516 E6.79657 F1800.000
G1 X65.163 Y25.577 E6.83695
G1 X66.366 Y26.829 E6.86812
G1 X67.456 Y28.330 E6.90142
G1 X68.593 Y31.077 E6.95482
G1 X68.819 Y33.000 E6.98959
G1 X68.740 Y137.996 E8.87508
G1 X68.593 Y138.923 E8.89194
G1 X67.456 Y141.670 E8.94534
G1 X65.629 Y144.017 E8.99874
G1 X55.157 Y154.086 E9.25962
G1 X53.914 Y155.205 E9.28966
G1 X52.837 Y155.987 E9.31356
G1 X51.388 Y156.824 E9.34360
G1 X50.172 Y157.365 E9.36751
G1 X48.581 Y157.882 E9.39754
G1 X47.279 Y158.159 E9.42145
G1 X45.616 Y158.334 E9.45149
G1 X44.284 Y158.334 E9.47539
G1 X42.621 Y158.159 E9.50543
G1 X41.319 Y157.882 E9.52933
G1 X39.728 Y157.365 E9.55937
G1 X38.512 Y156.824 E9.58328
G1 X37.063 Y155.987 E9.61332
G1 X35.986 Y155.205 E9.63722
G1 X34.590 Y153.943 E9.67103
G1 X23.534 Y143.170 E9.94822
G1 X22.444 Y141.670 E9.98151
G1 X21.307 Y138.923 E10.03491
G1 X21.081 Y137.000 E10.06968
G1 X21.160 Y32.004 E11.95518
G1 X21.307 Y31.077 E11.97203
G1 X22.416 Y28.399 E12.02409
G1 F3600.000 E2.02409
G1 Z0.820 F9000.000
G92 E0
T0
G92 E0
G1 X91.574 Y120.694 F9000.000
G1 Z0.220 F9000.000
G1 E10.00000 F2400.000
G1 X91.812 Y120.824 E10.00488 F1800.000
G1 X92.133 Y121.076 E10.01220
G1 X92.478 Y121.420 E10.02095
G1 X92.979 Y122.020 E10.03500
G1 F2400.000 E7.03500
G1 Z0.820 F9000.000
G92 E0
G1 X109.320 Y122.020 F9000.000
G1 Z0.220 F9000.000
G1 E3.00000 F2400.000
G1 X109.320 Y137.820 E3.28373 F1800.000
G1 X109.173 Y137.820 E3.28636
G1 X109.173 Y138.869 E3.30519
G1 X108.152 Y140.274 E3.33639
G1 X106.471 Y140.820 E3.36812
G1 X98.651 Y140.820 E3.50856
G1 X99.434 Y142.571 E3.54300
G1 X99.776 Y144.183 E3.57259
G1 X99.776 Y145.817 E3.60194
G1 X99.436 Y147.416 E3.63130
G1 X98.771 Y148.910 E3.66065
G1 X97.811 Y150.232 E3.69000
G1 X96.596 Y151.326 E3.71936
G1 X95.180 Y152.143 E3.74871
G1 X93.626 Y152.648 E3.77807
G1 X92.000 Y152.819 E3.80742
G1 X90.374 Y152.648 E3.83678
G1 X88.820 Y152.143 E3.86613
G1 X87.404 Y151.326 E3.89548
G1 X86.189 Y150.232 E3.92484
G1 X85.229 Y148.910 E3.95419
G1 X84.564 Y147.416 E3.98355
G1 X84.224 Y145.817 E4.01290
G1 X84.224 Y144.183 E4.04225
G1 X84.564 Y142.584 E4.07161
G1 X85.349 Y140.820 E4.10628
G1 X77.529 Y140.820 E4.24672
G1 X75.848 Y140.274 E4.27845
G1 X74.827 Y138.869 E4.30964
G1 X74.827 Y137.820 E4.32848
G1 X74.680 Y137.820 E4.33111
G1 X74.680 Y34.180 E6.19225
G1 X74.827 Y34.180 E6.19489
G1 X74.827 Y33.131 E6.21372
G1 X75.848 Y31.726 E6.24491
G1 X77.529 Y31.180 E6.27665
G1 X106.471 Y31.180 E6.79640
G1 X108.076 Y31.701 E6.82669
G1 X108.152 Y31.726 E6.82813 F1800.000
G1 X109.173 Y33.131 E6.85933
G1 X109.173 Y34.180 E6.87816
G1 X109.320 Y34.180 E6.88080
G1 X109.320 Y121.960 E8.45713
G1 F2400.000 E5.45713
G1 Z0.820 F9000.000
G92 E0
G1 X108.143 Y31.745 F9000.000
G1 X107.924 Y32.040 F9000.000
G1 Z0.220 F9000.000
G1 E3.00000 F2400.000
G1 X108.805 Y33.251 E3.02689 F1800.000
G1 X108.805 Y34.549 E3.05019
G1 X108.951 Y34.549 E3.05283
G1 X108.951 Y137.451 E4.90073
G1 X108.805 Y137.451 E4.90337
G1 X108.805 Y138.749 E4.92667
G1 X107.924 Y139.960 E4.95356
G1 X106.413 Y140.451 E4.98210
G1 X98.083 Y140.451 E5.13168
G1 X99.084 Y142.698 E5.17585
G1 X99.408 Y144.221 E5.20381
G1 X99.408 Y145.779 E5.23177
G1 X99.084 Y147.302 E5.25973
G1 X98.450 Y148.724 E5.28770
G1 X97.535 Y149.984 E5.31566
G1 X96.378 Y151.026 E5.34362
G1 X95.030 Y151.804 E5.37158
G1 X93.549 Y152.286 E5.39955
G1 X92.000 Y152.448 E5.42751
G1 X90.451 Y152.286 E5.45547
G1 X88.970 Y151.804 E5.48343
G1 X87.622 Y151.026 E5.51140
G1 X86.465 Y149.984 E5.53936
G1 X85.550 Y148.724 E5.56732
G1 X84.916 Y147.302 E5.59529
G1 X84.592 Y145.779 E5.62325
G1 X84.592 Y144.221 E5.65121
G1 X84.916 Y142.698 E5.67917
G1 X85.917 Y140.451 E5.72334
G1 X77.587 Y140.451 E5.87292
G1 X76.076 Y139.960 E5.90146
G1 X75.195 Y138.749 E5.92835
G1 X75.195 Y137.451 E5.95165
G1 X75.049 Y137.451 E5.95429
G1 X75.049 Y34.549 E7.80219
G1 X75.195 Y34.549 E7.80483
G1 X75.195 Y33.251 E7.82812
G1 X76.076 Y32.040 E7.85502
G1 X77.587 Y31.549 E7.88355
G1 X106.413 Y31.549 E8.40121 F1800.000
G1 X107.867 Y32.021 E8.42866
G1 X107.697 Y32.353 F9000.000
G1 X108.436 Y33.371 E8.45126 F1800.000
G1 X108.436 Y34.917 E8.47902
G1 X108.583 Y34.917 E8.48166
G1 X108.583 Y137.083 E10.31633
G1 X108.436 Y137.083 E10.31896
G1 X108.436 Y138.629 E10.34673
G1 X107.697 Y139.647 E10.36932
G1 X106.355 Y140.083 E10.39466
G1 X97.516 Y140.083 E10.55338
G1 X98.731 Y142.813 E10.60705
G1 X99.039 Y144.260 E10.63362
G1 X99.039 Y145.740 E10.66019
G1 X98.731 Y147.187 E10.68676
G1 X98.130 Y148.539 E10.71333
G1 X97.260 Y149.736 E10.73990
G1 X96.160 Y150.726 E10.76647
G1 X94.879 Y151.466 E10.79305
G1 X93.472 Y151.923 E10.81962
G1 X92.000 Y152.078 E10.84619
G1 X90.528 Y151.923 E10.87276
G1 X89.121 Y151.466 E10.89933
G1 X87.840 Y150.726 E10.92590
G1 X86.740 Y149.736 E10.95247
G1 X85.870 Y148.539 E10.97904
G1 X85.269 Y147.187 E11.00562
G1 X84.961 Y145.740 E11.03219
G1 X84.961 Y144.260 E11.05876
G1 X85.269 Y142.813 E11.08533
G1 X86.484 Y140.083 E11.13899
G1 X77.645 Y140.083 E11.29772
G1 X76.303 Y139.647 E11.32306
G1 X75.564 Y138.629 E11.34565
G1 X75.564 Y137.083 E11.37341
G1 X75.417 Y137.083 E11.37605
G1 X75.417 Y34.917 E13.21072
G1 X75.564 Y34.917 E13.21335
G1 X75.564 Y33.371 E13.24112
G1 X76.303 Y32.353 E13.26371
G1 X77.645 Y31.917 E13.28905
G1 X106.295 Y31.917 E13.80353
G1 F2400.000 E10.80353
G1 Z0.820 F9000.000
G92 E0
G1 X103.152 Y36.726 F9000.000
G1 Z0.220 F9000.000
G1 E3.00000 F2400.000
G1 X104.173 Y38.131 E3.03119 F1800.000
G1 X104.173 Y39.180 E3.05003
G1 X104.320 Y39.180 E3.05266
G1 X104.320 Y132.820 E4.73423
G1 X104.173 Y132.820 E4.73686
G1 X104.173 Y133.869 E4.75569
G1 X103.152 Y135.274 E4.78689
G1 X101.471 Y135.820 E4.81862
G1 X82.529 Y135.820 E5.15879
G1 X80.848 Y135.274 E5.19053
G1 X79.827 Y133.869 E5.22172
G1 X79.827 Y132.820 E5.24055
G1 X79.680 Y132.820 E5.24319
G1 X79.680 Y39.180 E6.92475
G1 X79.827 Y39.180 E6.92739
G1 X79.827 Y38.131 E6.94622
G1 X80.848 Y36.726 E6.97742
G1 X82.529 Y36.180 E7.00915
G1 X101.471 Y36.180 E7.34932 F1800.000
G1 X103.095 Y36.707 E7.37998
G1 F2400.000 E4.37998
G1 Z0.820 F9000.000
G92 E0
G1 X92.483 Y69.670 F9000.000
G1 Z0.220 F9000.000
G1 E3.00000 F2400.000
G1 X93.227 Y70.723 E3.02315 F1800.000
G1 X93.840 Y71.640 E3.04296
G1 X94.436 Y72.597 E3.06319
G1 X94.812 Y73.246 E3.07668
G1 X95.155 Y73.899 E3.08991
G1 X95.455 Y74.550 E3.10278
G1 X95.805 Y75.503 E3.12102
G1 X95.962 Y76.115 E3.13235
G1 X96.041 Y76.696 E3.14289
G1 X96.050 Y76.974 E3.14788
G1 X96.031 Y77.300 E3.15374
G1 X95.977 Y77.560 E3.15852
G1 X95.893 Y77.756 E3.16235
G1 X95.781 Y77.896 E3.16557
G1 X95.639 Y78.001 E3.16875
G1 X95.464 Y78.080 E3.17220
G1 X95.254 Y78.129 E3.17606
G1 X95.011 Y78.146 E3.18044
G1 X94.707 Y78.095 E3.18598
G1 X94.527 Y78.029 E3.18941
G1 X94.119 Y77.811 E3.19772
G1 X93.674 Y77.504 E3.20742
G1 X92.961 Y76.895 E3.22427
G1 X92.211 Y76.131 E3.24348
G1 X91.722 Y75.567 E3.25690
G1 X91.024 Y74.661 E3.27744
G1 X90.386 Y73.717 E3.29790
G1 X89.851 Y72.793 E3.31707
G1 X89.568 Y72.208 E3.32875
G1 X89.354 Y71.656 E3.33936
G1 X89.222 Y71.162 E3.34856
G1 X89.189 Y70.943 E3.35252
G1 X89.185 Y70.519 E3.36014
G1 X89.203 Y70.315 E3.36382
G1 X89.275 Y69.967 E3.37021
G1 X89.426 Y69.552 E3.37814
G1 X89.637 Y69.563 E3.38193
G1 X92.423 Y69.668 E3.43200 F1800.000
G1 X92.288 Y70.032 F9000.000
G1 X93.330 Y71.533 E3.46481 F1800.000
G1 X93.928 Y72.468 E3.48475
G1 X94.307 Y73.105 E3.49806
G1 X94.663 Y73.744 E3.51120
G1 X94.976 Y74.378 E3.52389
G1 X95.354 Y75.310 E3.54196
G1 X95.535 Y75.904 E3.55311
G1 X95.646 Y76.458 E3.56325
G1 X95.681 Y76.970 E3.57246
G1 X95.665 Y77.251 E3.57752
G1 X95.624 Y77.448 E3.58114
G1 X95.574 Y77.565 E3.58342
G1 X95.523 Y77.629 E3.58489
G1 X95.346 Y77.729 E3.58855
G1 X95.200 Y77.763 E3.59124
G1 X95.014 Y77.776 E3.59457
G1 X94.814 Y77.742 E3.59823
G1 X94.672 Y77.689 E3.60094
G1 X94.312 Y77.497 E3.60827
G1 X93.897 Y77.211 E3.61732
G1 X93.213 Y76.626 E3.63347
G1 X92.729 Y76.146 E3.64573
G1 X92.243 Y75.612 E3.65868
G1 X91.774 Y75.043 E3.67194
G1 X91.108 Y74.139 E3.69209
G1 X90.698 Y73.520 E3.70542
G1 X90.338 Y72.916 E3.71806
G1 X90.032 Y72.336 E3.72983
G1 X89.796 Y71.795 E3.74043
G1 X89.633 Y71.304 E3.74971
G1 X89.557 Y70.906 E3.75699
G1 X89.553 Y70.541 E3.76356
G1 X89.569 Y70.361 E3.76680
G1 X89.629 Y70.068 E3.77216
G1 X89.672 Y69.934 E3.77470 F1800.000
G1 X92.228 Y70.029 E3.82063
G1 F2400.000 E0.82063
G1 Z0.820 F9000.000
G92 E0
G1 X92.408 Y75.237 F9000.000
G1 Z0.220 F9000.000
G1 E3.00000 F2400.000
G1 X91.840 Y74.524 E3.01637 F1800.000
G1 X91.206 Y73.626 E3.03611
G1 X90.828 Y73.027 E3.04883
G1 X90.364 Y72.175 E3.06625
G1 X90.054 Y71.424 E3.08084
G1 X89.989 Y71.209 E3.08487
G1 X89.924 Y70.870 E3.09108
G1 X89.921 Y70.562 E3.09660
G1 X89.943 Y70.315 E3.10106
G1 X90.142 Y70.324 E3.10464
G1 X92.093 Y70.393 E3.13969 F1800.000
G1 X92.822 Y71.437 E3.16256
G1 X93.614 Y72.661 E3.18873
G1 X94.168 Y73.605 E3.20838
G1 X94.641 Y74.532 E3.22708
G1 X95.006 Y75.431 E3.24449
G1 X95.178 Y75.996 E3.25510
G1 X95.238 Y76.259 E3.25994
G1 X95.280 Y76.508 E3.26448
G1 X95.312 Y76.965 E3.27272
G1 X95.299 Y77.203 E3.27699
G1 X95.264 Y77.370 E3.28005
G1 X95.017 Y77.406 E3.28453
G1 X94.817 Y77.350 E3.28827
G1 X94.505 Y77.183 E3.29461
G1 X94.120 Y76.917 E3.30302
G1 X93.691 Y76.564 E3.31299
G1 X93.233 Y76.133 E3.32428
G1 X92.447 Y75.282 E3.34508
G1 F2400.000 E0.34508
G1 Z0.820 F9000.000
G92 E0
G1 X90.097 Y77.143 F9000.000
G1 Z0.220 F9000.000
G1 E3.00000 F2400.000
G1 X90.535 Y77.657 E3.01213 F1800.000
G1 X90.939 Y78.088 E3.02274
G1 X91.357 Y78.497 E3.03324
G1 X91.787 Y78.877 E3.04356
G1 X92.228 Y79.223 E3.05361
G1 X92.678 Y79.533 E3.06343
G1 X93.141 Y79.809 E3.07311
G1 X93.619 Y80.040 E3.08263
G1 X94.104 Y80.209 E3.09187
G1 X94.594 Y80.313 E3.10085
G1 X95.073 Y80.347 E3.10948
G1 X95.608 Y80.311 E3.11911
G1 X96.118 Y80.200 E3.12848
G1 X96.376 Y80.105 E3.13342
G1 X96.625 Y79.975 E3.13847
G1 X96.855 Y79.812 E3.14352
G1 X97.066 Y79.618 E3.14866
G1 X97.254 Y79.392 E3.15395
G1 X97.417 Y79.137 E3.15939
G1 X97.553 Y78.858 E3.16497
G1 X97.667 Y78.553 E3.17081
G1 X97.757 Y78.216 E3.17708
G1 X97.819 Y77.847 E3.18379
G1 X97.855 Y77.450 E3.19094
G1 X97.867 Y77.021 E3.19865
G1 X97.852 Y76.624 E3.20579
G1 X97.806 Y76.221 E3.21307
G1 X97.730 Y75.815 E3.22049
G1 X97.625 Y75.409 E3.22802
G1 X97.498 Y75.009 E3.23555
G1 X97.195 Y74.222 E3.25071
G1 X96.828 Y73.448 E3.26609
G1 X96.415 Y72.700 E3.28143
G1 X95.965 Y71.985 E3.29660
G1 X95.512 Y71.322 E3.31102
G1 X94.562 Y70.067 E3.33929
G1 X97.234 Y70.062 E3.38728
G1 X97.838 Y70.013 E3.39816
G1 X98.173 Y69.942 E3.40431
G1 X98.488 Y69.811 E3.41044
G1 X98.651 Y69.687 E3.41411
G1 X98.789 Y69.510 E3.41814
G1 X98.871 Y69.301 E3.42216
G1 X98.893 Y69.099 E3.42582
G1 X98.849 Y68.793 E3.43137
G1 X98.801 Y68.657 E3.43396
G1 X98.663 Y68.400 E3.43920
G1 X98.470 Y68.167 E3.44464
G1 X98.226 Y67.962 E3.45037
G1 X97.935 Y67.796 E3.45638
G1 X97.593 Y67.672 E3.46292
G1 X97.401 Y67.631 E3.46644
G1 X97.008 Y67.601 E3.47350
G1 X96.619 Y67.601 E3.48049
G1 X95.492 Y67.724 E3.50085
G1 X94.271 Y67.801 E3.52283
G1 X92.947 Y67.843 E3.54662
G1 X91.561 Y67.857 E3.57151
G1 X88.305 Y67.805 E3.62998
G1 X83.545 Y67.621 E3.71553
G1 X82.512 Y67.606 E3.73408
G1 X81.808 Y67.676 E3.74678
G1 X81.215 Y67.819 E3.75774
