; generated by Slic3r 1.1.7 on 2014-12-20 at 08:09:47

; perimeters extrusion width = 0.40mm
; infill extrusion width = 0.42mm
; solid infill extrusion width = 0.42mm
; top infill extrusion width = 0.42mm

; perimeters extrusion width = 0.50mm
; infill extrusion width = 0.70mm
; solid infill extrusion width = 0.70mm
; top infill extrusion width = 0.70mm

G21 ; set units to millimeters
M190 S65 ; wait for bed temperature to be reached
M104 S200 T0 ; set temperature
M104 S190 T1 ; set temperature
G28 ; home all axes
M109 S200 T0 ; wait for temperature to be reached
M109 S190 T1 ; wait for temperature to be reached
G90 ; use absolute coordinates
G92 E0
M82 ; use absolute distances for extrusion
T0
G92 E0
M106 S89
G1 F2400.000 E-3.00000
G1 Z0.820 F9000.000
G92 E0
G1 X110.137 Y60.955 F9000.000
G1 Z0.220 F9000.000
G1 E3.00000 F2400.000
G1 X110.817 Y59.843 E3.02340 F1800.000
G1 X111.907 Y58.343 E3.05669
G1 X113.712 Y56.535 E3.10258
G1 X116.013 Y55.360 E3.14897
G1 X117.776 Y54.787 E3.18226
G1 X120.313 Y54.386 E3.22840
G1 X144.313 Y54.386 E3.65938
G1 X146.851 Y54.787 E3.70551
G1 X148.614 Y55.360 E3.73881 F1800.000
G1 X150.892 Y56.518 E3.78469
G1 X152.720 Y58.343 E3.83108
G1 X153.810 Y59.843 E3.86438
G1 X154.972 Y62.119 E3.91027
G1 X155.277 Y63.386 E3.93366
G1 X155.424 Y64.313 E3.95052
G1 X155.525 Y65.597 E3.97365
G1 X155.525 Y129.597 E5.12295
G1 X155.424 Y130.881 E5.14608
G1 X155.277 Y131.808 E5.16294
G1 X154.490 Y134.239 E5.20882
G1 X153.810 Y135.351 E5.23222
G1 X152.528 Y137.105 E5.27124
G1 X144.709 Y147.031 E5.49814
G1 X143.753 Y148.052 E5.52327
G1 X142.510 Y149.171 E5.55330
G1 X141.122 Y150.180 E5.58412
G1 X139.673 Y151.017 E5.61416
G1 X138.105 Y151.715 E5.64499
G1 X136.514 Y152.232 E5.67503
G1 X134.835 Y152.589 E5.70585
G1 X133.172 Y152.764 E5.73589
G1 X131.455 Y152.764 E5.76671
G1 X129.792 Y152.589 E5.79674
G1 X128.113 Y152.232 E5.82757
G1 X126.522 Y151.715 E5.85761
G1 X124.954 Y151.017 E5.88844
G1 X123.505 Y150.180 E5.91847
G1 X122.117 Y149.171 E5.94930
G1 X120.874 Y148.052 E5.97933
G1 X119.918 Y147.031 E6.00445
G1 X111.907 Y136.851 E6.23708
G1 X110.817 Y135.351 E6.27038
G1 X109.655 Y133.075 E6.31626
G1 X109.350 Y131.808 E6.33966
G1 X109.203 Y130.881 E6.35652
G1 X109.102 Y129.597 E6.37965
G1 X109.102 Y65.597 E7.52895
G1 X109.203 Y64.313 E7.55208
G1 X109.350 Y63.386 E7.56894
G1 X110.119 Y61.012 E7.61374
G1 X110.633 Y61.225 F9000.000
G1 X111.115 Y60.060 E7.63638 F1800.000
G1 X112.205 Y58.560 E7.66968
G1 X113.975 Y56.799 E7.71452
G1 X116.127 Y55.711 E7.75781
G1 X117.890 Y55.138 E7.79111
G1 X120.313 Y54.754 E7.83517
G1 X144.313 Y54.754 E8.26616
G1 X146.737 Y55.138 E8.31022
G1 X148.500 Y55.711 E8.34351 F1800.000
G1 X150.722 Y56.850 E8.38835
G1 X152.422 Y58.560 E8.43164
G1 X153.512 Y60.060 E8.46494
G1 X154.913 Y63.443 E8.53071
G1 X155.156 Y65.597 E8.56963
G1 X155.060 Y130.824 E9.74095
G1 X154.913 Y131.751 E9.75781
G1 X153.512 Y135.134 E9.82357
G1 X152.238 Y136.877 E9.86234
G1 X144.420 Y146.803 E10.08924
G1 X143.507 Y147.778 E10.11323
G1 X142.264 Y148.898 E10.14327
G1 X140.937 Y149.861 E10.17270
G1 X139.489 Y150.697 E10.20274
G1 X137.991 Y151.364 E10.23219
G1 X136.400 Y151.881 E10.26222
G1 X134.797 Y152.222 E10.29167
G1 X133.133 Y152.397 E10.32170
G1 X131.494 Y152.397 E10.35114
G1 X129.830 Y152.222 E10.38117
G1 X128.227 Y151.881 E10.41062
G1 X126.636 Y151.364 E10.44065
G1 X125.138 Y150.697 E10.47010
G1 X123.689 Y149.861 E10.50014
G1 X122.363 Y148.898 E10.52957
G1 X121.120 Y147.778 E10.55961
G1 X120.207 Y146.803 E10.58361
G1 X112.205 Y136.634 E10.81598
G1 X111.115 Y135.134 E10.84927
G1 X109.714 Y131.751 E10.91503
G1 X109.471 Y129.597 E10.95396
G1 X109.567 Y64.370 E12.12528
G1 X109.714 Y63.443 E12.14214
G1 X110.610 Y61.280 E12.18418
G1 F2400.000 E2.18418
G1 Z0.820 F9000.000
G92 E0
T1
G92 E0
G1 X63.891 Y60.417 F9000.000
G1 Z0.220 F9000.000
G1 X64.363 Y59.277 E0.02217 F1800.000
G1 X65.453 Y57.777 E0.05547
G1 X67.188 Y56.065 E0.09923
G1 X69.191 Y55.061 E0.13946
G1 X70.954 Y54.488 E0.17275
G1 X73.263 Y54.123 E0.21474
G1 X97.263 Y54.123 E0.64573
G1 X99.573 Y54.488 E0.68772
G1 X101.336 Y55.061 E0.72102 F1800.000
G1 X103.500 Y56.182 E0.76478
G1 X105.074 Y57.777 E0.80500
G1 X106.164 Y59.277 E0.83830
G1 X107.499 Y62.501 E0.90097
G1 X107.738 Y64.597 E0.93886
G1 X107.646 Y129.766 E2.10915
G1 X107.499 Y130.693 E2.12600
G1 X106.164 Y133.917 E2.18867
G1 X104.898 Y135.649 E2.22718
G1 X97.080 Y145.575 E2.45408
G1 X96.210 Y146.505 E2.47695
G1 X94.967 Y147.624 E2.50699
G1 X93.703 Y148.542 E2.53504
G1 X92.255 Y149.378 E2.56508
G1 X90.827 Y150.014 E2.59314
G1 X89.236 Y150.531 E2.62318
G1 X87.708 Y150.856 E2.65123
G1 X86.045 Y151.030 E2.68127
G1 X84.482 Y151.030 E2.70933
G1 X82.819 Y150.856 E2.73936
G1 X81.291 Y150.531 E2.76742
G1 X79.700 Y150.014 E2.79745
G1 X78.272 Y149.378 E2.82552
G1 X76.824 Y148.542 E2.85555
G1 X75.560 Y147.624 E2.88361
G1 X74.317 Y146.505 E2.91364
G1 X73.447 Y145.575 E2.93651
G1 X65.453 Y135.417 E3.16863
G1 X64.363 Y133.917 E3.20192
G1 X63.028 Y130.693 E3.26459
G1 X62.789 Y128.597 E3.30248
G1 X62.881 Y63.428 E4.47277
G1 X63.028 Y62.501 E4.48962
G1 X63.862 Y60.487 E4.52877
G1 X64.193 Y60.624 F9000.000
G1 X64.662 Y59.493 E4.55075 F1800.000
G1 X65.751 Y57.993 E4.58405
G1 X67.450 Y56.332 E4.62671
G1 X69.304 Y55.412 E4.66389
G1 X71.068 Y54.839 E4.69719
G1 X73.263 Y54.491 E4.73710
G1 X97.263 Y54.491 E5.16809
G1 X99.459 Y54.839 E5.20801
G1 X101.222 Y55.412 E5.24131 F1800.000
G1 X103.327 Y56.513 E5.28397
G1 X104.775 Y57.993 E5.32115
G1 X105.865 Y59.493 E5.35445
G1 X107.135 Y62.559 E5.41403
G1 X107.369 Y64.597 E5.45087
G1 X107.282 Y129.708 E6.62013
G1 X107.135 Y130.635 E6.63698
G1 X105.865 Y133.701 E6.69657
G1 X104.609 Y135.421 E6.73482
G1 X96.791 Y145.347 E6.96172
G1 X95.963 Y146.231 E6.98346
G1 X94.720 Y147.350 E7.01349
G1 X93.519 Y148.223 E7.04016
G1 X92.070 Y149.059 E7.07020
G1 X90.713 Y149.663 E7.09688
G1 X89.122 Y150.180 E7.12691
G1 X87.669 Y150.489 E7.15359
G1 X86.006 Y150.664 E7.18362
G1 X84.521 Y150.664 E7.21030
G1 X82.857 Y150.489 E7.24033
G1 X81.404 Y150.180 E7.26701
G1 X79.814 Y149.663 E7.29704
G1 X78.456 Y149.059 E7.32372
G1 X77.008 Y148.223 E7.35376
G1 X75.806 Y147.350 E7.38043
G1 X74.564 Y146.231 E7.41046
G1 X73.736 Y145.347 E7.43220
G1 X65.751 Y135.201 E7.66406
G1 X64.662 Y133.701 E7.69736
G1 X63.392 Y130.635 E7.75694
G1 X63.158 Y128.597 E7.79378
G1 X63.245 Y63.486 E8.96304
G1 X63.392 Y62.559 E8.97989
G1 X64.165 Y60.693 E9.01615
G1 F3600.000 E-0.98385
G1 Z0.820 F9000.000
G92 E0
T0
G92 E0
G1 X111.546 Y61.830 F9000.000
G1 Z0.220 F9000.000
G1 E10.00000 F2400.000
G1 X112.010 Y60.710 E10.02178 F1800.000
G1 X113.100 Y59.210 E10.05507
G1 X114.760 Y57.600 E10.09661
G1 X116.468 Y56.762 E10.13077
G1 X118.232 Y56.190 E10.16407
G1 X120.313 Y55.860 E10.20192
G1 X144.313 Y55.860 E10.63290
G1 X146.395 Y56.190 E10.67075
G1 X148.159 Y56.762 E10.70405 F1800.000
G1 X150.203 Y57.844 E10.74558
G1 X151.527 Y59.210 E10.77974
G1 X152.617 Y60.710 E10.81304
G1 X153.821 Y63.616 E10.86953
G1 X154.051 Y65.597 E10.90534
G1 X153.968 Y130.651 E12.07356
G1 X153.821 Y131.578 E12.09041
G1 X152.617 Y134.484 E12.14690
G1 X151.369 Y136.193 E12.18490
G1 X142.767 Y146.957 E12.43234
G1 X141.524 Y148.076 E12.46238
G1 X140.385 Y148.904 E12.48767
G1 X138.936 Y149.740 E12.51770
G1 X137.649 Y150.313 E12.54300
G1 X136.059 Y150.830 E12.57303
G1 X134.681 Y151.122 E12.59832
G1 X133.018 Y151.297 E12.62836
G1 X131.609 Y151.297 E12.65365
G1 X129.946 Y151.122 E12.68368
G1 X128.568 Y150.830 E12.70897
G1 X126.978 Y150.313 E12.73901
G1 X125.691 Y149.740 E12.76431
G1 X124.242 Y148.904 E12.79434
G1 X123.103 Y148.076 E12.81963
G1 X121.076 Y146.119 E12.87023
G1 X113.100 Y135.984 E13.10183
G1 X112.010 Y134.484 E13.13513
G1 X110.806 Y131.578 E13.19162
G1 X110.576 Y129.597 E13.22743
G1 X110.659 Y64.543 E14.39564
G1 X110.806 Y63.616 E14.41250
G1 X111.523 Y61.886 E14.44614
G1 X111.854 Y62.023 F9000.000
G1 X112.308 Y60.927 E14.46744 F1800.000
G1 X113.398 Y59.426 E14.50074
G1 X115.020 Y57.869 E14.54112
G1 X116.582 Y57.113 E14.57229
G1 X118.346 Y56.540 E14.60559
G1 X120.313 Y56.228 E14.64137
G1 X144.313 Y56.228 E15.07235
G1 X146.281 Y56.540 E15.10813
G1 X148.045 Y57.113 E15.14143 F1800.000
G1 X150.027 Y58.174 E15.18180
G1 X151.229 Y59.426 E15.21298
G1 X152.319 Y60.927 E15.24627
G1 X153.457 Y63.674 E15.29967
G1 X153.682 Y65.597 E15.33444
G1 X153.604 Y130.593 E16.50163
G1 X153.457 Y131.520 E16.51848
G1 X152.319 Y134.267 E16.57188
G1 X151.080 Y135.965 E16.60962
G1 X142.520 Y146.683 E16.85594
G1 X141.277 Y147.802 E16.88598
G1 X140.200 Y148.584 E16.90988
G1 X138.752 Y149.421 E16.93991
G1 X137.535 Y149.962 E16.96383
G1 X135.945 Y150.479 E16.99386
G1 X134.642 Y150.756 E17.01777
G1 X132.979 Y150.931 E17.04780
G1 X131.648 Y150.931 E17.07171
G1 X129.985 Y150.756 E17.10174
G1 X128.682 Y150.479 E17.12565
G1 X127.092 Y149.962 E17.15569
G1 X125.875 Y149.421 E17.17960
G1 X124.427 Y148.584 E17.20964
G1 X123.350 Y147.802 E17.23354
G1 X121.365 Y145.891 E17.28302
G1 X113.398 Y135.767 E17.51436
G1 X112.308 Y134.267 E17.54765
G1 X111.170 Y131.520 E17.60105
G1 X110.945 Y129.597 E17.63583
G1 X111.023 Y64.601 E18.80301
G1 X111.170 Y63.674 E18.81986
G1 X111.831 Y62.078 E18.85088
G1 F2400.000 E15.85088
G1 Z0.820 F9000.000
G92 E0
G1 X117.640 Y64.728 F9000.000
G1 Z0.220 F9000.000
G1 E3.00000 F2400.000
G1 X118.661 Y63.323 E3.03119 F1800.000
G1 X120.342 Y62.777 E3.06293
G1 X144.285 Y62.777 E3.49289
G1 X145.889 Y63.298 E3.52318
G1 X145.966 Y63.323 E3.52462 F1800.000
G1 X146.987 Y64.728 E3.55582
G1 X146.987 Y65.777 E3.57465
G1 X147.133 Y65.777 E3.57729
G1 X147.133 Y129.417 E4.72012
G1 X146.987 Y129.417 E4.72275
G1 X146.987 Y130.466 E4.74158
G1 X145.966 Y131.871 E4.77278
G1 X144.285 Y132.417 E4.80451
G1 X138.964 Y132.417 E4.90006
G1 X139.750 Y134.181 E4.93473
G1 X140.090 Y135.780 E4.96408
G1 X140.090 Y137.414 E4.99344
G1 X139.750 Y139.013 E5.02279
G1 X139.085 Y140.507 E5.05214
G1 X138.124 Y141.829 E5.08150
G1 X136.909 Y142.923 E5.11085
G1 X135.494 Y143.740 E5.14021
G1 X133.939 Y144.245 E5.16956
G1 X132.313 Y144.416 E5.19891
G1 X130.688 Y144.245 E5.22827
G1 X129.133 Y143.740 E5.25762
G1 X127.718 Y142.923 E5.28698
G1 X126.503 Y141.829 E5.31633
G1 X125.542 Y140.507 E5.34568
G1 X124.877 Y139.013 E5.37504
G1 X124.537 Y137.414 E5.40439
G1 X124.537 Y135.780 E5.43375
G1 X124.877 Y134.181 E5.46310
G1 X125.662 Y132.417 E5.49777
G1 X120.342 Y132.417 E5.59331
G1 X118.661 Y131.871 E5.62505
G1 X117.640 Y130.466 E5.65624
G1 X117.640 Y129.417 E5.67507
G1 X117.493 Y129.417 E5.67771
G1 X117.493 Y65.777 E6.82054
G1 X117.640 Y65.777 E6.82318
G1 X117.640 Y64.788 E6.84093
G1 F2400.000 E3.84093
G1 Z0.820 F9000.000
G92 E0
G1 X145.916 Y63.374 F9000.000
G1 X145.738 Y63.637 F9000.000
G1 Z0.220 F9000.000
G1 E3.00000 F2400.000
G1 X146.618 Y64.848 E3.02689 F1800.000
G1 X146.618 Y66.146 E3.05019
G1 X146.765 Y66.146 E3.05283
G1 X146.765 Y129.048 E4.18242
G1 X146.618 Y129.048 E4.18506
G1 X146.618 Y130.346 E4.20836
G1 X145.738 Y131.557 E4.23525
G1 X144.227 Y132.048 E4.26379
G1 X138.397 Y132.048 E4.36847
G1 X139.397 Y134.295 E4.41264
G1 X139.721 Y135.818 E4.44060
G1 X139.721 Y137.376 E4.46857
G1 X139.707 Y137.442 E4.46978
G1 X139.397 Y138.899 E4.49653
G1 X138.764 Y140.321 E4.52449
G1 X137.849 Y141.581 E4.55245
G1 X137.798 Y141.626 E4.55367
G1 X136.691 Y142.623 E4.58042
G1 X135.343 Y143.401 E4.60838
G1 X133.862 Y143.883 E4.63634
G1 X132.313 Y144.045 E4.66430
G1 X130.765 Y143.883 E4.69227
G1 X129.284 Y143.401 E4.72023
G1 X127.935 Y142.623 E4.74819
G1 X126.778 Y141.581 E4.77616
G1 X125.863 Y140.321 E4.80412
G1 X125.230 Y138.899 E4.83208
G1 X124.906 Y137.376 E4.86004
G1 X124.906 Y135.818 E4.88801
G1 X125.230 Y134.295 E4.91597
G1 X126.230 Y132.048 E4.96014
G1 X120.400 Y132.048 E5.06482
G1 X118.889 Y131.557 E5.09336
G1 X118.009 Y130.346 E5.12025
G1 X118.009 Y129.048 E5.14355
G1 X117.862 Y129.048 E5.14619
G1 X117.862 Y66.146 E6.27578
G1 X118.009 Y66.146 E6.27842
G1 X118.009 Y64.848 E6.30172
G1 X118.889 Y63.637 E6.32861
G1 X120.400 Y63.146 E6.35714
G1 X144.227 Y63.146 E6.78501 F1800.000
G1 X145.681 Y63.618 E6.81247
G1 X145.510 Y63.950 F9000.000
G1 X146.249 Y64.968 E6.83506 F1800.000
G1 X146.249 Y66.514 E6.86283
G1 X146.396 Y66.514 E6.86546
G1 X146.396 Y128.680 E7.98182
G1 X146.249 Y128.680 E7.98445
G1 X146.249 Y130.226 E8.01222
G1 X145.510 Y131.244 E8.03481
G1 X144.168 Y131.680 E8.06015
G1 X137.829 Y131.680 E8.17398
G1 X139.045 Y134.410 E8.22764
G1 X139.352 Y135.857 E8.25422
G1 X139.346 Y137.365 E8.28130
G1 X139.045 Y138.784 E8.30735
G1 X138.443 Y140.136 E8.33392
G1 X137.573 Y141.333 E8.36049
G1 X136.474 Y142.323 E8.38706
G1 X135.192 Y143.063 E8.41363
G1 X133.785 Y143.520 E8.44020
G1 X132.313 Y143.675 E8.46677
G1 X130.842 Y143.520 E8.49335
G1 X129.435 Y143.063 E8.51992
G1 X128.153 Y142.323 E8.54649
G1 X127.054 Y141.333 E8.57306
G1 X126.184 Y140.136 E8.59963
G1 X125.582 Y138.784 E8.62620
G1 X125.274 Y137.337 E8.65277
G1 X125.274 Y135.857 E8.67934
G1 X125.582 Y134.410 E8.70592
G1 X126.797 Y131.680 E8.75958
G1 X120.459 Y131.680 E8.87341
G1 X119.117 Y131.244 E8.89875
G1 X118.377 Y130.226 E8.92134
G1 X118.377 Y128.680 E8.94911
G1 X118.231 Y128.680 E8.95174
G1 X118.231 Y66.514 E10.06810
G1 X118.377 Y66.514 E10.07073
G1 X118.377 Y64.968 E10.09850
G1 X119.117 Y63.950 E10.12109
G1 X120.459 Y63.514 E10.14643
G1 X144.108 Y63.514 E10.57112
G1 F2400.000 E7.57112
G1 Z0.820 F9000.000
G92 E0
G1 X140.966 Y68.323 F9000.000
G1 Z0.220 F9000.000
G1 E3.00000 F2400.000
G1 X141.987 Y69.728 E3.03119 F1800.000
G1 X141.987 Y70.777 E3.05003
G1 X142.133 Y70.777 E3.05266
G1 X142.133 Y124.417 E4.01592
G1 X141.987 Y124.417 E4.01855
G1 X141.987 Y125.466 E4.03738
G1 X140.966 Y126.871 E4.06858
G1 X139.285 Y127.417 E4.10031
G1 X125.342 Y127.417 E4.35070
G1 X123.661 Y126.871 E4.38243
G1 X122.640 Y125.466 E4.41362
G1 X122.640 Y124.417 E4.43245
G1 X122.493 Y124.417 E4.43509
G1 X122.493 Y70.777 E5.39835
G1 X122.640 Y70.777 E5.40098
G1 X122.640 Y69.728 E5.41981
G1 X123.661 Y68.323 E5.45101
G1 X125.342 Y67.777 E5.48274
G1 X139.285 Y67.777 E5.73313 F1800.000
G1 X140.908 Y68.304 E5.76378
G1 X140.738 Y68.637 F9000.000
G1 X141.618 Y69.848 E5.79067 F1800.000
G1 X141.618 Y71.146 E5.81397
G1 X141.765 Y71.146 E5.81661
G1 X141.765 Y124.048 E6.76663
G1 X141.618 Y124.048 E6.76926
G1 X141.618 Y125.346 E6.79256
G1 X140.738 Y126.557 E6.81946
G1 X139.227 Y127.048 E6.84799
G1 X125.400 Y127.048 E7.09628
G1 X123.889 Y126.557 E7.12481
G1 X123.009 Y125.346 E7.15171
G1 X123.009 Y124.048 E7.17500
G1 X122.862 Y124.048 E7.17764
G1 X122.862 Y71.146 E8.12766
G1 X123.009 Y71.146 E8.13029
G1 X123.009 Y69.848 E8.15359
G1 X123.889 Y68.637 E8.18049
G1 X125.400 Y68.146 E8.20902
G1 X139.167 Y68.146 E8.45623
G1 X139.167 Y68.514 F9000.000
G1 X140.510 Y68.950 E8.48159 F1800.000
G1 X141.249 Y69.968 E8.50419
G1 X141.249 Y71.514 E8.53195
G1 X141.396 Y71.514 E8.53459
G1 X141.396 Y123.680 E9.47137
G1 X141.249 Y123.680 E9.47400
G1 X141.249 Y125.226 E9.50177
G1 X140.510 Y126.244 E9.52436
G1 X139.168 Y126.680 E9.54970
G1 X125.459 Y126.680 E9.79589
G1 X124.117 Y126.244 E9.82123
G1 X123.377 Y125.226 E9.84382
G1 X123.377 Y123.680 E9.87159
G1 X123.231 Y123.680 E9.87422
G1 X123.231 Y71.514 E10.81100
G1 X123.377 Y71.514 E10.81364
G1 X123.377 Y69.968 E10.84140
G1 X124.117 Y68.950 E10.86400
G1 X125.459 Y68.514 E10.88933
G1 X139.107 Y68.514 E11.13442 F1800.000
G1 F2400.000 E8.13442
G1 Z0.820 F9000.000
G92 E0
G1 X132.313 Y84.952 F9000.000
G1 Z0.220 F9000.000
G1 E3.00000 F2400.000
G1 X132.967 Y85.508 E3.01543 F1800.000
G1 X133.302 Y85.826 E3.02372
G1 X133.627 Y86.160 E3.03209
G1 X134.246 Y86.854 E3.04879
G1 X135.084 Y87.932 E3.07330
G1 X135.800 Y89.020 E3.09669
G1 X136.204 Y89.724 E3.11128
G1 X136.544 Y90.388 E3.12466
G1 X136.814 Y90.996 E3.13661
G1 X137.079 Y91.772 E3.15134
G1 X137.157 Y92.163 E3.15850
G1 X137.165 Y92.307 E3.16109
G1 X137.138 Y92.503 E3.16464
G1 X136.962 Y92.530 E3.16784
G1 X136.766 Y92.511 E3.17139
G1 X136.533 Y92.450 E3.17571
G1 X136.268 Y92.346 E3.18081
G1 X135.974 Y92.197 E3.18674
G1 X135.329 Y91.789 E3.20044
G1 X134.988 Y91.539 E3.20804
G1 X134.275 Y90.946 E3.22469
G1 X133.540 Y90.254 E3.24282
G1 X132.796 Y89.475 E3.26216
G1 X132.438 Y89.067 E3.27191
G1 X131.756 Y88.221 E3.29142
G1 X131.133 Y87.350 E3.31064
