; generated by Slic3r 1.1.7 on 2014-12-19 at 20:34:33

; perimeters extrusion width = 0.40mm
; infill extrusion width = 0.42mm
; solid infill extrusion width = 0.42mm
; top infill extrusion width = 0.42mm

; perimeters extrusion width = 0.50mm
; infill extrusion width = 0.70mm
; solid infill extrusion width = 0.70mm
; top infill extrusion width = 0.70mm

G21 ; set units to millimeters
M190 S65 ; wait for bed temperature to be reached
M104 S200 T0 ; set temperature
M104 S180 T1 ; set temperature
G28 ; home all axes
M109 S200 T0 ; wait for temperature to be reached
M109 S180 T1 ; wait for temperature to be reached
G90 ; use absolute coordinates
G92 E0
M82 ; use absolute distances for extrusion
T0
G92 E0
M106 S89
G1 F2400.000 E-3.00000
G1 Z0.860 F5400.000
G92 E0
G1 X72.804 Y52.894 F5400.000
G1 Z0.260 F5400.000
G1 E3.00000 F2400.000
G1 X72.932 Y52.719 E3.00590 F2700.000
G1 X74.574 Y51.134 E3.06782
G1 X76.211 Y50.337 E3.11725
G1 X77.974 Y49.764 E3.16757
G1 X80.000 Y49.443 E3.22324
G1 X104.000 Y49.443 E3.87464
G1 X106.026 Y49.764 E3.93031
G1 X107.789 Y50.337 E3.98064 F2700.000
G1 X109.804 Y51.408 E4.04256
G1 X111.068 Y52.719 E4.09198
G1 X112.158 Y54.219 E4.14231
G1 X113.330 Y57.047 E4.22541
G1 X113.557 Y59.000 E4.27876
G1 X113.476 Y114.025 E5.77223
G1 X113.330 Y114.953 E5.79771
G1 X112.158 Y117.781 E5.88081
G1 X110.914 Y119.484 E5.93805
G1 X102.333 Y130.226 E6.31120
G1 X101.090 Y131.345 E6.35660
G1 X99.981 Y132.151 E6.39380
G1 X98.533 Y132.987 E6.43919
G1 X97.280 Y133.545 E6.47640
G1 X95.689 Y134.061 E6.52180
G1 X94.349 Y134.346 E6.55900
G1 X92.685 Y134.521 E6.60439
G1 X91.315 Y134.521 E6.64159
G1 X89.651 Y134.346 E6.68699
G1 X88.311 Y134.061 E6.72419
G1 X86.720 Y133.545 E6.76959
G1 X85.467 Y132.987 E6.80680
G1 X84.019 Y132.151 E6.85219
G1 X82.910 Y131.345 E6.88939
G1 X80.904 Y129.410 E6.96504
G1 X72.932 Y119.281 E7.31489
G1 X71.842 Y117.781 E7.36522
G1 X70.670 Y114.953 E7.44831
G1 X70.443 Y113.000 E7.50167
G1 X70.524 Y57.975 E8.99514
G1 X70.670 Y57.047 E9.02062
G1 X71.842 Y54.219 E9.10372
G1 X72.769 Y52.943 E9.14652
G1 F2400.000 E6.14652
G1 Z0.860 F5400.000
G92 E0
G1 X80.707 Y58.844 F5400.000
G1 Z0.260 F5400.000
G1 E3.00000 F2400.000
G1 X82.864 Y58.143 E3.06157 F2700.000
G1 X101.136 Y58.143 E3.55748
G1 X102.831 Y58.694 E3.60585
G1 X103.293 Y58.844 E3.61905 F2700.000
G1 X104.710 Y60.794 E3.68449
G1 X104.710 Y61.143 E3.69395
G1 X104.857 Y61.143 E3.69793
G1 X104.857 Y110.857 E5.04724
G1 X104.710 Y110.857 E5.05123
G1 X104.710 Y111.206 E5.06069
G1 X103.293 Y113.156 E5.12613
G1 X101.136 Y113.857 E5.18769
G1 X82.864 Y113.857 E5.68361
G1 X80.707 Y113.156 E5.74517
G1 X79.290 Y111.206 E5.81061
G1 X79.290 Y110.857 E5.82007
G1 X79.143 Y110.857 E5.82406
G1 X79.143 Y61.143 E7.17337
G1 X79.290 Y61.143 E7.17735
G1 X79.290 Y60.794 E7.18681
G1 X80.672 Y58.892 E7.25062
G1 X81.051 Y59.318 F5400.000
G1 X82.952 Y58.700 E7.30488 F2700.000
G1 X101.048 Y58.700 E7.79601 F2700.000
G1 X102.949 Y59.318 E7.85027
G1 X104.153 Y60.975 E7.90588
G1 X104.153 Y61.700 E7.92555
G1 X104.300 Y61.700 E7.92953
G1 X104.300 Y110.300 E9.24860
G1 X104.153 Y110.300 E9.25259
G1 X104.153 Y111.025 E9.27225
G1 X102.949 Y112.682 E9.32787
G1 X101.048 Y113.300 E9.38213
G1 X82.952 Y113.300 E9.87325
G1 X81.051 Y112.682 E9.92751
G1 X79.847 Y111.025 E9.98312
G1 X79.847 Y110.300 E10.00279
G1 X79.700 Y110.300 E10.00678
G1 X79.700 Y61.700 E11.32585
G1 X79.847 Y61.700 E11.32983
G1 X79.847 Y60.975 E11.34950
G1 X81.016 Y59.366 E11.40348
G1 X88.717 Y63.631 F5400.000
G1 X88.849 Y63.438 E11.40982 F1890.000
G1 X88.971 Y63.303 E11.41478
G1 X89.105 Y63.185 E11.41963
G1 X89.408 Y63.005 E11.42920
G1 X89.570 Y62.944 E11.43389
G1 X89.908 Y62.876 E11.44325
G1 X90.093 Y62.867 E11.44827
G1 X90.401 Y62.901 E11.45669
G1 X90.715 Y63.003 E11.46563
G1 X91.021 Y63.165 E11.47505
G1 X91.320 Y63.383 E11.48509
G1 X91.610 Y63.642 E11.49563
G1 X91.891 Y63.932 E11.50660
G1 X92.166 Y64.257 E11.51814
G1 X92.694 Y64.998 E11.54285
G1 X92.946 Y65.402 E11.55577
G1 X93.427 Y66.273 E11.58278
G1 X93.863 Y67.186 E11.61024
G1 X94.059 Y67.644 E11.62376
G1 X94.407 Y68.555 E11.65023
G1 X94.685 Y69.426 E11.67504
G1 X94.797 Y69.845 E11.68681
G1 X94.953 Y70.612 E11.70806
G1 X94.992 Y70.952 E11.71734
G1 X95.006 Y71.268 E11.72594
G1 X94.991 Y71.456 E11.73104
G1 X94.942 Y71.640 E11.73621
G1 X94.795 Y71.938 E11.74524
G1 X95.182 Y72.002 E11.75589
G1 X95.488 Y72.019 E11.76420
G1 X95.786 Y71.995 E11.77232
G1 X96.065 Y71.921 E11.78015
G1 X96.189 Y71.867 E11.78383
G1 X96.412 Y71.716 E11.79112
G1 X96.603 Y71.504 E11.79889
G1 X96.762 Y71.211 E11.80793
G1 X96.882 Y70.829 E11.81879
G1 X96.945 Y70.341 E11.83214
G1 X96.938 Y69.620 E11.85170
G1 X96.894 Y69.182 E11.86365
G1 X96.821 Y68.741 E11.87580
G1 X96.590 Y67.848 E11.90083
G1 X96.272 Y66.968 E11.92623
G1 X95.877 Y66.109 E11.95188
G1 X95.415 Y65.282 E11.97760
G1 X94.891 Y64.493 E12.00330
G1 X94.333 Y63.768 E12.02812
G1 X93.848 Y63.210 E12.04820
G1 X93.773 Y63.071 E12.05249
G1 X93.738 Y62.903 E12.05714
G1 X93.771 Y62.728 E12.06196
G1 X93.885 Y62.582 E12.06702
G1 X94.037 Y62.512 E12.07155
G1 X94.244 Y62.503 E12.07719
G1 X94.482 Y62.557 E12.08379 F1890.000
G1 X94.820 Y62.712 E12.09390
G1 X95.043 Y62.867 E12.10126
G1 X95.460 Y63.218 E12.11605
G1 X95.900 Y63.632 E12.13245
G1 X96.352 Y64.104 E12.15018
G1 X96.801 Y64.621 E12.16877
G1 X97.240 Y65.184 E12.18815
G1 X97.860 Y66.110 E12.21841
G1 X98.224 Y66.767 E12.23879
G1 X98.389 Y67.105 E12.24898
G1 X98.676 Y67.800 E12.26939
G1 X98.795 Y68.156 E12.27958
G1 X98.981 Y68.886 E12.30003
G1 X99.077 Y69.625 E12.32026
G1 X99.079 Y70.329 E12.33938
G1 X99.048 Y70.667 E12.34857
G1 X98.927 Y71.351 E12.36744
G1 X98.832 Y71.692 E12.37705
G1 X98.711 Y72.020 E12.38654
G1 X98.564 Y72.333 E12.39590
G1 X98.390 Y72.630 E12.40526
G1 X98.185 Y72.908 E12.41464
G1 X97.949 Y73.162 E12.42403
G1 X97.685 Y73.388 E12.43348
G1 X97.388 Y73.588 E12.44319
G1 X97.055 Y73.754 E12.45330
G1 X96.687 Y73.872 E12.46377
G1 X96.292 Y73.941 E12.47467
G1 X95.868 Y73.964 E12.48618
G1 X95.362 Y73.936 E12.49996
G1 X94.861 Y73.850 E12.51373
G1 X94.369 Y73.707 E12.52764
G1 X93.888 Y73.508 E12.54177
G1 X93.422 Y73.266 E12.55601
G1 X92.973 Y72.991 E12.57032
G1 X92.537 Y72.680 E12.58483
G1 X92.117 Y72.336 E12.59959
G1 X91.713 Y71.963 E12.61452
G1 X91.327 Y71.564 E12.62959
G1 X90.958 Y71.139 E12.64486
G1 X90.608 Y70.689 E12.66033
G1 X90.279 Y70.225 E12.67577
G1 X89.690 Y69.280 E12.70599
G1 X89.194 Y68.314 E12.73546
G1 X88.987 Y67.833 E12.74968
G1 X88.807 Y67.355 E12.76354
G1 X88.656 Y66.879 E12.77708
G1 X88.534 Y66.416 E12.79009
G1 X88.447 Y65.972 E12.80236
G1 X88.394 Y65.548 E12.81395
G1 X88.377 Y65.147 E12.82484
G1 X88.406 Y64.617 E12.83926
G1 X88.443 Y64.378 E12.84583
G1 X88.563 Y63.952 E12.85784
G1 X88.688 Y63.684 E12.86586
G1 F2400.000 E9.86586
G1 Z0.860 F5400.000
G92 E0
G1 X94.352 Y62.721 F5400.000
G1 X90.682 Y73.216 F5400.000
G1 Z0.260 F5400.000
G1 E3.00000 F2400.000
G1 X90.854 Y73.283 E3.00501 F1890.000
G1 X90.998 Y73.404 E3.01014
G1 X91.089 Y73.554 E3.01489
G1 X91.141 Y73.705 E3.01921
G1 X91.298 Y74.502 E3.04125
G1 X91.569 Y76.539 E3.09704
G1 X98.676 Y76.772 E3.29004
G1 X98.942 Y76.818 E3.29736
G1 X99.180 Y76.904 E3.30423
G1 X99.381 Y77.034 E3.31074
G1 X99.537 Y77.202 E3.31695
G1 X99.647 Y77.398 E3.32306
G1 X99.710 Y77.616 E3.32922
G1 X99.732 Y77.870 E3.33614
G1 X99.697 Y78.021 E3.34033
G1 X99.603 Y78.146 E3.34459
G1 X99.385 Y78.279 E3.35152
G1 X99.151 Y78.351 E3.35815
G1 X98.877 Y78.402 E3.36574
G1 X98.202 Y78.459 E3.38413
G1 X97.390 Y78.474 E3.40615
G1 X96.167 Y78.456 E3.43936
G1 X92.983 Y78.275 E3.52592
G1 X91.791 Y78.227 E3.55828
G1 X91.887 Y79.142 E3.58326
G1 X91.921 Y79.816 E3.60157
G1 X91.878 Y80.343 E3.61592
G1 X91.822 Y80.576 E3.62242
G1 X91.741 Y80.781 E3.62841
G1 X91.547 Y81.107 E3.63871
G1 X91.436 Y81.244 E3.64348
G1 X91.194 Y81.455 E3.65222
G1 X90.943 Y81.597 E3.66002
G1 X90.819 Y81.640 E3.66359
G1 X90.545 Y81.699 E3.67121
G1 X90.343 Y81.696 E3.67667
G1 X90.224 Y81.668 E3.68000
G1 X90.107 Y81.614 E3.68349
G1 X89.998 Y81.525 E3.68732
G1 X89.918 Y81.400 E3.69134
G1 X89.875 Y81.266 E3.69516
G1 X89.854 Y81.131 E3.69888
G1 X89.851 Y80.844 E3.70667
G1 X89.913 Y79.594 E3.74063
G1 X89.807 Y78.210 E3.77831
G1 X86.268 Y78.144 E3.87437
G1 X85.789 Y78.115 E3.88739
G1 X85.096 Y78.039 E3.90632
G1 X84.501 Y77.936 E3.92271
G1 X84.032 Y77.797 E3.93598
G1 X83.900 Y77.729 E3.94002
G1 X83.767 Y77.611 E3.94484
G1 X83.697 Y77.426 E3.95022
G1 X83.718 Y77.271 E3.95444
G1 X83.758 Y77.167 E3.95748
G1 X83.874 Y76.990 E3.96322
G1 X84.032 Y76.831 E3.96931
G1 X84.225 Y76.696 E3.97569
G1 X84.451 Y76.581 E3.98259
G1 X84.713 Y76.488 E3.99011
G1 X85.011 Y76.424 E3.99840
G1 X85.324 Y76.402 E4.00691
G1 X85.697 Y76.407 E4.01704
G1 X89.629 Y76.529 E4.12381
G1 X89.486 Y74.757 E4.17208
G1 X89.499 Y74.283 E4.18494
G1 X89.552 Y74.027 E4.19202
G1 X89.645 Y73.794 E4.19885
G1 X89.778 Y73.592 E4.20540
G1 X89.932 Y73.430 E4.21148
G1 X90.102 Y73.306 E4.21719
G1 X90.294 Y73.224 E4.22285
G1 X90.497 Y73.196 E4.22840
G1 X90.615 Y73.209 E4.23162
G1 X90.622 Y73.210 E4.23182 F1890.000
G1 X90.621 Y73.213 F5400.000
G1 X89.854 Y82.106 F5400.000
G1 X90.178 Y82.170 E4.24080 F1890.000
G1 X90.514 Y82.273 E4.25033
G1 X90.860 Y82.415 E4.26049
G1 X91.581 Y82.791 E4.28254
G1 X92.274 Y83.237 E4.30493
G1 X93.359 Y83.228 E4.33437
G1 X94.316 Y83.122 E4.36049
G1 X95.438 Y82.928 E4.39140
G1 X96.341 Y82.740 E4.41644
G1 X97.144 Y82.554 E4.43881
G1 X97.916 Y82.348 E4.46051
G1 X98.405 Y82.300 E4.47383
G1 X98.797 Y82.342 E4.48454
G1 X98.979 Y82.398 E4.48969
G1 X99.151 Y82.480 E4.49486
G1 X99.310 Y82.596 E4.50021
G1 X99.437 Y82.752 E4.50569
G1 X99.515 Y82.939 E4.51118
G1 X99.541 Y83.159 E4.51720
G1 X99.497 Y83.336 E4.52214
G1 X99.393 Y83.482 E4.52700
G1 X99.267 Y83.593 E4.53158
G1 X99.120 Y83.689 E4.53632
G1 X98.774 Y83.864 E4.54686
G1 X98.106 Y84.120 E4.56627
G1 X97.286 Y84.374 E4.58956
G1 X96.375 Y84.610 E4.61512
G1 X95.433 Y84.808 E4.64123
G1 X94.306 Y84.988 E4.67220
G1 X95.162 Y85.885 E4.70586
G1 X96.004 Y86.887 E4.74138
G1 X96.758 Y87.920 E4.77609
G1 X97.413 Y88.973 E4.80974
G1 X97.695 Y89.499 E4.82594
G1 X97.945 Y90.024 E4.84173
G1 X98.164 Y90.549 E4.85716
G1 X98.343 Y91.067 E4.87205
G1 X98.473 Y91.572 E4.88618
G1 X98.551 Y92.061 E4.89963
G1 X98.577 Y92.533 E4.91246
G1 X98.540 Y92.924 E4.92313
G1 X98.425 Y93.272 E4.93308
G1 X98.243 Y93.564 E4.94240
G1 X98.131 Y93.691 E4.94701
G1 X97.866 Y93.903 E4.95622
G1 X97.565 Y94.057 E4.96541
G1 X97.402 Y94.113 E4.97007
G1 X97.064 Y94.183 E4.97944
G1 X96.703 Y94.206 E4.98925
G1 X95.916 Y94.157 E5.01065
G1 X96.419 Y94.949 E5.03609
G1 X96.541 Y95.214 E5.04401
G1 X96.579 Y95.340 E5.04758
G1 X96.590 Y95.622 E5.05526
G1 X96.545 Y96.154 E5.06973
G1 X96.336 Y97.463 E5.10571
G1 X96.133 Y98.428 E5.13249
G1 X95.908 Y99.377 E5.15894
G1 X95.732 Y100.045 E5.17769
G1 X95.498 Y100.793 E5.19898
G1 X94.899 Y102.390 E5.24527
G1 X93.804 Y105.023 E5.32267
G1 X98.318 Y105.025 E5.44520
G1 X98.786 Y105.048 E5.45791
G1 X99.073 Y105.084 E5.46576
G1 X99.455 Y105.186 E5.47649
G1 X99.681 Y105.311 E5.48350
G1 X99.781 Y105.396 E5.48706
G1 X99.870 Y105.503 E5.49084
G1 X99.936 Y105.630 E5.49474
G1 X99.974 Y105.768 E5.49860
G1 X99.988 Y105.931 E5.50306
G1 X99.951 Y106.089 E5.50746
G1 X99.850 Y106.222 E5.51197
G1 X99.733 Y106.306 E5.51590
G1 X99.490 Y106.403 E5.52300
G1 X99.065 Y106.499 E5.53482
G1 X98.536 Y106.566 E5.54929
G1 X97.056 Y106.636 E5.58951
G1 X93.835 Y106.651 E5.67692
G1 X93.027 Y106.697 E5.69890
G1 X92.686 Y107.322 E5.71822
G1 X92.569 Y107.485 E5.72366
G1 X92.434 Y107.622 E5.72889
G1 X92.285 Y107.726 E5.73382
G1 X92.134 Y107.796 E5.73834
G1 X91.826 Y107.873 E5.74696
G1 X91.657 Y107.883 E5.75154
G1 X91.425 Y107.858 E5.75787
G1 X91.200 Y107.779 E5.76435
G1 X90.998 Y107.650 E5.77086
G1 X90.827 Y107.482 E5.77737
G1 X90.678 Y107.289 E5.78398
G1 X90.332 Y106.715 E5.80216
G1 X86.390 Y106.775 E5.90918
G1 X85.710 Y106.748 E5.92765
G1 X85.370 Y106.678 E5.93706
G1 X85.174 Y106.586 E5.94296
G1 X85.086 Y106.520 E5.94594
G1 X84.949 Y106.347 E5.95192
G1 X84.906 Y106.251 E5.95478
G1 X84.861 Y106.052 E5.96031
G1 X84.868 Y105.817 E5.96668
G1 X84.907 Y105.691 E5.97027
G1 X85.048 Y105.478 E5.97720
G1 X85.227 Y105.323 E5.98361
G1 X85.435 Y105.200 E5.99019
G1 X85.783 Y105.050 E6.00048
G1 X86.576 Y104.784 E6.02319
G1 X86.833 Y104.721 E6.03036
G1 X87.186 Y104.675 E6.04001
G1 X87.722 Y104.659 E6.05458
G1 X87.722 Y104.698 E6.05565
G1 X87.935 Y104.753 E6.06162
G1 X88.167 Y104.872 E6.06868
G1 X88.264 Y104.959 E6.07223
G1 X88.813 Y104.999 E6.08716
G1 X89.579 Y105.023 E6.10796
G1 X88.788 Y102.996 E6.16701
G1 X88.355 Y101.948 E6.19779
G1 X87.872 Y100.849 E6.23038
G1 X87.325 Y99.695 E6.26503
G1 X86.709 Y98.485 E6.30189
G1 X86.366 Y97.855 E6.32135
G1 X85.606 Y96.543 E6.36252
G1 X84.992 Y95.563 E6.39388
G1 X84.939 Y95.423 E6.39796
G1 X84.919 Y95.252 E6.40262
G1 X84.956 Y95.037 E6.40853
G1 X85.098 Y94.841 E6.41509
G1 X85.306 Y94.737 E6.42142
G1 X85.617 Y94.718 E6.42988
G1 X85.798 Y94.751 E6.43487
G1 X85.990 Y94.814 E6.44035
G1 X86.281 Y94.960 E6.44918
G1 X86.656 Y95.225 E6.46165
G1 X86.925 Y95.487 E6.47184
G1 X87.278 Y95.960 E6.48786
G1 X87.547 Y96.359 E6.50093
G1 X87.814 Y96.784 E6.51454
G1 X88.336 Y97.699 E6.54315
G1 X89.080 Y99.152 E6.58744
G1 X89.770 Y100.649 E6.63218
G1 X91.025 Y103.596 E6.71911
G1 X91.558 Y104.738 E6.75333
G1 X92.032 Y103.706 E6.78417
G1 X92.436 Y102.738 E6.81264
G1 X92.876 Y101.611 E6.84547
G1 X93.317 Y100.392 E6.88067
G1 X93.596 Y99.547 E6.90480
G1 X93.980 Y98.265 E6.94114
G1 X94.202 Y97.436 E6.96444
G1 X94.388 Y96.642 E6.98655
G1 X94.530 Y95.892 E7.00728
G1 X94.619 Y95.210 E7.02596
G1 X94.647 Y94.545 E7.04401
G1 X94.584 Y94.023 E7.05829
G1 X94.601 Y93.880 E7.06219
G1 X94.737 Y93.612 E7.07034
G1 X93.856 Y93.061 E7.09855
G1 X93.484 Y92.791 E7.11101
G1 X92.740 Y92.187 E7.13704
G1 X92.367 Y91.852 E7.15065
G1 X91.638 Y91.138 E7.17833
G1 X91.286 Y90.765 E7.19225
G1 X90.606 Y89.989 E7.22025
G1 X90.281 Y89.590 E7.23422
G1 X89.666 Y88.769 E7.26206
G1 X89.110 Y87.941 E7.28914
G1 X88.862 Y87.531 E7.30215
G1 X88.423 Y86.723 E7.32710
G1 X88.237 Y86.328 E7.33895
G1 X87.934 Y85.559 E7.36138
G1 X87.821 Y85.188 E7.37191
G1 X87.739 Y84.832 E7.38181
G1 X87.689 Y84.492 E7.39114
G1 X87.672 Y84.169 E7.39993
G1 X87.683 Y83.946 E7.40598
G1 X87.718 Y83.742 E7.41161
G1 X87.782 Y83.554 E7.41700
G1 X87.883 Y83.381 E7.42244
G1 X88.034 Y83.238 E7.42808
G1 X88.223 Y83.141 E7.43383
G1 X88.430 Y83.091 E7.43963
G1 X88.630 Y83.077 E7.44506
G1 X88.702 Y82.721 E7.45494
G1 X88.776 Y82.536 E7.46033
G1 X88.885 Y82.376 E7.46560
G1 X89.022 Y82.248 E7.47067
G1 X89.181 Y82.156 E7.47566
G1 X89.356 Y82.101 E7.48065
G1 X89.537 Y82.084 E7.48559
G1 X89.767 Y82.100 E7.49183
G1 X89.794 Y82.102 E7.49257 F1890.000
G1 X89.768 Y82.073 F5400.000
G1 X92.000 Y115.140 F5400.000
G1 X93.482 Y115.257 E7.53291 F2700.000
G1 X93.482 Y115.370 E7.53598 F2700.000
G1 X94.206 Y115.670 E7.55726
G1 X94.856 Y116.068 E7.57796
G1 X95.436 Y116.564 E7.59866
G1 X95.932 Y117.144 E7.61936
G1 X96.330 Y117.794 E7.64005
G1 X96.622 Y118.498 E7.66075
G1 X96.800 Y119.240 E7.68145
G1 X96.860 Y120.000 E7.70215
G1 X96.800 Y120.760 E7.72284
G1 X96.622 Y121.502 E7.74354
G1 X96.330 Y122.206 E7.76424
G1 X95.932 Y122.856 E7.78494
G1 X95.436 Y123.436 E7.80563
G1 X94.856 Y123.932 E7.82633
G1 X94.206 Y124.330 E7.84703
G1 X93.482 Y124.630 E7.86831
G1 X93.482 Y124.743 E7.87138
G1 X92.000 Y124.860 E7.91173
G1 X91.240 Y124.800 E7.93242
G1 X90.498 Y124.622 E7.95312
G1 X89.794 Y124.330 E7.97382
G1 X89.144 Y123.932 E7.99451
G1 X88.564 Y123.436 E8.01521
G1 X88.068 Y122.856 E8.03591
G1 X87.670 Y122.206 E8.05661
G1 X87.378 Y121.502 E8.07730
G1 X87.200 Y120.760 E8.09800
G1 X87.140 Y120.000 E8.11870
G1 X87.200 Y119.240 E8.13940
G1 X87.378 Y118.498 E8.16010
G1 X87.626 Y117.899 E8.17769
G1 X87.670 Y117.794 E8.18080
G1 X88.068 Y117.144 E8.20149
G1 X88.564 Y116.564 E8.22219
G1 X89.144 Y116.068 E8.24289
G1 X89.794 Y115.670 E8.26358
G1 X90.498 Y115.378 E8.28428
G1 X91.240 Y115.200 E8.30498
G1 X91.940 Y115.145 E8.32405
G1 X91.984 Y115.700 F5400.000
G1 X92.925 Y115.772 E8.34966 F1890.000
G1 X92.925 Y115.813 E8.35076
G1 X93.329 Y115.910 E8.36205
G1 X93.953 Y116.168 E8.38037
G1 X94.528 Y116.520 E8.39868
