; generated by Slic3r 1.1.7 on 2014-12-20 at 08:13:05

; perimeters extrusion width = 0.40mm
; infill extrusion width = 0.42mm
; solid infill extrusion width = 0.42mm
; top infill extrusion width = 0.42mm

; perimeters extrusion width = 0.50mm
; infill extrusion width = 0.70mm
; solid infill extrusion width = 0.70mm
; top infill extrusion width = 0.70mm

G21 ; set units to millimeters
M190 S65 ; wait for bed temperature to be reached
M104 S200 T0 ; set temperature
M104 S190 T1 ; set temperature
G28 ; home all axes
M109 S200 T0 ; wait for temperature to be reached
M109 S190 T1 ; wait for temperature to be reached
G90 ; use absolute coordinates
G92 E0
M82 ; use absolute distances for extrusion
T0
G92 E0
M106 S89
G1 F2400.000 E-3.00000
G1 Z0.820 F9000.000
G92 E0
G1 X70.504 Y45.746 F9000.000
G1 Z0.220 F9000.000
G1 E3.00000 F2400.000
G1 X71.593 Y44.246 E3.03330 F1800.000
G1 X73.399 Y42.438 E3.07918
G1 X75.699 Y41.263 E3.12557
G1 X77.463 Y40.690 E3.15887
G1 X80.000 Y40.288 E3.20500
G1 X104.000 Y40.288 E3.63599
G1 X106.537 Y40.690 E3.68212
G1 X108.301 Y41.263 E3.71541 F1800.000
G1 X110.578 Y42.421 E3.76130
G1 X112.407 Y44.246 E3.80769
G1 X113.496 Y45.746 E3.84099
G1 X114.658 Y48.022 E3.88687
G1 X114.964 Y49.289 E3.91027
G1 X115.110 Y50.216 E3.92712
G1 X115.212 Y51.500 E3.95026
G1 X115.212 Y120.500 E5.18934
G1 X115.110 Y121.784 E5.21247
G1 X114.964 Y122.711 E5.22933
G1 X114.176 Y125.142 E5.27522
G1 X113.496 Y126.254 E5.29861
G1 X112.214 Y128.008 E5.33764
G1 X104.396 Y137.934 E5.56454
G1 X103.440 Y138.955 E5.58966
G1 X102.197 Y140.074 E5.61969
G1 X100.808 Y141.083 E5.65052
G1 X99.360 Y141.920 E5.68055
G1 X97.791 Y142.618 E5.71139
G1 X96.201 Y143.135 E5.74142
G1 X94.522 Y143.492 E5.77225
G1 X92.858 Y143.667 E5.80228
G1 X91.142 Y143.667 E5.83310
G1 X89.478 Y143.492 E5.86314
G1 X87.799 Y143.135 E5.89396
G1 X86.209 Y142.618 E5.92400
G1 X84.640 Y141.920 E5.95483
G1 X83.192 Y141.083 E5.98487
G1 X81.803 Y140.074 E6.01569
G1 X80.560 Y138.955 E6.04572
G1 X79.604 Y137.934 E6.07085
G1 X71.593 Y127.754 E6.30348
G1 X70.504 Y126.254 E6.33677
G1 X69.342 Y123.978 E6.38266
G1 X69.036 Y122.711 E6.40605
G1 X68.890 Y121.784 E6.42291
G1 X68.788 Y120.500 E6.44604
G1 X68.788 Y51.500 E7.68513
G1 X68.890 Y50.216 E7.70826
G1 X69.036 Y49.289 E7.72512
G1 X69.824 Y46.858 E7.77100
G1 X70.472 Y45.798 E7.79332
G1 X70.802 Y45.963 F9000.000
G1 X71.892 Y44.463 E7.82662 F1800.000
G1 X73.662 Y42.702 E7.87146
G1 X75.813 Y41.614 E7.91475
G1 X77.577 Y41.041 E7.94805
G1 X80.000 Y40.657 E7.99211
G1 X104.000 Y40.657 E8.42309
G1 X106.423 Y41.041 E8.46715
G1 X108.187 Y41.614 E8.50045 F1800.000
G1 X110.408 Y42.753 E8.54529
G1 X112.108 Y44.463 E8.58858
G1 X113.198 Y45.963 E8.62188
G1 X114.600 Y49.346 E8.68764
G1 X114.843 Y51.500 E8.72656
G1 X114.746 Y121.727 E9.98768
G1 X114.600 Y122.654 E10.00453
G1 X113.198 Y126.037 E10.07030
G1 X111.925 Y127.780 E10.10906
G1 X104.106 Y137.706 E10.33596
G1 X103.193 Y138.681 E10.35996
G1 X101.950 Y139.801 E10.38999
G1 X100.624 Y140.764 E10.41943
G1 X99.176 Y141.600 E10.44947
G1 X97.677 Y142.267 E10.47892
G1 X96.087 Y142.784 E10.50895
G1 X94.483 Y143.125 E10.53839
G1 X92.820 Y143.300 E10.56843
G1 X91.180 Y143.300 E10.59787
G1 X89.517 Y143.125 E10.62790
G1 X87.913 Y142.784 E10.65734
G1 X86.323 Y142.267 E10.68738
G1 X84.824 Y141.600 E10.71683
G1 X83.376 Y140.764 E10.74686
G1 X82.050 Y139.801 E10.77630
G1 X80.807 Y138.681 E10.80634
G1 X79.894 Y137.706 E10.83033
G1 X71.892 Y127.537 E11.06270
G1 X70.802 Y126.037 E11.09600
G1 X69.400 Y122.654 E11.16176
G1 X69.157 Y120.500 E11.20068
G1 X69.254 Y50.273 E12.46179
G1 X69.400 Y49.346 E12.47865
G1 X70.779 Y46.018 E12.54334
G1 F2400.000 E2.54334
G1 Z0.820 F9000.000
G92 E0
T1
G92 E0
G1 X24.050 Y45.180 F9000.000
G1 Z0.220 F9000.000
G1 X25.140 Y43.680 E0.03330 F1800.000
G1 X26.875 Y41.968 E0.07706
G1 X28.877 Y40.964 E0.11729
G1 X30.641 Y40.391 E0.15058
G1 X32.950 Y40.026 E0.19257
G1 X56.950 Y40.026 E0.62356
G1 X59.259 Y40.391 E0.66555
G1 X61.023 Y40.964 E0.69884 F1800.000
G1 X63.187 Y42.085 E0.74261
G1 X64.760 Y43.679 E0.78283
G1 X65.850 Y45.180 E0.81613
G1 X67.186 Y48.404 E0.87880
G1 X67.424 Y50.500 E0.91669
G1 X67.332 Y120.669 E2.17676
G1 X67.186 Y121.596 E2.19362
G1 X65.850 Y124.820 E2.25629
G1 X64.585 Y126.552 E2.29480
G1 X56.767 Y136.478 E2.52170
G1 X55.896 Y137.408 E2.54457
G1 X54.654 Y138.527 E2.57460
G1 X53.390 Y139.445 E2.60266
G1 X51.941 Y140.281 E2.63269
G1 X50.514 Y140.917 E2.66076
G1 X48.923 Y141.434 E2.69079
G1 X47.395 Y141.759 E2.71885
G1 X45.731 Y141.933 E2.74889
G1 X44.169 Y141.933 E2.77694
G1 X42.506 Y141.759 E2.80698
G1 X40.977 Y141.434 E2.83504
G1 X39.386 Y140.917 E2.86507
G1 X37.959 Y140.281 E2.89313
G1 X36.510 Y139.445 E2.92317
G1 X35.246 Y138.527 E2.95123
G1 X34.004 Y137.408 E2.98126
G1 X33.133 Y136.478 E3.00413
G1 X25.140 Y126.320 E3.23624
G1 X24.050 Y124.820 E3.26954
G1 X22.714 Y121.596 E3.33221
G1 X22.476 Y119.500 E3.37009
G1 X22.568 Y49.331 E4.63017
G1 X22.714 Y48.404 E4.64703
G1 X24.021 Y45.249 E4.70835
G1 X24.348 Y45.396 F9000.000
G1 X25.438 Y43.896 E4.74165 F1800.000
G1 X27.136 Y42.235 E4.78431
G1 X28.991 Y41.315 E4.82149
G1 X30.754 Y40.742 E4.85479
G1 X32.950 Y40.394 E4.89471
G1 X56.950 Y40.394 E5.32569
G1 X59.146 Y40.742 E5.36561
G1 X60.909 Y41.315 E5.39891 F1800.000
G1 X63.014 Y42.416 E5.44157
G1 X64.462 Y43.896 E5.47875
G1 X65.552 Y45.396 E5.51205
G1 X66.822 Y48.462 E5.57163
G1 X67.056 Y50.500 E5.60848
G1 X66.968 Y120.611 E6.86752
G1 X66.822 Y121.538 E6.88438
G1 X65.552 Y124.604 E6.94396
G1 X64.296 Y126.324 E6.98221
G1 X56.477 Y136.250 E7.20911
G1 X55.650 Y137.134 E7.23085
G1 X54.407 Y138.253 E7.26088
G1 X53.205 Y139.126 E7.28756
G1 X51.757 Y139.962 E7.31759
G1 X50.400 Y140.566 E7.34427
G1 X48.809 Y141.083 E7.37431
G1 X47.356 Y141.392 E7.40098
G1 X45.693 Y141.567 E7.43102
G1 X44.207 Y141.567 E7.45769
G1 X42.544 Y141.392 E7.48772
G1 X41.091 Y141.083 E7.51440
G1 X39.500 Y140.566 E7.54443
G1 X38.143 Y139.962 E7.57111
G1 X36.695 Y139.126 E7.60115
G1 X35.493 Y138.253 E7.62782
G1 X34.250 Y137.134 E7.65786
G1 X33.423 Y136.250 E7.67960
G1 X25.438 Y126.104 E7.91145
G1 X24.348 Y124.604 E7.94475
G1 X23.078 Y121.538 E8.00433
G1 X22.844 Y119.500 E8.04118
G1 X22.932 Y49.389 E9.30022
G1 X23.078 Y48.462 E9.31707
G1 X24.319 Y45.466 E9.37531
G1 F3600.000 E-0.62469
G1 Z0.820 F9000.000
G92 E0
T0
G92 E0
G1 X71.696 Y46.613 F9000.000
G1 Z0.220 F9000.000
G1 E10.00000 F2400.000
G1 X72.786 Y45.113 E10.03330 F1800.000
G1 X74.447 Y43.503 E10.07483
G1 X76.155 Y42.665 E10.10900
G1 X77.918 Y42.093 E10.14229
G1 X80.000 Y41.763 E10.18014
G1 X104.000 Y41.763 E10.61113
G1 X106.082 Y42.093 E10.64897
G1 X107.845 Y42.665 E10.68227 F1800.000
G1 X109.890 Y43.747 E10.72381
G1 X111.214 Y45.113 E10.75797
G1 X112.304 Y46.613 E10.79127
G1 X113.507 Y49.519 E10.84776
G1 X113.737 Y51.500 E10.88356
G1 X113.654 Y121.554 E12.14157
G1 X113.507 Y122.481 E12.15843
G1 X112.304 Y125.387 E12.21492
G1 X111.056 Y127.096 E12.25291
G1 X102.453 Y137.860 E12.50036
G1 X101.210 Y138.979 E12.53039
G1 X100.071 Y139.807 E12.55568
G1 X98.623 Y140.643 E12.58571
G1 X97.336 Y141.216 E12.61101
G1 X95.745 Y141.733 E12.64105
G1 X94.368 Y142.025 E12.66634
G1 X92.704 Y142.200 E12.69637
G1 X91.296 Y142.200 E12.72166
G1 X89.633 Y142.025 E12.75170
G1 X88.255 Y141.733 E12.77699
G1 X86.664 Y141.216 E12.80702
G1 X85.377 Y140.643 E12.83232
G1 X83.929 Y139.807 E12.86235
G1 X82.790 Y138.979 E12.88764
G1 X80.762 Y137.022 E12.93824
G1 X72.786 Y126.887 E13.16984
G1 X71.696 Y125.387 E13.20314
G1 X70.493 Y122.481 E13.25963
G1 X70.263 Y120.500 E13.29544
G1 X70.346 Y50.446 E14.55345
G1 X70.493 Y49.519 E14.57030
G1 X71.673 Y46.668 E14.62572
G1 X71.994 Y46.830 F9000.000
G1 X73.084 Y45.329 E14.65901 F1800.000
G1 X74.706 Y43.772 E14.69939
G1 X76.269 Y43.016 E14.73056
G1 X78.032 Y42.443 E14.76386
G1 X80.000 Y42.131 E14.79964
G1 X104.000 Y42.131 E15.23062
G1 X105.968 Y42.443 E15.26640
G1 X107.731 Y43.016 E15.29970 F1800.000
G1 X109.713 Y44.077 E15.34007
G1 X110.916 Y45.329 E15.37125
G1 X112.006 Y46.830 E15.40454
G1 X113.143 Y49.577 E15.45794
G1 X113.369 Y51.500 E15.49271
G1 X113.290 Y121.496 E16.74969
G1 X113.143 Y122.423 E16.76654
G1 X112.006 Y125.170 E16.81994
G1 X110.766 Y126.868 E16.85768
G1 X102.207 Y137.586 E17.10400
G1 X100.964 Y138.705 E17.13403
G1 X99.887 Y139.487 E17.15794
G1 X98.438 Y140.324 E17.18797
G1 X97.222 Y140.865 E17.21189
G1 X95.631 Y141.382 E17.24192
G1 X94.329 Y141.659 E17.26583
G1 X92.666 Y141.834 E17.29586
G1 X91.334 Y141.834 E17.31977
G1 X89.671 Y141.659 E17.34980
G1 X88.369 Y141.382 E17.37371
G1 X86.778 Y140.865 E17.40375
G1 X85.562 Y140.324 E17.42766
G1 X84.113 Y139.487 E17.45769
G1 X83.036 Y138.705 E17.48160
G1 X81.052 Y136.794 E17.53108
G1 X73.084 Y126.670 E17.76242
G1 X71.994 Y125.170 E17.79571
G1 X70.857 Y122.423 E17.84911
G1 X70.631 Y120.500 E17.88388
G1 X70.710 Y50.504 E19.14086
G1 X70.857 Y49.577 E19.15771
G1 X71.972 Y46.885 E19.21003
G1 F2400.000 E16.21003
G1 Z0.820 F9000.000
G92 E0
G1 X77.327 Y50.631 F9000.000
G1 Z0.220 F9000.000
G1 E3.00000 F2400.000
G1 X78.348 Y49.226 E3.03119 F1800.000
G1 X80.029 Y48.680 E3.06293
G1 X103.971 Y48.680 E3.49289
G1 X105.576 Y49.201 E3.52318
G1 X105.652 Y49.226 E3.52462 F1800.000
G1 X106.673 Y50.631 E3.55582
G1 X106.673 Y51.680 E3.57465
G1 X106.820 Y51.680 E3.57729
G1 X106.820 Y120.320 E4.80991
G1 X106.673 Y120.320 E4.81254
G1 X106.673 Y121.369 E4.83137
G1 X105.652 Y122.774 E4.86257
G1 X103.971 Y123.320 E4.89430
G1 X98.651 Y123.320 E4.98985
G1 X99.436 Y125.084 E5.02452
G1 X99.776 Y126.683 E5.05387
G1 X99.776 Y128.317 E5.08322
G1 X99.436 Y129.916 E5.11258
G1 X98.771 Y131.410 E5.14193
G1 X97.811 Y132.732 E5.17129
G1 X96.596 Y133.826 E5.20064
G1 X95.180 Y134.643 E5.22999
G1 X93.626 Y135.148 E5.25935
G1 X92.000 Y135.319 E5.28870
G1 X90.374 Y135.148 E5.31806
G1 X88.820 Y134.643 E5.34741
G1 X87.404 Y133.826 E5.37677
G1 X86.189 Y132.732 E5.40612
G1 X85.229 Y131.410 E5.43547
G1 X84.564 Y129.916 E5.46483
G1 X84.224 Y128.317 E5.49418
G1 X84.224 Y126.683 E5.52353
G1 X84.564 Y125.084 E5.55289
G1 X85.349 Y123.320 E5.58756
G1 X80.029 Y123.320 E5.68310
G1 X78.348 Y122.774 E5.71484
G1 X77.327 Y121.369 E5.74603
G1 X77.327 Y120.320 E5.76486
G1 X77.180 Y120.320 E5.76750
G1 X77.180 Y51.680 E7.00012
G1 X77.327 Y51.680 E7.00276
G1 X77.327 Y50.691 E7.02051
G1 F2400.000 E4.02051
G1 Z0.820 F9000.000
G92 E0
G1 X105.603 Y49.277 F9000.000
G1 X105.424 Y49.540 F9000.000
G1 Z0.220 F9000.000
G1 E3.00000 F2400.000
G1 X106.305 Y50.751 E3.02689 F1800.000
G1 X106.305 Y52.049 E3.05019
G1 X106.451 Y52.049 E3.05283
G1 X106.451 Y119.951 E4.27221
G1 X106.305 Y119.951 E4.27485
G1 X106.305 Y121.249 E4.29815
G1 X105.424 Y122.460 E4.32504
G1 X103.913 Y122.951 E4.35357
G1 X98.083 Y122.951 E4.45826
G1 X99.084 Y125.198 E4.50243
G1 X99.408 Y126.721 E4.53039
G1 X99.408 Y128.279 E4.55835
G1 X99.084 Y129.802 E4.58632
G1 X98.450 Y131.224 E4.61428
G1 X97.535 Y132.484 E4.64224
G1 X96.378 Y133.526 E4.67020
G1 X95.030 Y134.304 E4.69817
G1 X93.549 Y134.786 E4.72613
G1 X92.000 Y134.948 E4.75409
G1 X90.451 Y134.786 E4.78206
G1 X88.970 Y134.304 E4.81002
G1 X87.622 Y133.526 E4.83798
G1 X86.465 Y132.484 E4.86594
G1 X85.550 Y131.224 E4.89391
G1 X84.916 Y129.802 E4.92187
G1 X84.592 Y128.279 E4.94983
G1 X84.592 Y126.721 E4.97779
G1 X84.916 Y125.198 E5.00576
G1 X85.917 Y122.951 E5.04992
G1 X80.087 Y122.951 E5.15461
G1 X78.576 Y122.460 E5.18315
G1 X77.695 Y121.249 E5.21004
G1 X77.695 Y119.951 E5.23334
G1 X77.549 Y119.951 E5.23598
G1 X77.549 Y52.049 E6.45536
G1 X77.695 Y52.049 E6.45799
G1 X77.695 Y50.751 E6.48129
G1 X78.576 Y49.540 E6.50819
G1 X80.087 Y49.049 E6.53672
G1 X103.913 Y49.049 E6.96459 F1800.000
G1 X105.367 Y49.521 E6.99204
G1 X105.197 Y49.853 F9000.000
G1 X105.936 Y50.871 E7.01464 F1800.000
G1 X105.936 Y52.417 E7.04240
G1 X106.083 Y52.417 E7.04504
G1 X106.083 Y119.583 E8.25118
G1 X105.936 Y119.583 E8.25382
G1 X105.936 Y121.129 E8.28159
G1 X105.197 Y122.147 E8.30418
G1 X103.855 Y122.583 E8.32952
G1 X97.516 Y122.583 E8.44335
G1 X98.731 Y125.313 E8.49701
G1 X99.039 Y126.760 E8.52358
G1 X99.039 Y128.240 E8.55015
G1 X99.020 Y128.328 E8.55178
G1 X98.731 Y129.687 E8.57672
G1 X98.130 Y131.039 E8.60330
G1 X97.260 Y132.236 E8.62987
G1 X96.160 Y133.226 E8.65644
G1 X94.879 Y133.966 E8.68301
G1 X93.472 Y134.423 E8.70958
G1 X92.000 Y134.578 E8.73615
G1 X90.528 Y134.423 E8.76272
G1 X89.121 Y133.966 E8.78929
G1 X87.840 Y133.226 E8.81587
G1 X86.740 Y132.236 E8.84244
G1 X85.870 Y131.039 E8.86901
G1 X85.269 Y129.687 E8.89558
G1 X84.961 Y128.240 E8.92215
G1 X84.961 Y126.760 E8.94872
G1 X85.269 Y125.313 E8.97529
G1 X86.484 Y122.583 E9.02896
G1 X80.145 Y122.583 E9.14279
G1 X78.803 Y122.147 E9.16812
G1 X78.064 Y121.129 E9.19072
G1 X78.064 Y119.583 E9.21848
G1 X77.917 Y119.583 E9.22112
G1 X77.917 Y52.417 E10.42726
G1 X78.064 Y52.417 E10.42990
G1 X78.064 Y50.871 E10.45767
G1 X78.803 Y49.853 E10.48026
G1 X80.145 Y49.417 E10.50560
G1 X103.795 Y49.417 E10.93029
G1 F2400.000 E7.93029
G1 Z0.820 F9000.000
G92 E0
G1 X100.652 Y54.226 F9000.000
G1 Z0.220 F9000.000
G1 E3.00000 F2400.000
G1 X101.673 Y55.631 E3.03119 F1800.000
G1 X101.673 Y56.680 E3.05003
G1 X101.820 Y56.680 E3.05266
G1 X101.820 Y115.320 E4.10570
G1 X101.673 Y115.320 E4.10834
G1 X101.673 Y116.369 E4.12717
G1 X100.652 Y117.774 E4.15837
G1 X98.971 Y118.320 E4.19010
G1 X85.029 Y118.320 E4.44048
G1 X83.348 Y117.774 E4.47222
G1 X82.327 Y116.369 E4.50341
G1 X82.327 Y115.320 E4.52224
G1 X82.180 Y115.320 E4.52488
G1 X82.180 Y83.090 E5.10365
G1 X82.486 Y83.458 E5.11224
G1 X82.589 Y83.533 E5.11453
G1 X82.806 Y83.631 E5.11881
G1 X83.047 Y83.698 E5.12330
G1 X83.303 Y83.737 E5.12796
G1 X84.008 Y83.759 E5.14061
G1 X95.442 Y83.758 E5.34595
G1 X99.462 Y83.693 E5.41814
G1 X99.955 Y83.658 E5.42701
G1 X100.288 Y83.571 E5.43319
G1 X100.433 Y83.484 E5.43624
G1 X100.495 Y83.416 E5.43790
G1 X100.538 Y83.329 E5.43963
G1 X100.553 Y83.233 E5.44138
G1 X100.508 Y83.053 E5.44471
G1 X100.408 Y82.877 E5.44834
G1 X100.170 Y82.599 E5.45492
G1 X99.960 Y82.420 E5.45986
G1 X99.714 Y82.263 E5.46511
G1 X99.428 Y82.133 E5.47075
G1 X99.273 Y82.090 E5.47365
G1 X98.951 Y82.055 E5.47946
G1 X83.545 Y82.317 E5.75616
G1 X83.070 Y82.368 E5.76474
G1 X82.753 Y82.470 E5.77071
G1 X82.571 Y82.587 E5.77459
G1 X82.382 Y82.809 E5.77984
G1 X82.180 Y82.742 E5.78366
G1 X82.180 Y77.688 E5.87443
G1 X82.486 Y78.056 E5.88302
G1 X82.589 Y78.130 E5.88530
G1 X82.806 Y78.229 E5.88958
G1 X83.047 Y78.295 E5.89408
G1 X83.303 Y78.335 E5.89873
G1 X84.008 Y78.357 E5.91139
G1 X95.442 Y78.356 E6.11672
G1 X99.462 Y78.291 E6.18892
G1 X99.955 Y78.256 E6.19779
G1 X100.288 Y78.169 E6.20397
G1 X100.433 Y78.082 E6.20701
G1 X100.495 Y78.014 E6.20867
G1 X100.538 Y77.927 E6.21040
G1 X100.553 Y77.831 E6.21215
G1 X100.508 Y77.651 E6.21548
G1 X100.408 Y77.475 E6.21912
G1 X100.170 Y77.197 E6.22569
G1 X99.960 Y77.018 E6.23064
G1 X99.714 Y76.861 E6.23589
G1 X99.428 Y76.731 E6.24152
G1 X99.273 Y76.688 E6.24442
G1 X98.951 Y76.653 E6.25023
G1 X83.545 Y76.915 E6.52694
G1 X83.070 Y76.966 E6.53551
G1 X82.753 Y77.068 E6.54148
G1 X82.571 Y77.184 E6.54537
G1 X82.382 Y77.407 E6.55062
G1 X82.180 Y77.340 E6.55443
G1 X82.180 Y56.680 E6.92544
G1 X82.327 Y56.680 E6.92808
G1 X82.327 Y55.631 E6.94691
G1 X83.348 Y54.226 E6.97810
G1 X85.029 Y53.680 E7.00984
G1 X98.971 Y53.680 E7.26022 F1800.000
G1 X100.595 Y54.207 E7.29088
G1 X100.424 Y54.540 F9000.000
G1 X101.305 Y55.751 E7.31777 F1800.000
G1 X101.305 Y57.049 E7.34107
G1 X101.451 Y57.049 E7.34371
G1 X101.451 Y100.125 E8.11725
G1 X101.110 Y99.744 E8.12643
G1 X100.858 Y99.520 E8.13249
G1 X100.712 Y99.416 E8.13571
G1 X100.540 Y99.318 E8.13927
G1 X100.345 Y99.244 E8.14301
G1 X100.142 Y99.199 E8.14675
G1 X95.809 Y99.074 E8.22459
G1 X94.570 Y99.058 E8.24683
G1 X87.200 Y99.221 E8.37921
G1 X86.922 Y99.084 E8.38478
G1 X86.477 Y98.916 E8.39332
G1 X86.036 Y98.804 E8.40149
G1 X85.625 Y98.762 E8.40892
G1 X85.267 Y98.800 E8.41538
G1 X84.874 Y98.892 E8.42262
G1 X84.496 Y99.014 E8.42977
G1 X84.157 Y99.160 E8.43639
G1 X83.915 Y99.314 E8.44153
G1 X83.767 Y99.479 E8.44553
G1 X83.684 Y99.737 E8.45040
G1 X83.716 Y99.999 E8.45513
G1 X83.797 Y100.197 E8.45897
G1 X83.924 Y100.362 E8.46271
G1 X84.060 Y100.471 E8.46585
G1 X84.380 Y100.647 E8.47240
G1 X84.692 Y100.773 E8.47844
