; generated by Slic3r 1.1.7 on 2014-12-18 at 20:57:55

; perimeters extrusion width = 0.40mm
; infill extrusion width = 0.42mm
; solid infill extrusion width = 0.42mm
; top infill extrusion width = 0.42mm

; perimeters extrusion width = 0.50mm
; infill extrusion width = 0.70mm
; solid infill extrusion width = 0.70mm
; top infill extrusion width = 0.70mm

G21 ; set units to millimeters
M190 S65 ; wait for bed temperature to be reached
M104 S200 T0 ; set temperature
M104 S180 T1 ; set temperature
G28 ; home all axes
M109 S200 T0 ; wait for temperature to be reached
M109 S180 T1 ; wait for temperature to be reached
G90 ; use absolute coordinates
G92 E0
M82 ; use absolute distances for extrusion
T0
G92 E0
M106 S89
G1 F2400.000 E-3.00000
G1 Z0.860 F9000.000
G92 E0
G1 X71.466 Y51.922 F9000.000
G1 Z0.260 F9000.000
G1 E3.00000 F2400.000
G1 X71.593 Y51.746 E3.00390 F1800.000
G1 X73.399 Y49.938 E3.04979
G1 X75.699 Y48.763 E3.09618
G1 X77.463 Y48.190 E3.12947
G1 X80.000 Y47.788 E3.17560
G1 X104.000 Y47.788 E3.60659
G1 X106.537 Y48.190 E3.65272
G1 X108.301 Y48.763 E3.68602 F1800.000
G1 X110.578 Y49.921 E3.73190
G1 X112.407 Y51.746 E3.77829
G1 X113.496 Y53.246 E3.81159
G1 X114.658 Y55.522 E3.85748
G1 X114.964 Y56.789 E3.88087
G1 X115.110 Y57.716 E3.89773
G1 X115.212 Y59.000 E3.92086
G1 X115.212 Y113.000 E4.89058
G1 X115.110 Y114.284 E4.91371
G1 X114.964 Y115.211 E4.93057
G1 X114.176 Y117.642 E4.97645
G1 X113.496 Y118.754 E4.99985
G1 X112.214 Y120.508 E5.03887
G1 X104.396 Y130.434 E5.26577
G1 X103.440 Y131.455 E5.29090
G1 X102.197 Y132.574 E5.32093
G1 X100.808 Y133.583 E5.35175
G1 X99.360 Y134.420 E5.38179
G1 X97.791 Y135.118 E5.41262
G1 X96.201 Y135.635 E5.44266
G1 X94.522 Y135.992 E5.47348
G1 X92.858 Y136.167 E5.50352
G1 X91.142 Y136.167 E5.53434
G1 X89.478 Y135.992 E5.56438
G1 X87.799 Y135.635 E5.59520
G1 X86.209 Y135.118 E5.62524
G1 X84.640 Y134.420 E5.65607
G1 X83.192 Y133.583 E5.68611
G1 X81.803 Y132.574 E5.71693
G1 X80.560 Y131.455 E5.74696
G1 X79.604 Y130.434 E5.77209
G1 X71.593 Y120.254 E6.00471
G1 X70.504 Y118.754 E6.03801
G1 X69.342 Y116.478 E6.08390
G1 X69.036 Y115.211 E6.10729
G1 X68.890 Y114.284 E6.12415
G1 X68.788 Y113.000 E6.14728
G1 X68.788 Y59.000 E7.11700
G1 X68.890 Y57.716 E7.14013
G1 X69.036 Y56.789 E7.15699
G1 X69.824 Y54.358 E7.20287
G1 X70.504 Y53.246 E7.22627
G1 X71.430 Y51.971 E7.25459
G1 X71.729 Y52.187 F9000.000
G1 X71.892 Y51.963 E7.25957 F1800.000
G1 X73.662 Y50.202 E7.30441
G1 X75.813 Y49.114 E7.34770
G1 X77.577 Y48.541 E7.38100
G1 X80.000 Y48.157 E7.42506
G1 X104.000 Y48.157 E7.85604
G1 X106.423 Y48.541 E7.90010
G1 X108.187 Y49.114 E7.93340 F1800.000
G1 X110.408 Y50.253 E7.97824
G1 X112.108 Y51.963 E8.02153
G1 X113.198 Y53.463 E8.05483
G1 X114.600 Y56.846 E8.12059
G1 X114.843 Y59.000 E8.15951
G1 X114.746 Y114.227 E9.15126
G1 X114.600 Y115.154 E9.16812
G1 X113.198 Y118.537 E9.23388
G1 X111.925 Y120.280 E9.27265
G1 X104.106 Y130.206 E9.49955
G1 X103.193 Y131.181 E9.52354
G1 X101.950 Y132.301 E9.55358
G1 X100.624 Y133.264 E9.58301
G1 X99.176 Y134.100 E9.61305
G1 X97.677 Y134.767 E9.64250
G1 X96.087 Y135.284 E9.67253
G1 X94.483 Y135.625 E9.70197
G1 X92.820 Y135.800 E9.73201
G1 X91.180 Y135.800 E9.76145
G1 X89.517 Y135.625 E9.79148
G1 X87.913 Y135.284 E9.82093
G1 X86.323 Y134.767 E9.85096
G1 X84.825 Y134.100 E9.88041
G1 X83.376 Y133.264 E9.91045
G1 X82.050 Y132.301 E9.93988
G1 X80.807 Y131.181 E9.96992
G1 X79.894 Y130.206 E9.99391
G1 X71.892 Y120.037 E10.22629
G1 X70.802 Y118.537 E10.25958
G1 X69.400 Y115.154 E10.32534
G1 X69.157 Y113.000 E10.36427
G1 X69.254 Y57.773 E11.35601
G1 X69.400 Y56.846 E11.37287
G1 X70.802 Y53.463 E11.43863
G1 X71.693 Y52.236 E11.46587
G1 F2400.000 E1.46587
G1 Z0.860 F9000.000
G92 E0
T1
G92 E0
G1 X24.992 Y51.452 F9000.000
G1 Z0.260 F9000.000
G1 X25.190 Y51.180 E0.00606 F1800.000
G1 X26.925 Y49.468 E0.04982
G1 X28.927 Y48.464 E0.09005
G1 X30.691 Y47.891 E0.12334
G1 X33.000 Y47.526 E0.16533
G1 X57.000 Y47.526 E0.59632
G1 X59.309 Y47.891 E0.63831
G1 X61.073 Y48.464 E0.67160 F1800.000
G1 X63.237 Y49.585 E0.71537
G1 X64.810 Y51.179 E0.75559
G1 X65.900 Y52.680 E0.78889
G1 X67.236 Y55.904 E0.85156
G1 X67.474 Y58.000 E0.88945
G1 X67.382 Y113.169 E1.88016
G1 X67.236 Y114.096 E1.89701
G1 X65.900 Y117.320 E1.95968
G1 X64.635 Y119.052 E1.99819
G1 X56.817 Y128.978 E2.22509
G1 X55.946 Y129.908 E2.24796
G1 X54.704 Y131.027 E2.27800
G1 X53.440 Y131.945 E2.30605
G1 X51.991 Y132.781 E2.33609
G1 X50.564 Y133.417 E2.36415
G1 X48.973 Y133.934 E2.39419
G1 X47.445 Y134.259 E2.42224
G1 X45.781 Y134.433 E2.45228
G1 X44.219 Y134.433 E2.48034
G1 X42.556 Y134.259 E2.51037
G1 X41.027 Y133.934 E2.53843
G1 X39.436 Y133.417 E2.56846
G1 X38.009 Y132.781 E2.59653
G1 X36.560 Y131.945 E2.62656
G1 X35.296 Y131.027 E2.65462
G1 X34.054 Y129.907 E2.68465
G1 X33.183 Y128.978 E2.70752
G1 X25.190 Y118.820 E2.93964
G1 X24.100 Y117.320 E2.97293
G1 X22.764 Y114.096 E3.03560
G1 X22.526 Y112.000 E3.07349
G1 X22.618 Y56.831 E4.06420
G1 X22.764 Y55.904 E4.08105
G1 X24.100 Y52.680 E4.14373
G1 X24.947 Y51.513 E4.16962
G1 X25.246 Y51.730 F9000.000
G1 X25.488 Y51.396 E4.17702 F1800.000
G1 X27.186 Y49.735 E4.21969
G1 X29.041 Y48.815 E4.25687
G1 X30.804 Y48.242 E4.29016
G1 X33.000 Y47.894 E4.33008
G1 X57.000 Y47.894 E4.76107
G1 X59.196 Y48.242 E4.80099
G1 X60.959 Y48.815 E4.83428 F1800.000
G1 X63.064 Y49.916 E4.87695
G1 X64.512 Y51.396 E4.91413
G1 X65.602 Y52.896 E4.94743
G1 X66.872 Y55.962 E5.00701
G1 X67.106 Y58.000 E5.04385
G1 X67.018 Y113.111 E6.03353
G1 X66.872 Y114.038 E6.05038
G1 X65.602 Y117.104 E6.10997
G1 X64.346 Y118.824 E6.14822
G1 X56.527 Y128.750 E6.37512
G1 X55.700 Y129.634 E6.39686
G1 X54.457 Y130.753 E6.42689
G1 X53.255 Y131.626 E6.45356
G1 X51.807 Y132.462 E6.48360
G1 X50.450 Y133.066 E6.51028
G1 X48.859 Y133.583 E6.54031
G1 X47.406 Y133.892 E6.56699
G1 X45.743 Y134.067 E6.59702
G1 X44.257 Y134.067 E6.62370
G1 X42.594 Y133.892 E6.65373
G1 X41.141 Y133.583 E6.68041
G1 X39.550 Y133.066 E6.71044
G1 X38.193 Y132.462 E6.73712
G1 X36.745 Y131.626 E6.76716
G1 X35.543 Y130.753 E6.79383
G1 X34.300 Y129.634 E6.82386
G1 X33.473 Y128.750 E6.84560
G1 X25.488 Y118.604 E7.07746
G1 X24.398 Y117.104 E7.11076
G1 X23.128 Y114.038 E7.17034
G1 X22.894 Y112.000 E7.20718
G1 X22.982 Y56.889 E8.19686
G1 X23.128 Y55.962 E8.21372
G1 X24.398 Y52.896 E8.27330
G1 X25.202 Y51.790 E8.29784
G1 F3600.000 E-1.70216
G1 Z0.860 F9000.000
G92 E0
T0
G92 E0
G1 X72.500 Y53.007 F9000.000
G1 Z0.260 F9000.000
G1 E10.00000 F2400.000
G1 X72.786 Y52.613 E10.00875 F1800.000
G1 X74.447 Y51.003 E10.05029
G1 X76.155 Y50.165 E10.08445
G1 X77.918 Y49.593 E10.11774
G1 X80.000 Y49.263 E10.15559
G1 X104.000 Y49.263 E10.58658
G1 X106.082 Y49.593 E10.62443
G1 X107.845 Y50.165 E10.65772 F1800.000
G1 X109.890 Y51.247 E10.69926
G1 X111.214 Y52.613 E10.73342
G1 X112.304 Y54.113 E10.76672
G1 X113.507 Y57.019 E10.82321
G1 X113.737 Y59.000 E10.85902
G1 X113.654 Y114.054 E11.84766
G1 X113.507 Y114.981 E11.86451
G1 X112.304 Y117.887 E11.92100
G1 X111.056 Y119.596 E11.95900
G1 X102.453 Y130.360 E12.20644
G1 X101.210 Y131.479 E12.23648
G1 X100.071 Y132.307 E12.26177
G1 X98.623 Y133.143 E12.29180
G1 X97.336 Y133.716 E12.31710
G1 X95.745 Y134.233 E12.34713
G1 X94.368 Y134.525 E12.37242
G1 X92.704 Y134.700 E12.40246
G1 X91.296 Y134.700 E12.42775
G1 X89.633 Y134.525 E12.45778
G1 X88.255 Y134.233 E12.48307
G1 X86.664 Y133.716 E12.51311
G1 X85.377 Y133.143 E12.53840
G1 X83.929 Y132.307 E12.56844
G1 X82.790 Y131.479 E12.59373
G1 X80.762 Y129.522 E12.64433
G1 X72.786 Y119.387 E12.87593
G1 X71.696 Y117.887 E12.90923
G1 X70.493 Y114.981 E12.96572
G1 X70.263 Y113.000 E13.00153
G1 X70.346 Y57.946 E13.99017
G1 X70.493 Y57.019 E14.00702
G1 X71.696 Y54.113 E14.06351
G1 X72.464 Y53.056 E14.08698
G1 X72.763 Y53.272 F9000.000
G1 X73.084 Y52.829 E14.09681 F1800.000
G1 X74.706 Y51.272 E14.13719
G1 X76.269 Y50.516 E14.16836
G1 X78.032 Y49.943 E14.20166
G1 X80.000 Y49.631 E14.23743
G1 X104.000 Y49.631 E14.66842
G1 X105.968 Y49.943 E14.70420
G1 X107.731 Y50.516 E14.73749 F1800.000
G1 X109.713 Y51.577 E14.77787
G1 X110.916 Y52.829 E14.80904
G1 X112.006 Y54.330 E14.84234
G1 X113.143 Y57.077 E14.89574
G1 X113.369 Y59.000 E14.93051
G1 X113.290 Y113.996 E15.91812
G1 X113.143 Y114.923 E15.93497
G1 X112.006 Y117.670 E15.98837
G1 X110.766 Y119.368 E16.02611
G1 X102.207 Y130.086 E16.27243
G1 X100.964 Y131.205 E16.30247
G1 X99.887 Y131.987 E16.32637
G1 X98.438 Y132.824 E16.35641
G1 X97.222 Y133.365 E16.38032
G1 X95.631 Y133.882 E16.41035
G1 X94.329 Y134.159 E16.43426
G1 X92.666 Y134.334 E16.46430
G1 X91.334 Y134.334 E16.48820
G1 X89.671 Y134.159 E16.51824
G1 X88.369 Y133.882 E16.54214
G1 X86.778 Y133.365 E16.57218
G1 X85.562 Y132.824 E16.59609
G1 X84.113 Y131.987 E16.62613
G1 X83.036 Y131.205 E16.65003
G1 X81.052 Y129.294 E16.69951
G1 X73.084 Y119.170 E16.93085
G1 X71.994 Y117.670 E16.96415
G1 X70.857 Y114.923 E17.01755
G1 X70.631 Y113.000 E17.05232
G1 X70.710 Y58.004 E18.03992
G1 X70.857 Y57.077 E18.05678
G1 X71.994 Y54.330 E18.11018
G1 X72.727 Y53.321 E18.13257
G1 F2400.000 E15.13257
G1 Z0.860 F9000.000
G92 E0
G1 X82.276 Y96.837 F9000.000
G1 Z0.260 F9000.000
G1 E3.00000 F2400.000
G1 X82.207 Y96.075 E3.01374 F1800.000
G1 X82.248 Y95.295 E3.02777
G1 F2400.000 E0.02777
G1 Z0.860 F9000.000
G92 E0
G1 X77.180 Y95.295 F9000.000
G1 Z0.260 F9000.000
G1 E3.00000 F2400.000
G1 X77.180 Y59.180 E3.64855 F1800.000
G1 X77.327 Y59.180 E3.65119
G1 X77.327 Y58.131 E3.67002
G1 X78.348 Y56.726 E3.70121
G1 X80.029 Y56.180 E3.73295
G1 X103.971 Y56.180 E4.16291
G1 X105.576 Y56.701 E4.19319
G1 X105.652 Y56.726 E4.19464 F1800.000
G1 X106.673 Y58.131 E4.22584
G1 X106.673 Y59.180 E4.24467
G1 X106.820 Y59.180 E4.24730
G1 X106.820 Y112.820 E5.21056
G1 X106.673 Y112.820 E5.21319
G1 X106.673 Y113.869 E5.23202
G1 X105.652 Y115.274 E5.26322
G1 X103.971 Y115.820 E5.29495
G1 X98.651 Y115.820 E5.39050
G1 X99.436 Y117.584 E5.42517
G1 X99.776 Y119.183 E5.45452
G1 X99.776 Y120.817 E5.48387
G1 X99.436 Y122.416 E5.51323
G1 X98.771 Y123.910 E5.54258
G1 X97.811 Y125.232 E5.57194
G1 X96.596 Y126.326 E5.60129
G1 X95.180 Y127.143 E5.63065
G1 X93.626 Y127.648 E5.66000
G1 X92.000 Y127.819 E5.68935
G1 X90.374 Y127.648 E5.71871
G1 X88.820 Y127.143 E5.74806
G1 X87.404 Y126.326 E5.77742
G1 X86.189 Y125.232 E5.80677
G1 X85.229 Y123.910 E5.83612
G1 X84.564 Y122.416 E5.86548
G1 X84.224 Y120.817 E5.89483
G1 X84.224 Y119.183 E5.92419
G1 X84.564 Y117.584 E5.95354
G1 X85.349 Y115.820 E5.98821
G1 X80.029 Y115.820 E6.08375
G1 X78.348 Y115.274 E6.11549
G1 X77.327 Y113.869 E6.14668
G1 X77.327 Y112.820 E6.16551
G1 X77.180 Y112.820 E6.16815
G1 X77.180 Y95.355 E6.48178
G1 F2400.000 E3.48178
G1 Z0.860 F9000.000
G92 E0
G1 X105.626 Y56.764 F9000.000
G1 X105.424 Y57.040 F9000.000
G1 Z0.260 F9000.000
G1 E3.00000 F2400.000
G1 X106.305 Y58.251 E3.02689 F1800.000
G1 X106.305 Y59.549 E3.05019
G1 X106.451 Y59.549 E3.05283
G1 X106.451 Y112.451 E4.00284
G1 X106.305 Y112.451 E4.00548
G1 X106.305 Y113.749 E4.02878
G1 X105.424 Y114.960 E4.05567
G1 X103.913 Y115.451 E4.08421
G1 X98.083 Y115.451 E4.18890
G1 X99.084 Y117.698 E4.23306
G1 X99.408 Y119.221 E4.26103
G1 X99.408 Y120.779 E4.28899
G1 X99.084 Y122.302 E4.31695
G1 X98.450 Y123.724 E4.34491
G1 X97.535 Y124.984 E4.37288
G1 X97.485 Y125.029 E4.37409
G1 X96.378 Y126.026 E4.40084
G1 X95.030 Y126.804 E4.42880
G1 X93.549 Y127.286 E4.45676
G1 X92.000 Y127.448 E4.48473
G1 X90.451 Y127.286 E4.51269
G1 X88.970 Y126.804 E4.54065
G1 X87.622 Y126.026 E4.56862
G1 X86.465 Y124.984 E4.59658
G1 X85.550 Y123.724 E4.62454
G1 X84.916 Y122.302 E4.65250
G1 X84.592 Y120.779 E4.68047
G1 X84.592 Y119.221 E4.70843
G1 X84.916 Y117.698 E4.73639
G1 X85.917 Y115.451 E4.78056
G1 X80.087 Y115.451 E4.88525
G1 X78.576 Y114.960 E4.91378
G1 X77.695 Y113.749 E4.94067
G1 X77.695 Y112.451 E4.96397
G1 X77.549 Y112.451 E4.96661
G1 X77.549 Y59.549 E5.91663
G1 X77.695 Y59.549 E5.91926
G1 X77.695 Y58.251 E5.94256
G1 X78.576 Y57.040 E5.96945
G1 X80.087 Y56.549 E5.99799
G1 X103.913 Y56.549 E6.42585 F1800.000
G1 X105.367 Y57.021 E6.45331
G1 X105.197 Y57.353 F9000.000
G1 X105.936 Y58.371 E6.47590 F1800.000
G1 X105.936 Y59.917 E6.50367
G1 X106.083 Y59.917 E6.50631
G1 X106.083 Y112.083 E7.44309
G1 X105.936 Y112.083 E7.44572
G1 X105.936 Y113.629 E7.47349
G1 X105.197 Y114.647 E7.49608
G1 X103.855 Y115.083 E7.52142
G1 X97.516 Y115.083 E7.63525
G1 X98.731 Y117.813 E7.68891
G1 X99.039 Y119.260 E7.71548
G1 X99.039 Y120.740 E7.74205
G1 X99.020 Y120.828 E7.74368
G1 X98.731 Y122.187 E7.76863
G1 X98.130 Y123.539 E7.79520
G1 X97.260 Y124.736 E7.82177
G1 X96.160 Y125.726 E7.84834
G1 X94.879 Y126.466 E7.87491
G1 X93.472 Y126.923 E7.90148
G1 X92.000 Y127.078 E7.92805
G1 X90.528 Y126.923 E7.95462
G1 X89.121 Y126.466 E7.98120
G1 X87.840 Y125.726 E8.00777
G1 X86.740 Y124.736 E8.03434
G1 X85.870 Y123.539 E8.06091
G1 X85.269 Y122.187 E8.08748
G1 X84.961 Y120.740 E8.11405
G1 X84.961 Y119.260 E8.14062
G1 X85.269 Y117.813 E8.16719
G1 X86.484 Y115.083 E8.22086
G1 X80.145 Y115.083 E8.33469
G1 X78.803 Y114.647 E8.36003
G1 X78.064 Y113.629 E8.38262
G1 X78.064 Y112.083 E8.41039
G1 X77.917 Y112.083 E8.41302
G1 X77.917 Y59.917 E9.34980
G1 X78.064 Y59.917 E9.35244
G1 X78.064 Y58.371 E9.38020
G1 X78.803 Y57.353 E9.40280
G1 X80.145 Y56.917 E9.42813
G1 X103.795 Y56.917 E9.85282
G1 F2400.000 E6.85282
G1 Z0.860 F9000.000
G92 E0
G1 X87.827 Y94.989 F9000.000
G1 Z0.260 F9000.000
G1 E3.00000 F2400.000
G1 X88.298 Y95.226 E3.00946 F1800.000
G1 X88.766 Y95.501 E3.01922
G1 X89.233 Y95.813 E3.02930
G1 X89.698 Y96.162 E3.03974
G1 X90.155 Y96.543 E3.05043
G1 X90.602 Y96.950 E3.06129
G1 X91.039 Y97.383 E3.07232
G1 X91.871 Y98.317 E3.09479
G1 X92.612 Y99.291 E3.11676
G1 X92.946 Y99.788 E3.12752
G1 X93.250 Y100.287 E3.13801
G1 X93.521 Y100.781 E3.14813
G1 X93.758 Y101.272 E3.15792
G1 X93.961 Y101.759 E3.16740
G1 X94.123 Y102.230 E3.17634
G1 X94.239 Y102.676 E3.18461
G1 X94.307 Y103.096 E3.19225
G1 X94.330 Y103.490 E3.19933
G1 X94.304 Y103.838 E3.20562
G1 X94.230 Y104.115 E3.21075
G1 X94.115 Y104.323 E3.21503
G1 X93.956 Y104.476 E3.21899
G1 X93.742 Y104.593 E3.22337
G1 X93.471 Y104.682 E3.22849
G1 X93.144 Y104.736 E3.23445
G1 X92.761 Y104.755 E3.24132
G1 X92.447 Y104.739 E3.24698
G1 X92.117 Y104.692 E3.25295
G1 X91.773 Y104.614 E3.25930
G1 X91.413 Y104.503 E3.26606
G1 X90.668 Y104.195 E3.28054
G1 X89.908 Y103.782 E3.29607
G1 X89.139 Y103.266 E3.31269
G1 X88.371 Y102.649 E3.33038
G1 X87.626 Y101.945 E3.34880
G1 X86.922 Y101.164 E3.36768
G1 X86.542 Y100.680 E3.37873
G1 X86.487 Y100.593 E3.38058
G1 X86.432 Y100.446 E3.38339
G1 X86.425 Y100.370 E3.38477
G1 X86.457 Y100.163 E3.38853
G1 X86.440 Y100.021 E3.39109
G1 X86.391 Y99.873 E3.39390
G1 X86.314 Y99.725 E3.39688
G1 X86.213 Y99.578 E3.40009
G1 X85.976 Y99.302 E3.40663
G1 X85.575 Y98.928 E3.41647
G1 X85.446 Y98.785 E3.41993
G1 X85.206 Y98.437 E3.42751
G1 X84.996 Y98.036 E3.43564
G1 X84.824 Y97.620 E3.44373
G1 X84.690 Y97.203 E3.45160
G1 X84.593 Y96.807 E3.45891
G1 X84.533 Y96.468 E3.46509
G1 X84.515 Y96.235 E3.46929
G1 X84.542 Y95.812 E3.47691
G1 X84.624 Y95.460 E3.48339
G1 X84.754 Y95.177 E3.48899
G1 X84.934 Y94.955 E3.49412
G1 X85.157 Y94.782 E3.49919
G1 X85.419 Y94.658 E3.50439
G1 X85.719 Y94.582 E3.50996
G1 X86.063 Y94.556 E3.51616 F1800.000
G1 X86.483 Y94.582 E3.52370
G1 X86.917 Y94.663 E3.53163
G1 X87.365 Y94.798 E3.54003
G1 X87.772 Y94.966 E3.54794
G1 X87.631 Y95.307 F9000.000
G1 X88.121 Y95.550 E3.55776 F1800.000
G1 X88.571 Y95.814 E3.56712
G1 X89.020 Y96.114 E3.57682
G1 X89.469 Y96.451 E3.58691
G1 X89.913 Y96.821 E3.59729
G1 X90.348 Y97.218 E3.60786
G1 X90.774 Y97.639 E3.61862
G1 X91.586 Y98.552 E3.64056
G1 X92.310 Y99.502 E3.66201
G1 X92.931 Y100.471 E3.68268
G1 X93.193 Y100.950 E3.69248
G1 X93.421 Y101.424 E3.70192
G1 X93.616 Y101.890 E3.71101
G1 X93.770 Y102.337 E3.71948
G1 X93.878 Y102.752 E3.72718
G1 X93.940 Y103.136 E3.73418
G1 X93.960 Y103.487 E3.74048
G1 X93.939 Y103.777 E3.74571
G1 X93.886 Y103.976 E3.74940
G1 X93.819 Y104.096 E3.75187
G1 X93.735 Y104.176 E3.75396
G1 X93.595 Y104.253 E3.75684
G1 X93.383 Y104.323 E3.76084
G1 X93.104 Y104.369 E3.76592
G1 X92.761 Y104.386 E3.77208
G1 X92.482 Y104.372 E3.77710
G1 X92.184 Y104.330 E3.78250
