; generated by Slic3r 1.1.7 on 2014-12-20 at 08:07:20

; perimeters extrusion width = 0.40mm
; infill extrusion width = 0.42mm
; solid infill extrusion width = 0.42mm
; top infill extrusion width = 0.42mm

; perimeters extrusion width = 0.50mm
; infill extrusion width = 0.70mm
; solid infill extrusion width = 0.70mm
; top infill extrusion width = 0.70mm

G21 ; set units to millimeters
M190 S65 ; wait for bed temperature to be reached
M104 S200 T0 ; set temperature
M104 S190 T1 ; set temperature
G28 ; home all axes
M109 S200 T0 ; wait for temperature to be reached
M109 S190 T1 ; wait for temperature to be reached
G90 ; use absolute coordinates
G92 E0
M82 ; use absolute distances for extrusion
T0
G92 E0
M106 S89
G1 F2400.000 E-3.00000
G1 Z0.820 F9000.000
G92 E0
G1 X68.600 Y28.680 F9000.000
G1 Z0.220 F9000.000
G1 E3.00000 F2400.000
G1 X69.690 Y27.180 E3.03330 F1800.000
G1 X71.425 Y25.468 E3.07706
G1 X73.427 Y24.464 E3.11729
G1 X75.191 Y23.891 E3.15058
G1 X77.500 Y23.526 E3.19257
G1 X106.500 Y23.526 E3.71335
G1 X108.809 Y23.891 E3.75534
G1 X110.573 Y24.464 E3.78863 F1800.000
G1 X112.737 Y25.585 E3.83240
G1 X114.310 Y27.180 E3.87262
G1 X115.400 Y28.680 E3.90592
G1 X116.736 Y31.904 E3.96859
G1 X116.974 Y34.000 E4.00647
G1 X116.882 Y139.169 E5.89507
G1 X116.736 Y140.096 E5.91193
G1 X115.400 Y143.320 E5.97460
G1 X114.310 Y144.820 E6.00790
G1 X113.445 Y145.814 E6.03155
G1 X102.946 Y155.907 E6.29309
G1 X101.704 Y157.027 E6.32312
G1 X100.440 Y157.945 E6.35117
G1 X98.991 Y158.781 E6.38121
G1 X97.564 Y159.417 E6.40928
G1 X95.973 Y159.934 E6.43931
G1 X94.444 Y160.259 E6.46737
G1 X92.781 Y160.433 E6.49740
G1 X91.219 Y160.433 E6.52546
G1 X89.556 Y160.259 E6.55549
G1 X88.027 Y159.934 E6.58355
G1 X86.436 Y159.417 E6.61359
G1 X85.009 Y158.781 E6.64165
G1 X83.560 Y157.945 E6.67169
G1 X82.296 Y157.027 E6.69974
G1 X80.873 Y155.740 E6.73420
G1 X70.555 Y145.814 E6.99131
G1 X69.690 Y144.820 E7.01497
G1 X68.600 Y143.320 E7.04826
G1 X67.264 Y140.096 E7.11093
G1 X67.026 Y138.000 E7.14882
G1 X67.118 Y32.831 E9.03742
G1 X67.264 Y31.904 E9.05427
G1 X68.577 Y28.735 E9.11587
G1 X68.898 Y28.896 F9000.000
G1 X69.988 Y27.396 E9.14916 F1800.000
G1 X71.686 Y25.735 E9.19183
G1 X73.541 Y24.815 E9.22901
G1 X75.304 Y24.242 E9.26230
G1 X77.500 Y23.894 E9.30222
G1 X106.500 Y23.894 E9.82300
G1 X108.696 Y24.242 E9.86292
G1 X110.459 Y24.815 E9.89621 F1800.000
G1 X112.564 Y25.916 E9.93888
G1 X114.012 Y27.396 E9.97606
G1 X115.102 Y28.896 E10.00935
G1 X116.372 Y31.962 E10.06894
G1 X116.606 Y34.000 E10.10578
G1 X116.518 Y139.111 E11.99334
G1 X116.372 Y140.038 E12.01020
G1 X115.102 Y143.104 E12.06978
G1 X114.012 Y144.604 E12.10308
G1 X113.190 Y145.548 E12.12556
G1 X102.700 Y155.634 E12.38688
G1 X101.457 Y156.753 E12.41691
G1 X100.255 Y157.626 E12.44359
G1 X98.807 Y158.462 E12.47362
G1 X97.450 Y159.066 E12.50030
G1 X95.859 Y159.583 E12.53034
G1 X94.406 Y159.892 E12.55701
G1 X92.743 Y160.067 E12.58705
G1 X91.257 Y160.067 E12.61372
G1 X89.594 Y159.892 E12.64375
G1 X88.141 Y159.583 E12.67043
G1 X86.550 Y159.066 E12.70046
G1 X85.193 Y158.462 E12.72714
G1 X83.745 Y157.626 E12.75718
G1 X82.543 Y156.753 E12.78385
G1 X81.129 Y155.474 E12.81809
G1 X70.810 Y145.548 E13.07520
G1 X69.988 Y144.604 E13.09769
G1 X68.898 Y143.104 E13.13099
G1 X67.628 Y140.038 E13.19057
G1 X67.394 Y138.000 E13.22741
G1 X67.482 Y32.889 E15.11498
G1 X67.628 Y31.962 E15.13183
G1 X68.875 Y28.952 E15.19034
G1 F2400.000 E5.19034
G1 Z0.820 F9000.000
G92 E0
T1
G92 E0
G1 X22.146 Y28.113 F9000.000
G1 Z0.220 F9000.000
G1 X23.236 Y26.613 E0.03330 F1800.000
G1 X24.897 Y25.003 E0.07483
G1 X26.605 Y24.165 E0.10900
G1 X28.368 Y23.593 E0.14229
G1 X30.450 Y23.263 E0.18014
G1 X59.450 Y23.263 E0.70091
G1 X61.532 Y23.593 E0.73876
G1 X63.295 Y24.165 E0.77206 F1800.000
G1 X65.340 Y25.247 E0.81359
G1 X66.664 Y26.613 E0.84776
G1 X67.754 Y28.113 E0.88105
G1 X68.957 Y31.019 E0.93755
G1 X69.187 Y33.000 E0.97335
G1 X69.104 Y138.054 E2.85988
G1 X68.957 Y138.981 E2.87674
G1 X67.754 Y141.887 E2.93323
G1 X66.664 Y143.387 E2.96652
G1 X65.884 Y144.282 E2.98784
G1 X55.403 Y154.360 E3.24894
G1 X54.160 Y155.479 E3.27898
G1 X53.021 Y156.307 E3.30427
G1 X51.573 Y157.143 E3.33430
G1 X50.286 Y157.716 E3.35960
G1 X48.695 Y158.233 E3.38963
G1 X47.317 Y158.525 E3.41492
G1 X45.654 Y158.700 E3.44496
G1 X44.246 Y158.700 E3.47025
G1 X42.583 Y158.525 E3.50028
G1 X41.205 Y158.233 E3.52557
G1 X39.614 Y157.716 E3.55561
G1 X38.327 Y157.143 E3.58090
G1 X36.879 Y156.307 E3.61094
G1 X35.740 Y155.479 E3.63623
G1 X34.334 Y154.208 E3.67025
G1 X24.016 Y144.282 E3.92736
G1 X23.236 Y143.387 E3.94868
G1 X22.146 Y141.887 E3.98198
G1 X20.943 Y138.981 E4.03847
G1 X20.713 Y137.000 E4.07428
G1 X20.796 Y31.946 E5.96080
G1 X20.943 Y31.019 E5.97766
G1 X22.118 Y28.182 E6.03280
G1 X22.444 Y28.330 F9000.000
G1 X23.534 Y26.829 E6.06610 F1800.000
G1 X25.156 Y25.272 E6.10648
G1 X26.719 Y24.516 E6.13765
G1 X28.482 Y23.943 E6.17095
G1 X30.450 Y23.631 E6.20673
G1 X59.450 Y23.631 E6.72750
G1 X61.418 Y23.943 E6.76328
G1 X63.181 Y24.516 E6.79657 F1800.000
G1 X65.163 Y25.577 E6.83695
G1 X66.366 Y26.829 E6.86812
G1 X67.456 Y28.330 E6.90142
G1 X68.593 Y31.077 E6.95482
G1 X68.819 Y33.000 E6.98959
G1 X68.740 Y137.996 E8.87508
G1 X68.593 Y138.923 E8.89194
G1 X67.456 Y141.670 E8.94534
G1 X65.629 Y144.017 E8.99874
G1 X55.157 Y154.086 E9.25962
G1 X53.914 Y155.205 E9.28966
G1 X52.837 Y155.987 E9.31356
G1 X51.388 Y156.824 E9.34360
G1 X50.172 Y157.365 E9.36751
G1 X48.581 Y157.882 E9.39754
G1 X47.279 Y158.159 E9.42145
G1 X45.616 Y158.334 E9.45149
G1 X44.284 Y158.334 E9.47539
G1 X42.621 Y158.159 E9.50543
G1 X41.319 Y157.882 E9.52933
G1 X39.728 Y157.365 E9.55937
G1 X38.512 Y156.824 E9.58328
G1 X37.063 Y155.987 E9.61332
G1 X35.986 Y155.205 E9.63722
G1 X34.590 Y153.943 E9.67103
G1 X23.534 Y143.170 E9.94822
G1 X22.444 Y141.670 E9.98151
G1 X21.307 Y138.923 E10.03491
G1 X21.081 Y137.000 E10.06968
G1 X21.160 Y32.004 E11.95518
G1 X21.307 Y31.077 E11.97203
G1 X22.416 Y28.399 E12.02409
G1 F3600.000 E2.02409
G1 Z0.820 F9000.000
G92 E0
T0
G92 E0
G1 X92.136 Y121.827 F9000.000
G1 Z0.220 F9000.000
G1 E10.00000 F2400.000
G1 X92.375 Y121.958 E10.00488 F1800.000
G1 X92.695 Y122.210 E10.01220
G1 X93.040 Y122.554 E10.02095
G1 X93.542 Y123.154 E10.03500
G1 F2400.000 E7.03500
G1 Z0.820 F9000.000
G92 E0
G1 X109.320 Y123.154 F9000.000
G1 Z0.220 F9000.000
G1 E3.00000 F2400.000
G1 X109.320 Y137.820 E3.26336 F1800.000
G1 X109.173 Y137.820 E3.26600
G1 X109.173 Y138.869 E3.28483
G1 X108.152 Y140.274 E3.31603
G1 X106.471 Y140.820 E3.34776
G1 X98.651 Y140.820 E3.48820
G1 X99.434 Y142.571 E3.52264
G1 X99.776 Y144.183 E3.55223
G1 X99.776 Y145.817 E3.58158
G1 X99.436 Y147.416 E3.61094
G1 X98.771 Y148.910 E3.64029
G1 X97.811 Y150.232 E3.66964
G1 X96.596 Y151.326 E3.69900
G1 X95.180 Y152.143 E3.72835
G1 X93.626 Y152.648 E3.75771
G1 X92.000 Y152.819 E3.78706
G1 X90.374 Y152.648 E3.81641
G1 X88.820 Y152.143 E3.84577
G1 X87.404 Y151.326 E3.87512
G1 X86.189 Y150.232 E3.90448
G1 X85.229 Y148.910 E3.93383
G1 X84.564 Y147.416 E3.96319
G1 X84.224 Y145.817 E3.99254
G1 X84.224 Y144.183 E4.02189
G1 X84.564 Y142.584 E4.05125
G1 X85.349 Y140.820 E4.08592
G1 X77.529 Y140.820 E4.22636
G1 X75.848 Y140.274 E4.25809
G1 X74.827 Y138.869 E4.28928
G1 X74.827 Y137.820 E4.30812
G1 X74.680 Y137.820 E4.31075
G1 X74.680 Y34.180 E6.17189
G1 X74.827 Y34.180 E6.17453
G1 X74.827 Y33.131 E6.19336
G1 X75.848 Y31.726 E6.22455
G1 X77.529 Y31.180 E6.25629
G1 X106.471 Y31.180 E6.77604
G1 X108.076 Y31.701 E6.80633
G1 X108.152 Y31.726 E6.80777 F1800.000
G1 X109.173 Y33.131 E6.83897
G1 X109.173 Y34.180 E6.85780
G1 X109.320 Y34.180 E6.86043
G1 X109.320 Y123.094 E8.45713
G1 F2400.000 E5.45713
G1 Z0.820 F9000.000
G92 E0
G1 X108.143 Y31.745 F9000.000
G1 X107.924 Y32.040 F9000.000
G1 Z0.220 F9000.000
G1 E3.00000 F2400.000
G1 X108.805 Y33.251 E3.02689 F1800.000
G1 X108.805 Y34.549 E3.05019
G1 X108.951 Y34.549 E3.05283
G1 X108.951 Y137.451 E4.90073
G1 X108.805 Y137.451 E4.90337
G1 X108.805 Y138.749 E4.92667
G1 X107.924 Y139.960 E4.95356
G1 X106.413 Y140.451 E4.98210
G1 X98.083 Y140.451 E5.13168
G1 X99.084 Y142.698 E5.17585
G1 X99.408 Y144.221 E5.20381
G1 X99.408 Y145.779 E5.23177
G1 X99.084 Y147.302 E5.25973
G1 X98.450 Y148.724 E5.28770
G1 X97.535 Y149.984 E5.31566
G1 X96.378 Y151.026 E5.34362
G1 X95.030 Y151.804 E5.37158
G1 X93.549 Y152.286 E5.39955
G1 X92.000 Y152.448 E5.42751
G1 X90.451 Y152.286 E5.45547
G1 X88.970 Y151.804 E5.48343
G1 X87.622 Y151.026 E5.51140
G1 X86.465 Y149.984 E5.53936
G1 X85.550 Y148.724 E5.56732
G1 X84.916 Y147.302 E5.59529
G1 X84.592 Y145.779 E5.62325
G1 X84.592 Y144.221 E5.65121
G1 X84.916 Y142.698 E5.67917
G1 X85.917 Y140.451 E5.72334
G1 X77.587 Y140.451 E5.87292
G1 X76.076 Y139.960 E5.90146
G1 X75.195 Y138.749 E5.92835
G1 X75.195 Y137.451 E5.95165
G1 X75.049 Y137.451 E5.95429
G1 X75.049 Y34.549 E7.80219
G1 X75.195 Y34.549 E7.80483
G1 X75.195 Y33.251 E7.82812
G1 X76.076 Y32.040 E7.85502
G1 X77.587 Y31.549 E7.88355
G1 X106.413 Y31.549 E8.40121 F1800.000
G1 X107.867 Y32.021 E8.42866
G1 X107.697 Y32.353 F9000.000
G1 X108.436 Y33.371 E8.45126 F1800.000
G1 X108.436 Y34.917 E8.47902
G1 X108.583 Y34.917 E8.48166
G1 X108.583 Y137.083 E10.31633
G1 X108.436 Y137.083 E10.31896
G1 X108.436 Y138.629 E10.34673
G1 X107.697 Y139.647 E10.36932
G1 X106.355 Y140.083 E10.39466
G1 X97.516 Y140.083 E10.55338
G1 X98.731 Y142.813 E10.60705
G1 X99.039 Y144.260 E10.63362
G1 X99.039 Y145.740 E10.66019
G1 X98.731 Y147.187 E10.68676
G1 X98.130 Y148.539 E10.71333
G1 X97.260 Y149.736 E10.73990
G1 X96.160 Y150.726 E10.76647
G1 X94.879 Y151.466 E10.79305
G1 X93.472 Y151.923 E10.81962
G1 X92.000 Y152.078 E10.84619
G1 X90.528 Y151.923 E10.87276
G1 X89.121 Y151.466 E10.89933
G1 X87.840 Y150.726 E10.92590
G1 X86.740 Y149.736 E10.95247
G1 X85.870 Y148.539 E10.97904
G1 X85.269 Y147.187 E11.00562
G1 X84.961 Y145.740 E11.03219
G1 X84.961 Y144.260 E11.05876
G1 X85.269 Y142.813 E11.08533
G1 X86.484 Y140.083 E11.13899
G1 X77.645 Y140.083 E11.29772
G1 X76.303 Y139.647 E11.32306
G1 X75.564 Y138.629 E11.34565
G1 X75.564 Y137.083 E11.37341
G1 X75.417 Y137.083 E11.37605
G1 X75.417 Y34.917 E13.21072
G1 X75.564 Y34.917 E13.21335
G1 X75.564 Y33.371 E13.24112
G1 X76.303 Y32.353 E13.26371
G1 X77.645 Y31.917 E13.28905
G1 X106.295 Y31.917 E13.80353
G1 F2400.000 E10.80353
G1 Z0.820 F9000.000
G92 E0
G1 X103.152 Y36.726 F9000.000
G1 Z0.220 F9000.000
G1 E3.00000 F2400.000
G1 X104.173 Y38.131 E3.03119 F1800.000
G1 X104.173 Y39.180 E3.05003
G1 X104.320 Y39.180 E3.05266
G1 X104.320 Y132.820 E4.73423
G1 X104.173 Y132.820 E4.73686
G1 X104.173 Y133.869 E4.75569
G1 X103.152 Y135.274 E4.78689
G1 X101.471 Y135.820 E4.81862
G1 X82.529 Y135.820 E5.15879
G1 X80.848 Y135.274 E5.19053
G1 X79.827 Y133.869 E5.22172
G1 X79.827 Y132.820 E5.24055
G1 X79.680 Y132.820 E5.24319
G1 X79.680 Y39.180 E6.92475
G1 X79.827 Y39.180 E6.92739
G1 X79.827 Y38.131 E6.94622
G1 X80.848 Y36.726 E6.97742
G1 X82.529 Y36.180 E7.00915
G1 X101.471 Y36.180 E7.34932 F1800.000
G1 X103.095 Y36.707 E7.37998
G1 X102.924 Y37.040 F9000.000
G1 X103.805 Y38.251 E7.40687 F1800.000
G1 X103.805 Y39.549 E7.43017
G1 X103.951 Y39.549 E7.43281
G1 X103.951 Y132.451 E9.10113
G1 X103.805 Y132.451 E9.10377
G1 X103.805 Y133.749 E9.12707
G1 X102.924 Y134.960 E9.15396
G1 X101.413 Y135.451 E9.18250
G1 X82.587 Y135.451 E9.52057
G1 X81.076 Y134.960 E9.54911
G1 X80.195 Y133.749 E9.57600
G1 X80.195 Y132.451 E9.59930
G1 X80.049 Y132.451 E9.60194
G1 X80.049 Y39.549 E11.27026
G1 X80.195 Y39.549 E11.27290
G1 X80.195 Y38.251 E11.29620
G1 X81.076 Y37.040 E11.32309
G1 X82.587 Y36.549 E11.35163
G1 X101.353 Y36.549 E11.68863
G1 F2400.000 E8.68863
G1 Z0.820 F9000.000
G92 E0
G1 X93.046 Y70.804 F9000.000
G1 Z0.220 F9000.000
G1 E3.00000 F2400.000
G1 X93.789 Y71.857 E3.02315 F1800.000
G1 X94.403 Y72.774 E3.04296
G1 X94.999 Y73.730 E3.06319
G1 X95.375 Y74.380 E3.07668
G1 X95.718 Y75.032 E3.08991
G1 X96.017 Y75.683 E3.10278
G1 X96.367 Y76.637 E3.12102
G1 X96.524 Y77.248 E3.13235
G1 X96.603 Y77.830 E3.14289
G1 X96.613 Y78.108 E3.14788
G1 X96.594 Y78.433 E3.15374
G1 X96.540 Y78.694 E3.15852
G1 X96.455 Y78.890 E3.16235
G1 X96.344 Y79.030 E3.16557
G1 X96.201 Y79.135 E3.16875
G1 X96.026 Y79.214 E3.17220
G1 X95.817 Y79.263 E3.17605
G1 X95.574 Y79.279 E3.18044
G1 X95.269 Y79.229 E3.18598
G1 X95.090 Y79.162 E3.18941
G1 X94.681 Y78.945 E3.19772
G1 X94.237 Y78.638 E3.20742
G1 X93.523 Y78.029 E3.22427
G1 X92.774 Y77.265 E3.24348
G1 X92.285 Y76.700 E3.25690
G1 X91.814 Y76.102 E3.27058
G1 X91.153 Y75.167 E3.29114
G1 X90.579 Y74.231 E3.31086
G1 X90.263 Y73.630 E3.32305
G1 X90.015 Y73.061 E3.33419
G1 X89.839 Y72.533 E3.34418
G1 X89.752 Y72.077 E3.35252
G1 X89.747 Y71.653 E3.36014
G1 X89.795 Y71.266 E3.36715
G1 X89.936 Y70.810 E3.37571
G1 X89.989 Y70.686 E3.37814 F1800.000
G1 X92.986 Y70.802 E3.43200
G1 X92.851 Y71.166 F9000.000
G1 X93.892 Y72.667 E3.46481 F1800.000
G1 X94.490 Y73.602 E3.48474
G1 X94.870 Y74.239 E3.49806
G1 X95.226 Y74.878 E3.51120
G1 X95.538 Y75.512 E3.52389
G1 X95.917 Y76.444 E3.54195
G1 X96.097 Y77.038 E3.55310
G1 X96.208 Y77.592 E3.56325
G1 X96.244 Y78.103 E3.57246
G1 X96.227 Y78.385 E3.57752
G1 X96.186 Y78.582 E3.58113
G1 X96.136 Y78.699 E3.58342
G1 X96.086 Y78.763 E3.58488
G1 X95.908 Y78.863 E3.58854
G1 X95.762 Y78.897 E3.59123
G1 X95.577 Y78.910 E3.59457
G1 X95.376 Y78.875 E3.59822
G1 X95.235 Y78.823 E3.60094
G1 X95.065 Y78.741 E3.60431
G1 X94.672 Y78.498 E3.61262
G1 X94.239 Y78.169 E3.62238
G1 X93.536 Y77.529 E3.63946
G1 X92.806 Y76.746 E3.65868
G1 X92.336 Y76.177 E3.67193
G1 X91.886 Y75.579 E3.68537
G1 X91.261 Y74.654 E3.70542
G1 X90.740 Y73.756 E3.72407
G1 X90.468 Y73.194 E3.73527
G1 X90.267 Y72.674 E3.74528
G1 X90.147 Y72.227 E3.75360
G1 X90.119 Y72.040 E3.75699
G1 X90.115 Y71.674 E3.76356
G1 X90.157 Y71.341 E3.76960
G1 X90.235 Y71.068 E3.77470
G1 X90.599 Y71.084 E3.78125
G1 X92.791 Y71.163 E3.82062 F1800.000
G1 F2400.000 E0.82062
G1 Z0.820 F9000.000
G92 E0
G1 X90.933 Y73.321 F9000.000
G1 Z0.220 F9000.000
G1 E3.00000 F2400.000
G1 X90.703 Y72.796 E3.01030 F1800.000
G1 X90.552 Y72.343 E3.01887
G1 X90.474 Y72.005 E3.02510
G1 X90.486 Y72.005 E3.02533
G1 X90.483 Y71.696 E3.03088
G1 X90.506 Y71.449 E3.03533 F1800.000
G1 X92.656 Y71.527 E3.07397
G1 X93.784 Y73.175 E3.10983
G1 X94.366 Y74.108 E3.12958
G1 X94.730 Y74.739 E3.14266
G1 X95.057 Y75.358 E3.15524
G1 X95.339 Y75.972 E3.16737
G1 X95.662 Y76.851 E3.18419
G1 X95.801 Y77.392 E3.19422
G1 X95.867 Y77.880 E3.20306
G1 X95.861 Y78.336 E3.21125
G1 X95.826 Y78.503 E3.21432
G1 X95.580 Y78.540 E3.21879
G1 X95.379 Y78.483 E3.22254
G1 X95.068 Y78.317 E3.22888
G1 X94.682 Y78.051 E3.23729
G1 X94.028 Y77.491 E3.25275
G1 X93.558 Y77.025 E3.26465
G1 X93.084 Y76.505 E3.27728
G1 X92.626 Y75.949 E3.29022
G1 X92.185 Y75.363 E3.30338
G1 X91.768 Y74.760 E3.31654
G1 X91.390 Y74.161 E3.32926
G1 X90.960 Y73.375 E3.34536
G1 F2400.000 E0.34536
G1 Z0.820 F9000.000
G92 E0
G1 X88.016 Y74.688 F9000.000
G1 Z0.220 F9000.000
G1 E3.00000 F2400.000
G1 X88.440 Y75.584 E3.01780 F1800.000
G1 X89.008 Y76.585 E3.03846
G1 X89.327 Y77.085 E3.04913
G1 X90.036 Y78.082 E3.07109
G1 X90.422 Y78.571 E3.08228
G1 X90.823 Y79.037 E3.09332
G1 X91.238 Y79.480 E3.10422
G1 X91.668 Y79.901 E3.11503
G1 X92.076 Y80.265 E3.12484
G1 X92.572 Y80.654 E3.13617
G1 X93.042 Y80.977 E3.14641
G1 X93.529 Y81.267 E3.15659
G1 X94.040 Y81.514 E3.16678
G1 X94.568 Y81.699 E3.17682
G1 X95.104 Y81.813 E3.18667
G1 X95.629 Y81.850 E3.19611
G1 X96.222 Y81.810 E3.20679
G1 X96.790 Y81.687 E3.21723
G1 X97.089 Y81.577 E3.22295
G1 X97.380 Y81.423 E3.22886
G1 X97.649 Y81.233 E3.23478
G1 X97.895 Y81.007 E3.24078
G1 X98.115 Y80.744 E3.24693
G1 X98.301 Y80.451 E3.25316
G1 X98.455 Y80.137 E3.25944
G1 X98.581 Y79.799 E3.26593
G1 X98.680 Y79.428 E3.27282
G1 X98.747 Y79.028 E3.28009
G1 X98.786 Y78.606 E3.28771
G1 X98.799 Y78.153 E3.29585
G1 X98.782 Y77.730 E3.30345
G1 X98.733 Y77.300 E3.31122
G1 X98.652 Y76.869 E3.31911
G1 X98.410 Y76.025 E3.33487
G1 X98.096 Y75.210 E3.35056
G1 X97.718 Y74.413 E3.36639
G1 X97.512 Y74.026 E3.37426
G1 X97.066 Y73.274 E3.38996
G1 X96.375 Y72.243 E3.41226
G1 X95.882 Y71.572 E3.42720
G1 X98.319 Y71.553 E3.47095
G1 X98.319 Y71.528 E3.47141
G1 X98.650 Y71.477 E3.47742
