; generated by Slic3r 1.2.6 on 2015-02-28 at 08:48:06

; external perimeters extrusion width = 0.40mm
; perimeters extrusion width = 0.48mm
; infill extrusion width = 0.48mm
; solid infill extrusion width = 0.48mm
; top infill extrusion width = 0.48mm

M190 S65 ; set bed temperature
M104 S190 ; set temperature
G28 ; home all axes
M109 S190 ; wait for temperature to be reached
G21 ; set units to millimeters
G90 ; use absolute coordinates
M82 ; use absolute distances for extrusion
G92 E0
M106 S89.25
G1 E-3.00000 F2400.00000
G92 E0
G1 Z0.140 F9000.000
G1 Z0.440 F9000.000
G1 X20.489 Y39.512 F9000.000
G1 Z0.140 F9000.000
G1 E3.00000 F2400.00000
G1 X23.450 Y38.764 E3.03506 F2400.000
G1 X161.550 Y38.764 E4.62039
G1 X163.739 Y39.161 E4.64593
G1 X165.649 Y40.301 E4.67146 F2400.000
G1 X167.038 Y42.039 E4.69700
G1 X167.786 Y45.000 E4.73206
G1 X167.786 Y102.000 E5.38640
G1 X167.345 Y104.303 E5.41331
G1 X152.245 Y142.303 E5.88271
G1 X151.068 Y144.190 E5.90825
G1 X149.303 Y145.545 E5.93379
G1 X146.450 Y146.236 E5.96749
G1 X38.450 Y146.236 E7.20728
G1 X36.261 Y145.839 E7.23282
G1 X34.351 Y144.699 E7.25835
G1 X32.650 Y142.290 E7.29221
G1 X17.650 Y104.290 E7.76119
G1 X17.214 Y102.000 E7.78795
G1 X17.214 Y45.000 E8.44228
G1 X17.611 Y42.811 E8.46782
G1 X18.751 Y40.901 E8.49336
G1 X20.442 Y39.550 E8.51820
G1 E5.51820 F2400.00000
G92 E0
G1 Z0.440 F9000.000
G1 X23.600 Y98.150 F9000.000
G1 Z0.140 F9000.000
G1 E3.00000 F2400.00000
G1 X42.300 Y98.150 E3.21467 F2400.000
G1 X42.300 Y126.050 E3.53495
G1 X142.600 Y126.050 E4.68635 F2400.000
G1 X142.600 Y98.150 E5.00663
G1 X161.400 Y98.150 E5.22245
G1 X161.400 Y101.850 E5.26492
G1 X146.300 Y101.850 E5.43827
G1 X146.300 Y139.850 E5.87449
G1 X38.600 Y139.850 E7.11084
G1 X38.600 Y101.850 E7.54707
G1 X23.600 Y101.850 E7.71926
G1 X23.600 Y98.210 E7.76105
G1 X23.946 Y98.350 F9000.000
G1 X23.836 Y98.386 F9000.000
G1 X42.064 Y98.386 E7.97030 F2400.000
G1 X42.064 Y126.286 E8.29059
G1 X142.836 Y126.286 E9.44740 F2400.000
G1 X142.836 Y98.386 E9.76768
G1 X161.164 Y98.386 E9.97809
G1 X161.164 Y101.614 E10.01515
G1 X146.064 Y101.614 E10.18849
G1 X146.064 Y139.614 E10.62472
G1 X38.836 Y139.614 E11.85566
G1 X38.836 Y101.614 E12.29188
G1 X23.836 Y101.614 E12.46408
G1 X23.836 Y98.446 E12.50045
G1 X24.071 Y98.621 F9000.000
G1 X41.829 Y98.621 E12.70430 F2400.000
G1 X41.829 Y126.521 E13.02458
G1 X143.071 Y126.521 E14.18681 F2400.000
G1 X143.071 Y98.621 E14.50709
G1 X160.929 Y98.621 E14.71208
G1 X160.929 Y101.379 E14.74374
G1 X145.829 Y101.379 E14.91708
G1 X145.829 Y139.379 E15.35331
G1 X39.071 Y139.379 E16.57884
G1 X39.071 Y101.379 E17.01506
G1 X24.071 Y101.379 E17.18726
G1 X24.071 Y98.681 E17.21822
G1 E14.21822 F2400.00000
G92 E0
G1 Z0.440 F9000.000
G1 X41.450 Y99.000 F9000.000
G1 X39.450 Y139.000 F9000.000
G1 X141.643 Y139.143 F9000.000
G1 Z0.140 F9000.000
G1 E3.00000 F2400.00000
G1 X39.307 Y139.143 E4.17477 F2400.000
G1 X39.307 Y101.143 E4.61100
G1 X24.307 Y101.143 E4.78319
G1 X24.307 Y98.857 E4.80944
G1 X41.593 Y98.857 E5.00788
G1 X41.593 Y126.757 E5.32816
G1 X143.307 Y126.757 E6.49579 F2400.000
G1 X143.307 Y98.857 E6.81607
G1 X160.693 Y98.857 E7.01566
G1 X160.693 Y101.143 E7.04190
G1 X145.593 Y101.143 E7.21524
G1 X145.593 Y139.143 E7.65147
G1 X141.703 Y139.143 E7.69613
G1 E4.69613 F2400.00000
G92 E0
G1 Z0.440 F9000.000
G1 X45.155 Y132.665 F9000.000
G1 Z0.140 F9000.000
G1 E3.00000 F2400.00000
G1 X45.155 Y133.295 E3.00725 F2400.000
G1 X139.745 Y133.295 E4.09353
G1 X139.745 Y132.605 E4.10147
G1 X45.155 Y132.605 E5.18776
G1 X44.919 Y132.429 F9000.000
G1 X44.919 Y133.531 E5.20042 F2400.000
G1 X139.981 Y133.531 E6.29212
G1 X139.981 Y132.369 E6.30547
G1 X44.919 Y132.369 E7.39717
G1 X44.683 Y132.193 F9000.000
G1 X44.683 Y133.767 E7.41524 F2400.000
G1 X140.217 Y133.767 E8.51236
G1 X140.217 Y132.133 E8.53112
G1 X44.683 Y132.133 E9.62824
G1 X44.447 Y131.957 F9000.000
G1 X44.447 Y134.003 E9.65172 F2400.000
G1 X140.453 Y134.003 E10.75425
G1 X140.453 Y131.897 E10.77843
G1 X44.447 Y131.897 E11.88096
G1 X44.212 Y131.722 F9000.000
G1 X44.212 Y134.238 E11.90986 F2400.000
G1 X140.688 Y134.238 E13.01780
G1 X140.688 Y131.662 E13.04739
G1 X44.212 Y131.662 E14.15534
G1 X43.976 Y131.486 F9000.000
G1 X43.976 Y134.474 E14.18965 F2400.000
G1 X140.924 Y134.474 E15.30301
G1 X140.924 Y131.426 E15.33801
G1 X43.976 Y131.426 E16.45137
G1 X43.740 Y131.250 F9000.000
G1 X43.740 Y134.710 E16.49110 F2400.000
G1 X141.160 Y134.710 E17.60987
G1 X141.160 Y131.190 E17.65029
G1 X43.740 Y131.190 E18.76906
G1 X43.505 Y131.015 F9000.000
G1 X43.505 Y134.945 E18.81420 F2400.000
G1 X141.395 Y134.945 E19.93839
G1 X141.395 Y130.955 E19.98422
G1 X43.505 Y130.955 E21.10841
G1 X43.269 Y130.779 F9000.000
G1 X43.269 Y135.181 E21.15896 F2400.000
G1 X141.631 Y135.181 E22.28856
G1 X141.631 Y130.719 E22.33981
G1 X43.269 Y130.719 E23.46941
G1 X43.033 Y130.543 F9000.000
G1 X43.033 Y135.417 E23.52538 F2400.000
G1 X141.867 Y135.417 E24.66039
G1 X141.867 Y130.483 E24.71705
G1 X43.033 Y130.483 E25.85206
G1 X42.797 Y130.307 F9000.000
G1 X42.797 Y135.653 E25.91344 F2400.000
G1 X142.103 Y135.653 E27.05387
G1 X142.103 Y130.247 E27.11594
G1 X42.797 Y130.247 E28.25637
G1 X42.562 Y130.072 F9000.000
G1 X42.562 Y135.888 E28.32317 F2400.000
G1 X142.338 Y135.888 E29.46901
G1 X142.338 Y130.012 E29.53650
G1 X42.562 Y130.012 E30.68234
G1 X42.326 Y129.836 F9000.000
G1 X42.326 Y136.124 E30.75455 F2400.000
G1 X142.574 Y136.124 E31.90580
G1 X142.574 Y129.776 E31.97870
G1 X42.326 Y129.776 E33.12996
G1 X42.090 Y129.600 F9000.000
G1 X42.090 Y136.360 E33.20758 F2400.000
G1 X142.810 Y136.360 E34.36425
G1 X142.810 Y129.540 E34.44257
G1 X42.090 Y129.540 E35.59924
G1 X41.855 Y129.365 F9000.000
G1 X41.855 Y136.595 E35.68228 F2400.000
G1 X143.045 Y136.595 E36.84436
G1 X143.045 Y129.305 E36.92809
G1 X41.855 Y129.305 E38.09017
G1 X41.619 Y129.129 F9000.000
G1 X41.619 Y136.831 E38.17862 F2400.000
G1 X143.281 Y136.831 E39.34612
G1 X143.281 Y129.069 E39.43526
G1 X41.619 Y129.069 E40.60276
G1 X41.383 Y128.893 F9000.000
G1 X41.383 Y137.067 E40.69662 F2400.000
G1 X143.517 Y137.067 E41.86953
G1 X143.517 Y128.833 E41.96409
G1 X41.383 Y128.833 E43.13700
G1 X41.147 Y128.657 F9000.000
G1 X41.147 Y137.303 E43.23628 F2400.000
G1 X143.753 Y137.303 E44.41460
G1 X143.753 Y128.597 E44.51457
G1 X41.147 Y128.597 E45.69290
G1 X40.912 Y128.422 F9000.000
G1 X40.912 Y137.538 E45.79759 F2400.000
G1 X143.988 Y137.538 E46.98133
G1 X143.988 Y128.362 E47.08671
G1 X40.912 Y128.362 E48.27045
G1 X40.676 Y128.186 F9000.000
G1 X40.676 Y137.774 E48.38056 F2400.000
G1 X144.224 Y137.774 E49.56971
G1 X144.224 Y128.126 E49.68051
G1 X40.676 Y128.126 E50.86966
G1 X40.440 Y127.950 F9000.000
G1 X40.440 Y138.010 E50.98518 F2400.000
G1 X144.460 Y138.010 E52.17975
G1 X144.460 Y127.890 E52.29596
G1 X40.440 Y127.890 E53.49053
G1 E50.49053 F2400.00000
G92 E0
G1 Z0.440 F9000.000
G1 X39.450 Y100.000 F9000.000
G1 X25.205 Y99.815 F9000.000
G1 Z0.140 F9000.000
G1 E3.00000 F2400.00000
G1 X25.205 Y100.245 E3.00495 F2400.000
G1 X40.205 Y100.245 E3.17721
G1 X40.205 Y138.245 E3.61360
G1 X144.695 Y138.245 E4.81358
G1 X144.695 Y100.245 E5.24998
G1 X159.795 Y100.245 E5.42339
G1 X159.795 Y99.755 E5.42902
G1 X144.205 Y99.755 E5.60807
G1 X144.205 Y127.655 E5.92847
G1 X40.695 Y127.655 E7.11718
G1 X40.695 Y99.755 E7.43758
G1 X25.205 Y99.755 E7.61548
G1 X24.969 Y99.579 F9000.000
G1 X24.969 Y100.481 E7.62584 F2400.000
G1 X39.969 Y100.481 E7.79810
G1 X39.969 Y138.481 E8.23450
G1 X144.931 Y138.481 E9.43989
G1 X144.931 Y100.481 E9.87629
G1 X160.031 Y100.481 E10.04970
G1 X160.031 Y99.519 E10.06075
G1 X143.969 Y99.519 E10.24521
G1 X143.969 Y127.419 E10.56561
G1 X40.931 Y127.419 E11.74890
G1 X40.931 Y99.519 E12.06931
G1 X24.969 Y99.519 E12.25262
G1 X24.733 Y99.343 F9000.000
G1 X24.733 Y100.717 E12.26839 F2400.000
G1 X39.733 Y100.717 E12.44066
G1 X39.733 Y138.717 E12.87705
G1 X145.167 Y138.717 E14.08786
G1 X145.167 Y100.717 E14.52425
G1 X160.267 Y100.717 E14.69766
G1 X160.267 Y99.283 E14.71412
G1 X143.733 Y99.283 E14.90400
G1 X143.733 Y127.183 E15.22440
G1 X41.167 Y127.183 E16.40228
G1 X41.167 Y99.283 E16.72269
G1 X24.733 Y99.283 E16.91141
G1 X24.497 Y99.107 F9000.000
G1 X24.497 Y100.953 E16.93260 F2400.000
G1 X39.497 Y100.953 E17.10486
G1 X39.497 Y138.953 E17.54126
G1 X145.403 Y138.953 E18.75748
G1 X145.403 Y100.953 E19.19387
G1 X160.503 Y100.953 E19.36728
G1 X160.503 Y99.047 E19.38916
G1 X143.497 Y99.047 E19.58445
G1 X143.497 Y126.947 E19.90485
G1 X41.403 Y126.947 E21.07732
G1 X41.403 Y99.047 E21.39772
G1 X24.497 Y99.047 E21.59186
G1 E18.59186 F2400.00000
G92 E0
G1 Z0.440 F9000.000
G1 X23.450 Y98.000 F9000.000
G1 X38.450 Y87.000 F9000.000
G1 X38.600 Y86.850 F9000.000
G1 Z0.140 F9000.000
G1 E3.00000 F2400.00000
G1 X38.600 Y48.850 E3.43622 F2400.000
G1 X23.600 Y48.850 E3.60842
G1 X23.600 Y45.150 E3.65089
G1 X42.300 Y45.150 E3.86556
G1 X42.300 Y83.250 E4.30293
G1 X142.600 Y83.250 E5.45434 F2400.000
G1 X142.600 Y45.150 E5.89171
G1 X161.400 Y45.150 E6.10753
G1 X161.400 Y48.850 E6.15000
G1 X146.300 Y48.850 E6.32334
G1 X146.300 Y86.850 E6.75957
G1 X38.660 Y86.850 E7.99523
G1 X38.800 Y86.504 F9000.000
G1 X38.836 Y86.614 F9000.000
G1 X38.836 Y48.614 E8.43145 F2400.000
G1 X23.836 Y48.614 E8.60365
G1 X23.836 Y45.386 E8.64071
G1 X42.064 Y45.386 E8.84997
G1 X42.064 Y83.486 E9.28734
G1 X142.836 Y83.486 E10.44416 F2400.000
G1 X142.836 Y45.386 E10.88153
G1 X161.164 Y45.386 E11.09194
G1 X161.164 Y48.614 E11.12900
G1 X146.064 Y48.614 E11.30234
G1 X146.064 Y86.614 E11.73857
G1 X38.896 Y86.614 E12.96882
G1 X39.071 Y86.379 F9000.000
G1 X39.071 Y48.379 E13.40505 F2400.000
G1 X24.071 Y48.379 E13.57724
G1 X24.071 Y45.621 E13.60889
G1 X41.829 Y45.621 E13.81274
G1 X41.829 Y83.721 E14.25012
G1 X143.071 Y83.721 E15.41234 F2400.000
G1 X143.071 Y45.621 E15.84971
G1 X160.929 Y45.621 E16.05471
G1 X160.929 Y48.379 E16.08636
G1 X145.829 Y48.379 E16.25971
G1 X145.829 Y86.379 E16.69593
G1 X39.131 Y86.379 E17.92077
G1 E14.92077 F2400.00000
G92 E0
G1 Z0.440 F9000.000
G1 X145.450 Y86.000 F9000.000
G1 X145.450 Y86.000 F9000.000
G1 X159.137 Y48.143 F9000.000
G1 Z0.140 F9000.000
G1 E3.00000 F2400.00000
G1 X145.593 Y48.143 E3.15548 F2400.000
G1 X145.593 Y86.143 E3.59171
G1 X39.307 Y86.143 E4.81183
G1 X39.307 Y48.143 E5.24805
G1 X24.307 Y48.143 E5.42025
G1 X24.307 Y45.857 E5.44649
G1 X41.593 Y45.857 E5.64493
G1 X41.593 Y83.957 E6.08231
G1 X143.307 Y83.957 E7.24994 F2400.000
G1 X143.307 Y45.857 E7.68731
G1 X160.693 Y45.857 E7.88690
G1 X160.693 Y48.143 E7.91314
G1 X159.197 Y48.143 E7.93031
G1 E4.93031 F2400.00000
G92 E0
G1 Z0.440 F9000.000
G1 X145.450 Y48.000 F9000.000
G1 X143.450 Y85.050 F9000.000
G1 X40.450 Y84.100 F9000.000
G1 X39.450 Y47.000 F9000.000
G1 X25.205 Y46.815 F9000.000
G1 Z0.140 F9000.000
G1 E3.00000 F2400.00000
G1 X25.205 Y47.245 E3.00495 F2400.000
G1 X40.205 Y47.245 E3.17721
G1 X40.205 Y85.245 E3.61360
G1 X144.695 Y85.245 E4.81358
G1 X144.695 Y47.245 E5.24998
G1 X159.795 Y47.245 E5.42339
G1 X159.795 Y46.755 E5.42902
G1 X144.205 Y46.755 E5.60807
G1 X144.205 Y84.855 E6.04561
G1 X40.695 Y84.855 E7.23432
G1 X40.695 Y46.755 E7.67186
G1 X25.205 Y46.755 E7.84976
G1 X24.969 Y46.579 F9000.000
G1 X24.969 Y47.481 E7.86012 F2400.000
G1 X39.969 Y47.481 E8.03238
G1 X39.969 Y85.481 E8.46877
G1 X144.931 Y85.481 E9.67417
G1 X144.931 Y47.481 E10.11056
G1 X160.031 Y47.481 E10.28397
G1 X160.031 Y46.519 E10.29502
G1 X143.969 Y46.519 E10.47948
G1 X143.969 Y84.619 E10.91702
G1 X40.931 Y84.619 E12.10032
G1 X40.931 Y46.519 E12.53786
G1 X24.969 Y46.519 E12.72117
G1 X24.733 Y46.343 F9000.000
G1 X24.733 Y47.717 E12.73694 F2400.000
G1 X39.733 Y47.717 E12.90921
G1 X39.733 Y85.717 E13.34560
G1 X145.167 Y85.717 E14.55641
G1 X145.167 Y47.717 E14.99280
G1 X160.267 Y47.717 E15.16621
G1 X160.267 Y46.283 E15.18267
G1 X143.733 Y46.283 E15.37255
G1 X143.733 Y84.383 E15.81009
G1 X41.167 Y84.383 E16.98797
G1 X41.167 Y46.283 E17.42551
G1 X24.733 Y46.283 E17.61424
G1 X24.497 Y46.107 F9000.000
G1 X24.497 Y47.953 E17.63543 F2400.000
G1 X39.497 Y47.953 E17.80769
G1 X39.497 Y85.953 E18.24408
G1 X145.403 Y85.953 E19.46030
G1 X145.403 Y47.953 E19.89670
G1 X160.503 Y47.953 E20.07011
G1 X160.503 Y46.047 E20.09198
G1 X143.497 Y46.047 E20.28727
G1 X143.497 Y84.147 E20.72481
G1 X41.403 Y84.147 E21.89728
G1 X41.403 Y46.047 E22.33482
G1 X24.497 Y46.047 E22.52896
G1 E19.52896 F2400.00000
G92 E0
G1 Z0.440 F9000.000
G1 Z0.740 F9000.000
G1 X24.497 Y98.200 F9000.000
G1 Z0.440 F9000.000
G1 E3.00000 F2400.00000
G1 X42.250 Y98.200 E3.29028 F3600.000
G1 X42.250 Y126.100 E3.74650
G1 X142.650 Y126.100 E5.38820 F3600.000
G1 X142.650 Y98.200 E5.84442
G1 X161.350 Y98.200 E6.15019
G1 X161.350 Y101.800 E6.20906
G1 X146.250 Y101.800 E6.45597
G1 X146.250 Y139.800 E7.07733
G1 X38.650 Y139.800 E8.83677
G1 X38.650 Y101.800 E9.45814
G1 X23.650 Y101.800 E9.70341
G1 X23.650 Y98.200 E9.76228
G1 X24.437 Y98.200 E9.77516
G1 X24.697 Y98.546 F9000.000
G1 X24.437 Y98.577 F9000.000
G1 X41.873 Y98.577 E10.13098 F3600.000
G1 X41.873 Y126.477 E10.70037
G1 X143.027 Y126.477 E12.76474 F3600.000
G1 X143.027 Y98.577 E13.33413
G1 X160.973 Y98.577 E13.70037
G1 X160.973 Y101.423 E13.75844
G1 X145.873 Y101.423 E14.06660
G1 X145.873 Y139.423 E14.84211
G1 X39.027 Y139.423 E17.02263
G1 X39.027 Y101.423 E17.79814
G1 X24.027 Y101.423 E18.10426
G1 X24.027 Y98.577 E18.16234
G1 X24.377 Y98.577 E18.16948
G1 X24.446 Y98.996 F9000.000
G1 X41.454 Y98.996 E18.51658 F3600.000
G1 X41.454 Y126.896 E19.08597
G1 X143.446 Y126.896 E21.16744 F3600.000
G1 X143.446 Y98.996 E21.73683
G1 X160.554 Y98.996 E22.08597
G1 X160.554 Y101.004 E22.12694
G1 X145.454 Y101.004 E22.43511
G1 X145.454 Y139.004 E23.21062
G1 X39.446 Y139.004 E25.37404
G1 X39.446 Y101.004 E26.14955
G1 X24.446 Y101.004 E26.45567
G1 X24.446 Y99.056 E26.49542
G1 E23.49542 F2400.00000
G92 E0
G1 Z0.740 F9000.000
G1 X24.450 Y101.000 F9000.000
G1 X40.450 Y101.000 F9000.000
G1 X41.450 Y128.900 F9000.000
G1 X145.035 Y138.585 F9000.000
G1 Z0.440 F9000.000
G1 E3.00000 F2400.00000
G1 X39.865 Y138.585 E5.14633 F3600.000
G1 X39.865 Y100.585 E5.92184
G1 X24.865 Y100.585 E6.22796
G1 X24.865 Y99.415 E6.25184
G1 X41.035 Y99.415 E6.58184
G1 X41.035 Y127.315 E7.15122
G1 X143.865 Y127.315 E9.24980 F3600.000
G1 X143.865 Y99.415 E9.81918
G1 X160.135 Y99.415 E10.15122
G1 X160.135 Y100.585 E10.17510
G1 X145.035 Y100.585 E10.48326
G1 X145.035 Y138.525 E11.25755
G1 X144.580 Y138.347 F9000.000
G1 X144.797 Y138.130 E11.26385 F3600.000
G1 X144.797 Y137.536 E11.27600
G1 X143.986 Y138.347 E11.29948
G1 X143.392 Y138.347 E11.31162
G1 X144.797 Y136.942 E11.35228
G1 X144.797 Y136.348 E11.36443
G1 X142.798 Y138.347 E11.42227
G1 X142.205 Y138.347 E11.43442
G1 X144.797 Y135.755 E11.50943
G1 X144.797 Y135.161 E11.52158
G1 X141.611 Y138.347 E11.61378
G1 X141.017 Y138.347 E11.62593
G1 X144.797 Y134.567 E11.73530
G1 X144.797 Y133.973 E11.74745
G1 X140.423 Y138.347 E11.87401
G1 X139.829 Y138.347 E11.88616
G1 X144.797 Y133.379 E12.02989
G1 X144.797 Y132.785 E12.04204
G1 X139.235 Y138.347 E12.20296
G1 X138.642 Y138.347 E12.21510
G1 X144.797 Y132.192 E12.39320
G1 X144.797 Y131.598 E12.40535
G1 X138.048 Y138.347 E12.60062
G1 X137.454 Y138.347 E12.61277
G1 X144.797 Y131.004 E12.82523
G1 X144.797 Y130.410 E12.83738
G1 X136.860 Y138.347 E13.06701
G1 X136.266 Y138.347 E13.07916
G1 X144.797 Y129.816 E13.32597
G1 X144.797 Y129.223 E13.33812
G1 X135.673 Y138.347 E13.60212
G1 X135.079 Y138.347 E13.61426
G1 X144.797 Y128.629 E13.89544
G1 X144.797 Y128.035 E13.90759
G1 X134.485 Y138.347 E14.20594
G1 X133.891 Y138.347 E14.21809
G1 X144.797 Y127.441 E14.53362
G1 X144.797 Y126.847 E14.54577
G1 X133.297 Y138.347 E14.87848
G1 X132.703 Y138.347 E14.89063
G1 X143.498 Y127.553 E15.20294
G1 X142.905 Y127.553 E15.21509
G1 X132.110 Y138.347 E15.52740
G1 X131.516 Y138.347 E15.53955
G1 X142.311 Y127.553 E15.85186
G1 X141.717 Y127.553 E15.86401
G1 X130.922 Y138.347 E16.17632
G1 X130.328 Y138.347 E16.18846
G1 X141.123 Y127.553 E16.50078
G1 X140.529 Y127.553 E16.51292
G1 X129.734 Y138.347 E16.82523
G1 X129.141 Y138.347 E16.83738
G1 X139.936 Y127.553 E17.14969
G1 X139.342 Y127.553 E17.16184
G1 X128.547 Y138.347 E17.47415
G1 X127.953 Y138.347 E17.48630
G1 X138.748 Y127.553 E17.79861
