; generated by Slic3r 1.2.2 on 2015-01-02 at 11:00:33

; external perimeters extrusion width = 0.40mm
; perimeters extrusion width = 0.48mm
; infill extrusion width = 0.48mm
; solid infill extrusion width = 0.48mm
; top infill extrusion width = 0.48mm

; external perimeters extrusion width = 0.50mm
; perimeters extrusion width = 0.72mm
; infill extrusion width = 0.72mm
; solid infill extrusion width = 0.72mm
; top infill extrusion width = 0.72mm

M190 S30 ; set bed temperature
M104 S220 T0 ; set temperature
M104 S260 T1 ; set temperature
G28 ; home all axes
M109 S220 T0 ; wait for temperature to be reached
M109 S260 T1 ; wait for temperature to be reached
G21 ; set units to millimeters
G90 ; use absolute coordinates
M82 ; use absolute distances for extrusion
G92 E0
T0
G92 E0
M106 S89.25
G1 E-6.00000 F2400.00000
G92 E0
G1 Z0.440 F5400.000
G1 X80.283 Y79.952 F5400.000
G1 Z0.140 F5400.000
G1 E6.00000 F2400.00000
G1 X81.298 Y79.038 E6.03324 F1350.000
G1 X83.158 Y77.686 E6.08918
G1 X84.342 Y77.003 E6.12242
G1 X86.443 Y76.068 E6.17837
G1 X87.742 Y75.646 E6.21160
G1 X89.992 Y75.167 E6.26755
G1 X91.350 Y75.025 E6.30078
G1 X93.650 Y75.025 E6.35673
G1 X95.009 Y75.167 E6.38996
G1 X97.258 Y75.646 E6.44591 F1350.000
G1 X98.557 Y76.068 E6.47915
G1 X100.658 Y77.003 E6.53509
G1 X101.842 Y77.686 E6.56833
G1 X103.702 Y79.038 E6.62428
G1 X104.717 Y79.952 E6.65751
G1 X106.256 Y81.661 E6.71346
G1 X107.059 Y82.767 E6.74669
G1 X108.209 Y84.758 E6.80264
G1 X108.765 Y86.006 E6.83588
G1 X109.475 Y88.193 E6.89182
G1 X109.759 Y89.530 E6.92506
G1 X110.000 Y91.817 E6.98100
G1 X110.000 Y93.183 E7.01424
G1 X109.759 Y95.470 E7.07019
G1 X109.475 Y96.807 E7.10342
G1 X108.765 Y98.994 E7.15936
G1 X108.209 Y100.242 E7.19260
G1 X107.059 Y102.233 E7.24855
G1 X106.256 Y103.339 E7.28179
G1 X104.717 Y105.048 E7.33773
G1 X103.702 Y105.962 E7.37097
G1 X101.842 Y107.314 E7.42691
G1 X100.658 Y107.997 E7.46015
G1 X98.557 Y108.932 E7.51609
G1 X97.258 Y109.354 E7.54933
G1 X95.009 Y109.833 E7.60528
G1 X93.650 Y109.975 E7.63851
G1 X91.350 Y109.975 E7.69446
G1 X89.992 Y109.833 E7.72769
G1 X87.742 Y109.354 E7.78364
G1 X86.443 Y108.932 E7.81687
G1 X84.342 Y107.997 E7.87282
G1 X83.159 Y107.314 E7.90606
G1 X81.298 Y105.962 E7.96200
G1 X80.283 Y105.048 E7.99524
G1 X78.744 Y103.339 E8.05119
G1 X77.941 Y102.233 E8.08442
G1 X76.791 Y100.242 E8.14037
G1 X76.235 Y98.994 E8.17361
G1 X75.525 Y96.807 E8.22955
G1 X75.241 Y95.470 E8.26278
G1 X75.000 Y93.183 E8.31873
G1 X75.000 Y91.817 E8.35197
G1 X75.241 Y89.530 E8.40792
G1 X75.525 Y88.193 E8.44115
G1 X76.235 Y86.006 E8.49709
G1 X76.791 Y84.758 E8.53033
G1 X77.941 Y82.767 E8.58628
G1 X78.744 Y81.661 E8.61952
G1 X80.243 Y79.997 E8.67400
G1 E2.67400 F2400.00000
G92 E0
G1 Z0.740 F5400.000
G1 X88.449 Y88.911 F5400.000
G1 Z0.140 F5400.000
G1 E6.00000 F2400.00000
G1 X90.581 Y87.439 E6.06302 F1350.000
G1 X93.152 Y87.127 E6.12604
G1 X95.220 Y87.911 E6.17984
G1 X95.575 Y88.046 E6.18906 F1350.000
G1 X97.292 Y89.985 E6.25208
G1 X98.256 Y93.893 E6.35000
G1 X97.569 Y93.893 E6.36671
G1 X97.292 Y95.015 E6.39482
G1 X95.575 Y96.954 E6.45784
G1 X93.152 Y97.873 E6.52086
G1 X90.581 Y97.561 E6.58388
G1 X88.449 Y96.089 E6.64690
G1 X87.245 Y93.795 E6.70992
G1 X87.245 Y91.205 E6.77294
G1 X88.421 Y88.964 E6.83450
G1 X88.862 Y89.277 F5400.000
G1 X90.776 Y87.955 E6.89109 F1350.000
G1 X92.841 Y87.705 E6.94168
G1 X93.086 Y87.675 E6.94769 F1350.000
G1 X95.261 Y88.500 E7.00429
G1 X96.804 Y90.241 E7.06088
G1 X97.572 Y93.358 E7.13897
G1 X97.149 Y93.358 E7.14925
G1 X96.804 Y94.759 E7.18436
G1 X95.261 Y96.500 E7.24095
G1 X93.086 Y97.325 E7.29755
G1 X90.776 Y97.045 E7.35415
G1 X88.862 Y95.723 E7.41074
G1 X87.781 Y93.663 E7.46734
G1 X87.781 Y91.337 E7.52393
G1 X88.834 Y89.330 E7.57907
G1 X89.275 Y89.643 F5400.000
G1 X90.972 Y88.471 E7.62924 F1350.000
G1 X93.019 Y88.222 E7.67942
G1 X94.840 Y88.913 E7.72679
G1 X94.948 Y88.954 E7.72959 F1350.000
G1 X96.315 Y90.498 E7.77976
G1 X96.888 Y92.822 E7.83800
G1 X96.730 Y92.822 E7.84186
G1 X96.315 Y94.502 E7.88397
G1 X94.948 Y96.046 E7.93414
G1 X93.019 Y96.778 E7.98431
G1 X90.972 Y96.529 E8.03449
G1 X89.275 Y95.357 E8.08466
G1 X88.316 Y93.531 E8.13483
G1 X88.316 Y91.469 E8.18500
G1 X89.247 Y89.696 E8.23372
G1 X89.147 Y89.264 F5400.000
G1 E2.23372 F2400.00000
G92 E0
G1 Z0.740 F5400.000
G1 X93.617 Y82.955 F5400.000
G1 Z0.140 F5400.000
G1 E6.00000 F2400.00000
G1 X95.473 Y83.350 E6.04617 F1350.000
G1 X97.311 Y84.168 E6.09510 F1350.000
G1 X98.938 Y85.350 E6.14403
G1 X100.284 Y86.845 E6.19296
G1 X101.289 Y88.587 E6.24189
G1 X101.911 Y90.500 E6.29082
G1 X102.121 Y92.500 E6.33976
G1 X101.911 Y94.500 E6.38869
G1 X101.289 Y96.413 E6.43762
G1 X100.284 Y98.155 E6.48655
G1 X98.938 Y99.650 E6.53548
G1 X97.311 Y100.832 E6.58441
G1 X95.473 Y101.650 E6.63334
G1 X93.506 Y102.068 E6.68227
G1 X91.494 Y102.068 E6.73120
G1 X89.527 Y101.650 E6.78014
G1 X87.689 Y100.832 E6.82907
G1 X86.062 Y99.650 E6.87800
G1 X84.716 Y98.155 E6.92693
G1 X83.711 Y96.413 E6.97586
G1 X83.089 Y94.500 E7.02479
G1 X82.879 Y92.500 E7.07372
G1 X83.089 Y90.500 E7.12265
G1 X83.711 Y88.587 E7.17158
G1 X84.716 Y86.845 E7.22052
G1 X86.062 Y85.350 E7.26945
G1 X87.689 Y84.168 E7.31838
G1 X89.527 Y83.350 E7.36731
G1 X91.494 Y82.932 E7.41624
G1 X93.558 Y82.943 E7.46645
G1 X93.669 Y82.419 F5400.000
G1 X95.640 Y82.837 E7.51544 F1350.000
G1 X97.580 Y83.701 E7.56711
G1 X99.298 Y84.950 E7.61879
G1 X100.719 Y86.528 E7.67046
G1 X101.781 Y88.368 E7.72213
G1 X102.438 Y90.388 E7.77380
G1 X102.660 Y92.500 E7.82547
G1 X102.438 Y94.612 E7.87714
G1 X101.781 Y96.632 E7.92881
G1 X100.719 Y98.472 E7.98048
G1 X99.298 Y100.050 E8.03215
G1 X97.580 Y101.299 E8.08382
G1 X95.640 Y102.162 E8.13549
G1 X93.562 Y102.604 E8.18716
G1 X91.438 Y102.604 E8.23883
G1 X89.360 Y102.162 E8.29050
G1 X87.420 Y101.299 E8.34217
G1 X85.702 Y100.050 E8.39384
G1 X84.281 Y98.472 E8.44551
G1 X83.219 Y96.632 E8.49718
G1 X82.562 Y94.612 E8.54885
G1 X82.340 Y92.500 E8.60052
G1 X82.562 Y90.388 E8.65219
G1 X83.219 Y88.368 E8.70386
G1 X84.281 Y86.528 E8.75553
G1 X85.702 Y84.950 E8.80720
G1 X87.420 Y83.701 E8.85887
G1 X89.360 Y82.837 E8.91054
G1 X91.438 Y82.396 E8.96221
G1 X93.611 Y82.406 E9.01507 F1350.000
G1 X93.722 Y81.882 F5400.000
G1 X95.789 Y82.322 E9.06646 F1350.000
G1 X97.849 Y83.235 E9.12129 F1350.000
G1 X99.659 Y84.550 E9.17570
G1 X101.155 Y86.212 E9.23011
G1 X102.273 Y88.149 E9.28452
G1 X102.965 Y90.276 E9.33893
G1 X103.198 Y92.500 E9.39334
G1 X102.965 Y94.724 E9.44775
G1 X102.273 Y96.851 E9.50216
G1 X101.155 Y98.788 E9.55657
G1 X99.659 Y100.450 E9.61098
G1 X97.849 Y101.765 E9.66539
G1 X95.806 Y102.675 E9.71980
G1 X93.618 Y103.140 E9.77420
G1 X91.382 Y103.140 E9.82861
G1 X89.194 Y102.675 E9.88302
G1 X87.151 Y101.765 E9.93743
G1 X85.341 Y100.450 E9.99184
G1 X83.845 Y98.788 E10.04625
G1 X82.727 Y96.851 E10.10066
G1 X82.035 Y94.724 E10.15507
G1 X81.802 Y92.500 E10.20948
G1 X82.035 Y90.276 E10.26389
G1 X82.727 Y88.149 E10.31830
G1 X83.845 Y86.212 E10.37271
G1 X85.341 Y84.550 E10.42712
G1 X87.151 Y83.235 E10.48152
G1 X89.194 Y82.325 E10.53593
G1 X91.382 Y81.860 E10.59034
G1 X93.663 Y81.870 E10.64585
G1 X93.885 Y82.248 F5400.000
G1 E4.64585 F2400.00000
G92 E0
G1 Z0.740 F5400.000
G1 X96.463 Y84.194 F5400.000
G1 Z0.140 F5400.000
G1 E6.00000 F2400.00000
G1 X100.875 Y88.605 E6.15366 F1350.000
G1 X101.293 Y89.791 F5400.000
G1 X95.163 Y83.660 E6.36717 F1350.000
G1 X94.189 Y83.453 E6.39169
G1 X101.576 Y90.841 E6.64898
G1 X101.667 Y91.698 E6.67020
G1 X93.269 Y83.300 E6.96269
G1 X92.502 Y83.300 E6.98157
G1 X101.746 Y92.544 E7.30354
G1 X101.673 Y93.238 E7.32073
G1 X91.735 Y83.300 E7.66687
G1 X91.067 Y83.399 E7.68349
G1 X95.165 Y87.497 E7.82622
G1 X93.930 Y87.028 F5400.000
G1 X90.435 Y83.533 E7.94794 F1350.000
G1 X89.802 Y83.668 E7.96386
G1 X92.919 Y86.784 E8.07242
G1 X92.235 Y86.868 E8.08938
G1 X89.246 Y83.878 E8.19350
G1 X88.715 Y84.114 E8.20781
G1 X91.552 Y86.951 E8.30660
G1 X90.868 Y87.034 E8.32356
G1 X88.185 Y84.350 E8.41701
G1 X87.690 Y84.623 E8.43092
G1 X90.272 Y87.205 E8.52086
G1 X89.819 Y87.518 E8.53443
G1 X87.246 Y84.945 E8.62404
G1 X86.802 Y85.268 E8.63756
G1 X89.365 Y87.831 E8.72684
G1 X88.911 Y88.144 E8.74041
G1 X86.365 Y85.598 E8.82909
G1 X85.986 Y85.986 E8.84244
G1 X88.457 Y88.458 E8.92854
G1 X88.071 Y88.838 E8.94189
G1 X85.622 Y86.389 E9.02719
G1 X85.259 Y86.793 E9.04056
G1 X87.807 Y89.341 E9.12932
G1 X87.543 Y89.844 E9.14331
G1 X84.923 Y87.223 E9.23457
G1 X84.642 Y87.710 E9.24840
G1 X87.279 Y90.347 E9.34025
G1 X87.015 Y90.850 E9.35423
G1 X84.362 Y88.196 E9.44666
G1 X84.081 Y88.682 E9.46049
G1 X86.877 Y91.478 E9.55787
G1 X86.877 Y92.245 E9.57675
G1 X83.882 Y89.250 E9.68105
G1 X83.694 Y89.829 E9.69603
G1 X86.877 Y93.011 E9.80688
G1 X86.877 Y93.778 E9.82576
G1 X83.506 Y90.408 E9.94316
G1 X83.400 Y91.068 E9.95963
G1 X87.605 Y95.273 E10.10609
G1 E4.10609 F2400.00000
G92 E0
G1 Z0.740 F5400.000
G1 X89.802 Y97.471 F5400.000
G1 Z0.140 F5400.000
G1 E6.00000 F2400.00000
G1 X93.933 Y101.601 E6.14386 F1350.000
G1 X94.565 Y101.467 E6.15979
G1 X91.092 Y97.994 E6.28075
G1 X91.965 Y98.100 E6.30241
G1 X95.198 Y101.332 E6.41500
G1 X95.754 Y101.122 E6.42965
G1 X92.838 Y98.206 E6.53123
G1 X93.524 Y98.126 E6.54826
G1 X96.285 Y100.886 E6.64439
G1 X96.815 Y100.650 E6.65870
G1 X94.080 Y97.915 E6.75395
G1 X94.636 Y97.704 E6.76859
G1 X97.310 Y100.377 E6.86171
G1 X97.754 Y100.055 E6.87523
G1 X95.192 Y97.493 E6.96445
G1 X95.748 Y97.282 E6.97910
G1 X98.198 Y99.732 E7.06442
G1 X98.635 Y99.402 E7.07791
G1 X96.123 Y96.890 E7.16538
G1 X96.484 Y96.484 E7.17876
G1 X99.014 Y99.014 E7.26691
G1 X99.378 Y98.611 E7.28028
G1 X96.844 Y96.077 E7.36854
G1 X97.204 Y95.670 E7.38191
G1 X99.741 Y98.207 E7.47028
G1 X100.077 Y97.777 E7.48374
G1 X97.564 Y95.264 E7.57126
G1 X97.753 Y94.686 E7.58623
G1 X100.358 Y97.290 E7.67696
G1 X100.638 Y96.804 E7.69078
G1 X98.096 Y94.262 E7.77934
G1 X98.681 Y94.080 E7.79443
G1 X100.919 Y96.318 E7.87239
G1 X101.118 Y95.750 E7.88721
G1 X98.430 Y93.062 E7.98082
G1 X98.179 Y92.045 E8.00663
G1 X101.306 Y95.171 E8.11552
G1 X101.494 Y94.592 E8.13051
G1 X97.929 Y91.027 E8.25469
G1 X97.678 Y90.009 E8.28050
G1 X101.600 Y93.932 E8.41712
G1 E2.41712 F2400.00000
G92 E0
G1 Z0.740 F5400.000
G1 X98.947 Y85.910 F5400.000
G1 Z0.140 F5400.000
G1 E6.00000 F2400.00000
G1 X98.586 Y85.550 E6.01256 F1350.000
G1 E0.01256 F2400.00000
G92 E0
G1 Z0.740 F5400.000
G1 X93.265 Y101.700 F5400.000
G1 Z0.140 F5400.000
G1 E6.00000 F2400.00000
G1 X83.327 Y91.762 E6.34614 F1350.000
G1 X83.254 Y92.456 E6.36332
G1 X92.498 Y101.700 E6.68529
G1 X91.731 Y101.700 E6.70418
G1 X83.333 Y93.302 E6.99666
G1 X83.424 Y94.159 E7.01788
G1 X90.811 Y101.547 E7.27517
G1 X89.837 Y101.340 E7.29969
G1 X83.707 Y95.209 E7.51320
G1 X84.125 Y96.395 F5400.000
G1 X88.537 Y100.806 E7.66686 F1350.000
G1 E1.66686 F2400.00000
G92 E0
G1 Z0.740 F5400.000
G1 X86.414 Y99.450 F5400.000
G1 Z0.140 F5400.000
G1 E6.00000 F2400.00000
G1 X86.053 Y99.090 E6.01255 F1350.000
M106 S191.25
G1 E0.01255 F2400.00000
G92 E0
G1 Z0.740 F5400.000
G1 X88.738 Y95.833 F5400.000
G1 Z0.440 F5400.000
G1 E6.00000 F2400.00000
G1 X87.620 Y93.703 E6.04577 F1615.224
G1 X87.620 Y91.297 E6.09153
G1 X88.738 Y89.167 E6.13730
G1 X90.718 Y87.801 E6.18306
G1 X93.106 Y87.511 E6.22883
G1 X95.010 Y88.233 E6.26758
G1 X95.355 Y88.364 E6.27460 F1615.224
G1 X96.950 Y90.164 E6.32036
G1 X97.526 Y92.500 E6.36613
G1 X96.950 Y94.836 E6.41189
G1 X95.355 Y96.636 E6.45766
G1 X93.106 Y97.489 E6.50343
G1 X90.718 Y97.199 E6.54919
G1 X88.787 Y95.867 E6.59382
G1 X89.061 Y95.547 F5400.000
G1 X88.039 Y93.600 E6.63565 F1615.224
G1 X88.039 Y91.400 E6.67749
G1 X89.061 Y89.453 E6.71933
G1 X90.871 Y88.204 E6.76117
G1 X92.790 Y87.971 E6.79796
G1 X93.054 Y87.939 E6.80300 F1615.224
G1 X95.110 Y88.719 E6.84484
G1 X96.568 Y90.365 E6.88668
G1 X97.095 Y92.500 E6.92852
G1 X96.568 Y94.635 E6.97035
G1 X95.110 Y96.281 E7.01219
G1 X93.054 Y97.061 E7.05403
G1 X90.871 Y96.796 E7.09587
G1 X89.110 Y95.581 E7.13656
G1 X89.352 Y95.289 F5400.000
G1 X88.416 Y93.507 E7.16725 F1615.224
G1 X88.416 Y91.493 E7.19794
G1 X89.352 Y89.711 E7.22862
G1 X91.009 Y88.567 E7.25931
G1 X93.007 Y88.325 E7.29000
G1 X94.728 Y88.977 E7.31806
G1 X94.889 Y89.039 E7.32068 F1615.224
G1 X96.224 Y90.545 E7.35137
G1 X96.706 Y92.500 E7.38206
G1 X96.224 Y94.455 E7.41274
G1 X94.889 Y95.961 E7.44343
G1 X93.007 Y96.675 E7.47412
G1 X91.009 Y96.433 E7.50480
G1 X89.401 Y95.323 E7.53458
G1 X88.992 Y95.463 F5400.000
G1 E1.53458 F2400.00000
G92 E0
G1 Z1.040 F5400.000
G1 X101.807 Y96.033 F5400.000
G1 Z0.440 F5400.000
G1 E6.00000 F2400.00000
G1 X101.634 Y96.567 E6.01067 F1615.224
G1 X100.589 Y98.377 E6.05044
G1 X99.190 Y99.930 E6.09021
G1 X97.499 Y101.159 E6.12997
G1 X95.590 Y102.009 E6.16974
G1 X93.545 Y102.444 E6.20951
G1 X91.455 Y102.444 E6.24927
G1 X89.410 Y102.009 E6.28904
G1 X87.501 Y101.159 E6.32881
G1 X85.810 Y99.930 E6.36857
G1 X84.411 Y98.377 E6.40834
G1 X83.366 Y96.567 E6.44811
G1 X82.720 Y94.579 E6.48787
G1 X82.502 Y92.500 E6.52764
G1 X82.720 Y90.421 E6.56741
G1 X83.353 Y88.474 E6.60635
G1 X84.411 Y86.623 E6.64692
G1 X85.810 Y85.070 E6.68669
G1 X87.501 Y83.841 E6.72645
G1 X89.410 Y82.991 E6.76622
G1 X91.455 Y82.556 E6.80599
G1 X93.545 Y82.556 E6.84575
G1 X95.547 Y82.982 E6.88470
G1 X97.499 Y83.841 E6.92527 F1615.224
G1 X99.190 Y85.070 E6.96504
G1 X100.589 Y86.623 E7.00480
G1 X101.634 Y88.433 E7.04457
G1 X102.280 Y90.421 E7.08434
G1 X102.498 Y92.500 E7.12410
G1 X102.280 Y94.579 E7.16387
G1 X101.826 Y95.976 E7.19182
G1 X102.224 Y96.106 F5400.000
G1 X102.019 Y96.738 E7.20447 F1615.224
G1 X100.930 Y98.624 E7.24591
G1 X99.472 Y100.243 E7.28736
G1 X97.710 Y101.524 E7.32880
G1 X95.720 Y102.410 E7.37024
G1 X93.589 Y102.862 E7.41168
G1 X91.411 Y102.862 E7.45312
G1 X89.280 Y102.410 E7.49457
G1 X87.290 Y101.524 E7.53601
G1 X85.528 Y100.243 E7.57745
G1 X84.070 Y98.624 E7.61889
G1 X82.981 Y96.738 E7.66033
G1 X82.954 Y96.655 E7.66199
G1 X82.308 Y94.666 E7.70177
G1 X82.080 Y92.500 E7.74322
G1 X82.308 Y90.334 E7.78466
G1 X82.981 Y88.262 E7.82610
G1 X84.070 Y86.376 E7.86754
G1 X85.528 Y84.757 E7.90898
G1 X87.290 Y83.476 E7.95042
G1 X89.280 Y82.590 E7.99187
G1 X91.411 Y82.138 E8.03331
G1 X93.589 Y82.138 E8.07475 F1615.224
G1 X95.635 Y82.572 E8.11453
G1 X95.720 Y82.590 E8.11619
G1 X97.710 Y83.476 E8.15763
G1 X99.472 Y84.757 E8.19907
G1 X100.930 Y86.376 E8.24052
G1 X102.019 Y88.262 E8.28196
G1 X102.692 Y90.334 E8.32340
G1 X102.920 Y92.500 E8.36484
G1 X102.692 Y94.666 E8.40628
G1 X102.243 Y96.048 E8.43393
G1 X102.602 Y96.165 F5400.000
G1 X102.365 Y96.892 E8.44559 F1615.224
G1 X101.236 Y98.847 E8.48000
G1 X99.726 Y100.525 E8.51441
G1 X97.899 Y101.852 E8.54883
G1 X95.837 Y102.770 E8.58324
G1 X93.629 Y103.240 E8.61765
G1 X91.371 Y103.240 E8.65207
G1 X89.163 Y102.770 E8.68648
G1 X87.101 Y101.852 E8.72089
G1 X85.274 Y100.525 E8.75531
G1 X83.764 Y98.847 E8.78972
G1 X82.635 Y96.892 E8.82413
G1 X81.937 Y94.745 E8.85855
G1 X81.701 Y92.500 E8.89296
G1 X81.937 Y90.255 E8.92737
G1 X82.596 Y88.228 E8.95985
G1 X82.635 Y88.108 E8.96179
G1 X83.764 Y86.153 E8.99620
G1 X85.274 Y84.475 E9.03061
G1 X87.101 Y83.148 E9.06503
G1 X89.163 Y82.230 E9.09944
G1 X91.371 Y81.760 E9.13385
G1 X93.629 Y81.760 E9.16827
G1 X95.713 Y82.203 E9.20075
G1 X95.837 Y82.230 E9.20268 F1615.224
G1 X97.899 Y83.148 E9.23709
G1 X99.726 Y84.475 E9.27151
G1 X101.236 Y86.153 E9.30592
G1 X102.365 Y88.108 E9.34033
G1 X103.063 Y90.255 E9.37475
G1 X103.299 Y92.500 E9.40916
G1 X103.063 Y94.745 E9.44357
G1 X102.620 Y96.108 E9.46541
G1 X102.379 Y96.497 F5400.000
G1 X101.530 Y95.969 F5400.000
G1 X95.982 Y101.517 E9.61538 F1615.224
G1 X95.075 Y101.828 F5400.000
G1 X101.816 Y95.087 E9.79761 F1615.224
G1 X102.026 Y94.283 E9.81350
G1 X94.320 Y101.989 E10.02182
G1 X93.564 Y102.150 E10.03659
G1 X102.096 Y93.618 E10.26723
G1 X102.166 Y92.953 E10.28002
G1 X92.958 Y102.160 E10.52891
G1 X92.363 Y102.160 E10.54029
G1 X102.195 Y92.328 E10.80608
G1 X102.138 Y91.789 E10.81643
G1 X91.768 Y102.160 E11.09677
G1 X91.227 Y102.105 E11.10715
G1 X102.082 Y91.251 E11.40058
G1 X102.025 Y90.712 E11.41093
G1 X90.737 Y102.001 E11.71609
G1 X90.246 Y101.897 E11.72569
G1 X95.109 Y97.033 E11.85716
G1 X94.151 Y97.396 F5400.000
G1 X89.755 Y101.792 E11.97599 F1615.224
G1 X89.302 Y101.650 E11.98507
