; generated by Slic3r 1.2.2 on 2015-01-10 at 11:16:01

; external perimeters extrusion width = 0.40mm
; perimeters extrusion width = 0.50mm
; infill extrusion width = 0.50mm
; solid infill extrusion width = 0.50mm
; top infill extrusion width = 0.50mm

M190 S110 ; set bed temperature
M104 S245 ; set temperature
G28 ; home all axes
M109 S245 ; wait for temperature to be reached
G21 ; set units to millimeters
G90 ; use absolute coordinates
M82 ; use absolute distances for extrusion
G92 E0
M106 S89.25
G1 E-3.00000 F2400.00000
G92 E0
G1 Z0.140 F7800.000
G1 Z0.440 F7800.000
G1 X54.734 Y59.491 F7800.000
G1 Z0.140 F7800.000
G1 E3.00000 F2400.00000
G1 X57.352 Y57.199 E3.06536 F1800.000
G1 X59.785 Y55.313 E3.12320
G1 X60.109 Y55.077 E3.13073
G1 X62.993 Y53.132 E3.19608
G1 X65.649 Y51.562 E3.25405
G1 X68.738 Y49.974 E3.31931
G1 X69.101 Y49.803 E3.32684
G1 X72.299 Y48.433 E3.39220
G1 X75.195 Y47.390 E3.45004
G1 X78.533 Y46.407 E3.51541
G1 X81.895 Y45.643 E3.58020
G1 X82.319 Y45.561 E3.58831
G1 X85.360 Y45.079 E3.64615
G1 X88.822 Y44.739 E3.71151
G1 X92.269 Y44.618 E3.77631
G1 X92.701 Y44.618 E3.78441
G1 X96.178 Y44.739 E3.84978 F1800.000
G1 X99.242 Y45.029 E3.90761
G1 X102.681 Y45.561 E3.97298
G1 X103.075 Y45.636 E3.98052
G1 X106.467 Y46.407 E4.04588
G1 X109.423 Y47.266 E4.10372
G1 X112.701 Y48.433 E4.16909
G1 X115.871 Y49.791 E4.23387
G1 X116.262 Y49.974 E4.24199
G1 X119.005 Y51.371 E4.29983
G1 X122.006 Y53.131 E4.36519
G1 X124.891 Y55.077 E4.43057
G1 X127.624 Y57.181 E4.49535
G1 X127.957 Y57.455 E4.50346
G1 X130.558 Y59.765 E4.56882
G1 X132.735 Y61.942 E4.62666
G1 X135.045 Y64.543 E4.69203
G1 X137.169 Y67.261 E4.75682
G1 X137.423 Y67.609 E4.76493
G1 X139.153 Y70.155 E4.82276
G1 X140.935 Y73.144 E4.88813
G1 X142.526 Y76.238 E4.95349
G1 X142.697 Y76.601 E4.96103
G1 X143.919 Y79.426 E5.01887
G1 X145.100 Y82.667 E5.08367
G1 X145.234 Y83.077 E5.09177
G1 X146.093 Y86.034 E5.14962
G1 X146.857 Y89.396 E5.21441
G1 X146.939 Y89.819 E5.22251
G1 X147.471 Y93.258 E5.28787
G1 X147.761 Y96.322 E5.34571
G1 X147.883 Y99.801 E5.41111
G1 X147.787 Y103.244 E5.47582
G1 X147.761 Y103.678 E5.48398
G1 X147.471 Y106.742 E5.54181
G1 X146.939 Y110.181 E5.60718
G1 X146.857 Y110.604 E5.61528
G1 X146.093 Y113.966 E5.68006
G1 X145.234 Y116.923 E5.73791
G1 X145.099 Y117.334 E5.74603
G1 X143.920 Y120.574 E5.81081
G1 X142.697 Y123.399 E5.86865
G1 X142.526 Y123.762 E5.87619
G1 X140.935 Y126.856 E5.94155
G1 X139.153 Y129.845 E6.00692
G1 X137.423 Y132.391 E6.06476
G1 X137.169 Y132.740 E6.07287
G1 X135.045 Y135.457 E6.13766
G1 X132.735 Y138.058 E6.20302
G1 X130.558 Y140.235 E6.26086
G1 X127.957 Y142.545 E6.32623
G1 X127.648 Y142.801 E6.33376
G1 X124.891 Y144.923 E6.39911
G1 X122.345 Y146.653 E6.45696
G1 X121.980 Y146.884 E6.46507
G1 X119.005 Y148.628 E6.52986
G1 X116.262 Y150.026 E6.58770
G1 X115.899 Y150.197 E6.59524
G1 X112.701 Y151.567 E6.66060
G1 X109.423 Y152.734 E6.72597
G1 X106.079 Y153.692 E6.79134
G1 X103.075 Y154.364 E6.84917
G1 X102.681 Y154.439 E6.85671
G1 X99.242 Y154.971 E6.92207
G1 X95.778 Y155.286 E6.98744
G1 X92.701 Y155.382 E7.04527
G1 X92.299 Y155.382 E7.05281
G1 X88.822 Y155.261 E7.11818
G1 X85.758 Y154.971 E7.17601
G1 X82.319 Y154.439 E7.24138
G1 X81.896 Y154.357 E7.24948
G1 X78.534 Y153.593 E7.31426
G1 X75.196 Y152.610 E7.37963
G1 X72.299 Y151.567 E7.43749
G1 X69.101 Y150.197 E7.50285
G1 X68.738 Y150.026 E7.51037
G1 X65.654 Y148.441 E7.57553
G1 X62.655 Y146.653 E7.64112
G1 X59.785 Y144.688 E7.70648
G1 X57.352 Y142.801 E7.76432
G1 X54.734 Y140.509 E7.82968
G1 X54.442 Y140.235 E7.83722
G1 X52.265 Y138.058 E7.89506
G1 X51.970 Y137.743 E7.90317
G1 X49.700 Y135.148 E7.96795
G1 X47.813 Y132.715 E8.02579
G1 X45.847 Y129.845 E8.09116
G1 X45.631 Y129.506 E8.09870
G1 X43.871 Y126.505 E8.16406
G1 X42.474 Y123.762 E8.22190
G1 X42.291 Y123.371 E8.23001
G1 X40.933 Y120.201 E8.29480
G1 X39.766 Y116.923 E8.36017
G1 X38.907 Y113.967 E8.41800
G1 X38.136 Y110.575 E8.48337
G1 X38.056 Y110.150 E8.49148
G1 X37.529 Y106.742 E8.55627
G1 X37.214 Y103.278 E8.62163
G1 X37.118 Y100.201 E8.67947
G1 X37.214 Y96.722 E8.74484
G1 X37.526 Y93.288 E8.80963
G1 X37.579 Y92.860 E8.81774
G1 X38.136 Y89.425 E8.88311
G1 X38.907 Y86.033 E8.94848
G1 X39.766 Y83.077 E9.00631
G1 X39.890 Y82.695 E9.01385
G1 X41.081 Y79.426 E9.07921
G1 X42.303 Y76.601 E9.13705
G1 X43.871 Y73.495 E9.20241
G1 X45.632 Y70.494 E9.26778
G1 X45.847 Y70.155 E9.27532
G1 X47.813 Y67.285 E9.34069
G1 X49.955 Y64.543 E9.40605
G1 X51.991 Y62.234 E9.46388
G1 X54.691 Y59.532 E9.53566
G1 E6.53566 F2400.00000
G92 E0
G1 Z0.440 F7800.000
G1 X88.097 Y95.311 F7800.000
G1 Z0.140 F7800.000
G1 E3.00000 F2400.00000
G1 X88.400 Y95.044 E3.00759 F1800.000
G1 X88.719 Y94.796 E3.01518
G1 X89.053 Y94.569 E3.02278
G1 X89.712 Y94.205 E3.03692
G1 X90.132 Y94.019 E3.04555
G1 X90.512 Y93.882 E3.05314
G1 X90.900 Y93.770 E3.06073
G1 X91.295 Y93.681 E3.06832
G1 X91.694 Y93.618 E3.07591
G1 X92.096 Y93.580 E3.08350
G1 X92.849 Y93.578 E3.09764
G1 X93.306 Y93.618 E3.10627 F1800.000
G1 X93.705 Y93.681 E3.11386
G1 X94.435 Y93.867 E3.12800
G1 X94.868 Y94.019 E3.13663
G1 X95.239 Y94.180 E3.14422
G1 X95.899 Y94.541 E3.15836
G1 X96.281 Y94.796 E3.16699
G1 X96.600 Y95.044 E3.17459
G1 X96.903 Y95.311 E3.18218
G1 X97.189 Y95.597 E3.18977
G1 X97.456 Y95.900 E3.19736
G1 X97.704 Y96.219 E3.20495
G1 X97.931 Y96.553 E3.21254
G1 X98.137 Y96.901 E3.22014
G1 X98.320 Y97.261 E3.22773
G1 X98.481 Y97.632 E3.23532
G1 X98.618 Y98.012 E3.24291
G1 X98.730 Y98.400 E3.25051
G1 X98.819 Y98.795 E3.25810
G1 X98.882 Y99.194 E3.26569
G1 X98.920 Y99.596 E3.27328
G1 X98.933 Y100.000 E3.28088
G1 X98.920 Y100.404 E3.28847
G1 X98.873 Y100.861 E3.29710
G1 X98.730 Y101.600 E3.31124
G1 X98.618 Y101.988 E3.31883
G1 X98.481 Y102.368 E3.32642
G1 X98.320 Y102.739 E3.33401
G1 X98.137 Y103.099 E3.34160
G1 X97.931 Y103.447 E3.34920
G1 X97.704 Y103.781 E3.35679
G1 X97.456 Y104.100 E3.36438
G1 X97.189 Y104.403 E3.37197
G1 X96.903 Y104.689 E3.37956
G1 X96.600 Y104.956 E3.38716
G1 X96.281 Y105.204 E3.39475
G1 X95.947 Y105.431 E3.40234
G1 X95.599 Y105.637 E3.40993
G1 X95.239 Y105.820 E3.41753
G1 X94.868 Y105.981 E3.42512
G1 X94.435 Y106.133 E3.43375
G1 X93.705 Y106.319 E3.44789
G1 X93.306 Y106.382 E3.45548
G1 X92.904 Y106.420 E3.46307
G1 X92.445 Y106.431 E3.47170
G1 X91.694 Y106.382 E3.48584
G1 X91.295 Y106.319 E3.49343
G1 X90.900 Y106.230 E3.50102
G1 X90.512 Y106.118 E3.50862
G1 X90.132 Y105.981 E3.51620
G1 X89.761 Y105.820 E3.52380
G1 X89.401 Y105.637 E3.53139
G1 X89.053 Y105.431 E3.53898
G1 X88.719 Y105.204 E3.54658
G1 X88.358 Y104.920 E3.55520
G1 X87.811 Y104.403 E3.56934
G1 X87.544 Y104.100 E3.57693
G1 X87.296 Y103.781 E3.58453
G1 X87.069 Y103.447 E3.59212
G1 X86.863 Y103.099 E3.59971
G1 X86.680 Y102.739 E3.60730
G1 X86.519 Y102.368 E3.61489
G1 X86.367 Y101.935 E3.62352
G1 X86.181 Y101.205 E3.63766
G1 X86.118 Y100.806 E3.64525
G1 X86.080 Y100.404 E3.65285
G1 X86.067 Y100.000 E3.66044
G1 X86.080 Y99.596 E3.66803
G1 X86.118 Y99.194 E3.67562
G1 X86.181 Y98.795 E3.68321
G1 X86.367 Y98.065 E3.69735
G1 X86.519 Y97.632 E3.70599
G1 X86.680 Y97.261 E3.71357
G1 X86.863 Y96.901 E3.72117
G1 X87.069 Y96.553 E3.72876
G1 X87.296 Y96.219 E3.73635
G1 X87.544 Y95.900 E3.74395
G1 X88.054 Y95.353 E3.75799
G1 X88.327 Y95.626 F7800.000
G1 X88.646 Y95.341 E3.76603 F1800.000
G1 X89.260 Y94.895 E3.78030
G1 X89.887 Y94.548 E3.79375
G1 X90.274 Y94.378 E3.80170
G1 X90.631 Y94.249 E3.80883
G1 X91.367 Y94.060 E3.82310
G1 X91.742 Y94.001 E3.83024
G1 X92.457 Y93.955 E3.84369
G1 X92.880 Y93.965 E3.85164 F1800.000
G1 X93.258 Y94.001 E3.85878
G1 X93.633 Y94.060 E3.86591
G1 X94.369 Y94.249 E3.88018
G1 X95.075 Y94.529 E3.89445
G1 X95.413 Y94.701 E3.90158
G1 X96.018 Y95.084 E3.91504
G1 X96.354 Y95.341 E3.92299
G1 X96.908 Y95.861 E3.93725
G1 X97.159 Y96.146 E3.94439
G1 X97.392 Y96.446 E3.95153
G1 X97.799 Y97.087 E3.96579
G1 X97.971 Y97.425 E3.97293
G1 X98.251 Y98.131 E3.98720
G1 X98.440 Y98.867 E4.00146
G1 X98.499 Y99.242 E4.00860
G1 X98.547 Y100.000 E4.02287
G1 X98.535 Y100.380 E4.03000
G1 X98.492 Y100.800 E4.03795
G1 X98.357 Y101.504 E4.05141
G1 X98.251 Y101.869 E4.05854
G1 X97.971 Y102.575 E4.07281
G1 X97.799 Y102.913 E4.07995
G1 X97.392 Y103.554 E4.09421
G1 X97.159 Y103.854 E4.10135
G1 X96.908 Y104.139 E4.10849
G1 X96.354 Y104.659 E4.12275
G1 X96.054 Y104.892 E4.12989
G1 X95.703 Y105.127 E4.13784
G1 X95.075 Y105.471 E4.15129
G1 X94.726 Y105.622 E4.15843
G1 X94.327 Y105.763 E4.16637
G1 X93.633 Y105.940 E4.17983
G1 X92.880 Y106.035 E4.19410
G1 X92.457 Y106.045 E4.20204
G1 X91.742 Y105.999 E4.21550
G1 X91.367 Y105.940 E4.22264
G1 X90.631 Y105.751 E4.23690
G1 X89.925 Y105.471 E4.25117
G1 X89.587 Y105.299 E4.25831
G1 X88.946 Y104.892 E4.27257
G1 X88.646 Y104.659 E4.27971
G1 X88.092 Y104.139 E4.29398
G1 X87.608 Y103.554 E4.30824
G1 X87.395 Y103.240 E4.31538
G1 X87.201 Y102.913 E4.32252
G1 X86.878 Y102.226 E4.33678
G1 X86.737 Y101.827 E4.34473
G1 X86.560 Y101.133 E4.35819
G1 X86.501 Y100.758 E4.36532
G1 X86.453 Y100.000 E4.37959
G1 X86.501 Y99.242 E4.39386
G1 X86.560 Y98.867 E4.40099
G1 X86.737 Y98.173 E4.41445
G1 X86.878 Y97.774 E4.42240
G1 X87.029 Y97.425 E4.42953
G1 X87.201 Y97.087 E4.43667
G1 X87.608 Y96.446 E4.45094
G1 X87.841 Y96.146 E4.45807
G1 X88.284 Y95.668 E4.47031
G1 X88.557 Y95.941 F7800.000
G1 X88.892 Y95.638 E4.47879 F1800.000
G1 X89.467 Y95.220 E4.49215
G1 X90.062 Y94.892 E4.50492
G1 X90.416 Y94.737 E4.51218
G1 X90.751 Y94.616 E4.51886
G1 X91.439 Y94.439 E4.53222
G1 X92.145 Y94.350 E4.54558
G1 X92.824 Y94.349 E4.55835
G1 X93.210 Y94.384 E4.56561 F1800.000
G1 X93.561 Y94.439 E4.57229
G1 X94.220 Y94.607 E4.58507
G1 X94.584 Y94.737 E4.59233
G1 X94.910 Y94.878 E4.59901
G1 X95.507 Y95.204 E4.61179
G1 X95.827 Y95.420 E4.61905
G1 X96.108 Y95.638 E4.62573
G1 X96.627 Y96.125 E4.63909
G1 X96.862 Y96.392 E4.64577
G1 X97.080 Y96.673 E4.65245
G1 X97.461 Y97.273 E4.66581
G1 X97.622 Y97.590 E4.67249
G1 X97.884 Y98.251 E4.68584
G1 X98.061 Y98.939 E4.69920
G1 X98.116 Y99.291 E4.70588
G1 X98.161 Y100.000 E4.71924
G1 X98.150 Y100.355 E4.72592
G1 X98.111 Y100.740 E4.73318
G1 X97.983 Y101.408 E4.74596
G1 X97.884 Y101.749 E4.75264
G1 X97.622 Y102.410 E4.76600
G1 X97.461 Y102.727 E4.77268
G1 X97.080 Y103.327 E4.78603
G1 X96.862 Y103.608 E4.79272
G1 X96.627 Y103.875 E4.79940
G1 X96.108 Y104.362 E4.81275
G1 X95.533 Y104.780 E4.82611
G1 X95.227 Y104.961 E4.83279
G1 X94.584 Y105.263 E4.84615
G1 X94.219 Y105.393 E4.85341
G1 X93.561 Y105.561 E4.86618
G1 X92.855 Y105.650 E4.87954
G1 X92.469 Y105.660 E4.88680
G1 X91.791 Y105.616 E4.89958
G1 X91.439 Y105.561 E4.90626
G1 X90.751 Y105.384 E4.91962
G1 X90.090 Y105.122 E4.93297
G1 X89.773 Y104.961 E4.93965
G1 X89.173 Y104.580 E4.95301
G1 X88.892 Y104.362 E4.95969
G1 X88.373 Y103.875 E4.97305
G1 X87.920 Y103.327 E4.98640
G1 X87.720 Y103.033 E4.99308
G1 X87.539 Y102.727 E4.99977
G1 X87.237 Y102.084 E5.01312
G1 X87.107 Y101.719 E5.02039
G1 X86.939 Y101.061 E5.03316
G1 X86.884 Y100.710 E5.03984
G1 X86.839 Y100.000 E5.05320
G1 X86.884 Y99.290 E5.06655
G1 X86.939 Y98.939 E5.07323
G1 X87.107 Y98.281 E5.08601
G1 X87.237 Y97.916 E5.09327
G1 X87.378 Y97.590 E5.09995
G1 X87.539 Y97.273 E5.10663
G1 X87.920 Y96.673 E5.11999
G1 X88.138 Y96.392 E5.12667
G1 X88.515 Y95.984 E5.13710
G1 X88.787 Y96.256 F7800.000
G1 X89.138 Y95.935 E5.14602 F1800.000
G1 X89.673 Y95.546 E5.15847
G1 X90.237 Y95.236 E5.17056
G1 X90.558 Y95.095 E5.17714
G1 X90.870 Y94.983 E5.18337
G1 X91.512 Y94.818 E5.19581
G1 X91.839 Y94.766 E5.20204
G1 X92.481 Y94.725 E5.21413
G1 X93.161 Y94.766 E5.22693 F1800.000
G1 X93.488 Y94.818 E5.23316
G1 X94.130 Y94.983 E5.24560
G1 X94.746 Y95.227 E5.25805
G1 X95.041 Y95.377 E5.26427
G1 X95.585 Y95.722 E5.27636
G1 X95.862 Y95.935 E5.28295
G1 X96.111 Y96.155 E5.28917
G1 X96.565 Y96.638 E5.30162
G1 X96.768 Y96.899 E5.30784
G1 X97.123 Y97.459 E5.32029
G1 X97.273 Y97.754 E5.32652
G1 X97.517 Y98.370 E5.33896
G1 X97.682 Y99.012 E5.35141
G1 X97.734 Y99.339 E5.35764
G1 X97.775 Y100.000 E5.37008
G1 X97.731 Y100.680 E5.38288
G1 X97.609 Y101.312 E5.39497
G1 X97.517 Y101.630 E5.40120
G1 X97.273 Y102.246 E5.41364
G1 X97.123 Y102.541 E5.41987
G1 X96.768 Y103.101 E5.43232
G1 X96.565 Y103.362 E5.43854
G1 X96.345 Y103.611 E5.44477
G1 X95.862 Y104.065 E5.45721
G1 X95.585 Y104.278 E5.46380
G1 X95.041 Y104.623 E5.47589
G1 X94.442 Y104.905 E5.48833
G1 X94.112 Y105.022 E5.49491
G1 X93.488 Y105.182 E5.50700
G1 X93.161 Y105.234 E5.51323
G1 X92.500 Y105.275 E5.52568
G1 X91.820 Y105.231 E5.53848
G1 X91.188 Y105.109 E5.55057
G1 X90.870 Y105.017 E5.55679
G1 X90.254 Y104.773 E5.56924
G1 X89.959 Y104.623 E5.57546
G1 X89.399 Y104.268 E5.58791
G1 X89.138 Y104.065 E5.59414
G1 X88.655 Y103.611 E5.60658
G1 X88.232 Y103.101 E5.61903
G1 X88.046 Y102.827 E5.62525
G1 X87.877 Y102.541 E5.63148
G1 X87.595 Y101.942 E5.64393
G1 X87.478 Y101.612 E5.65051
G1 X87.318 Y100.988 E5.66260
G1 X87.266 Y100.661 E5.66882
G1 X87.225 Y100.000 E5.68127
G1 X87.266 Y99.339 E5.69372
G1 X87.318 Y99.012 E5.69994
G1 X87.478 Y98.388 E5.71203
G1 X87.727 Y97.754 E5.72483
G1 X87.877 Y97.459 E5.73106
G1 X88.232 Y96.899 E5.74351
G1 X88.435 Y96.638 E5.74973
G1 X88.745 Y96.299 E5.75835
G1 X88.637 Y95.886 F7800.000
G1 E2.75835 F2400.00000
G92 E0
G1 Z0.440 F7800.000
G1 X137.191 Y83.631 F7800.000
G1 Z0.140 F7800.000
G1 E3.00000 F2400.00000
G1 X137.787 Y85.285 E3.03303 F1800.000
G1 X138.621 Y88.158 E3.08923
G1 X139.274 Y91.077 E3.14544
G1 X139.742 Y94.032 E3.20164
G1 X140.023 Y97.010 E3.25784
G1 X140.117 Y100.000 E3.31404
G1 X140.023 Y102.990 E3.37024
G1 X139.742 Y105.968 E3.42645
G1 X139.274 Y108.923 E3.48265
G1 X138.621 Y111.842 E3.53885
G1 X137.787 Y114.715 E3.59505
G1 X136.774 Y117.529 E3.65125
G1 X135.586 Y120.275 E3.70745
G1 X134.227 Y122.940 E3.76365
G1 X132.705 Y125.515 E3.81986
G1 X131.023 Y127.989 E3.87606
G1 X129.190 Y130.352 E3.93226
G1 X127.212 Y132.596 E3.98846
G1 X125.096 Y134.712 E4.04467
G1 X122.853 Y136.690 E4.10086
G1 X120.489 Y138.523 E4.15707
G1 X118.015 Y140.205 E4.21327
G1 X115.440 Y141.727 E4.26947
G1 X112.775 Y143.086 E4.32567
G1 X110.029 Y144.274 E4.38187
G1 X107.215 Y145.287 E4.43807
G1 X104.342 Y146.121 E4.49428
G1 X101.423 Y146.774 E4.55048
G1 X98.468 Y147.242 E4.60668
G1 X95.490 Y147.523 E4.66288
G1 X92.500 Y147.617 E4.71908
G1 X89.510 Y147.523 E4.77528
G1 X86.532 Y147.242 E4.83149
G1 X83.577 Y146.774 E4.88769
G1 X80.658 Y146.121 E4.94389
G1 X77.785 Y145.287 E5.00009
G1 X74.971 Y144.274 E5.05629
G1 X72.225 Y143.086 E5.11249
G1 X69.560 Y141.727 E5.16870
G1 X66.985 Y140.205 E5.22490
G1 X64.511 Y138.523 E5.28110
G1 X62.147 Y136.690 E5.33730
G1 X59.904 Y134.712 E5.39350
G1 X57.788 Y132.596 E5.44970
G1 X55.810 Y130.353 E5.50591
G1 X53.977 Y127.989 E5.56211
G1 X52.295 Y125.515 E5.61831
G1 X50.773 Y122.940 E5.67451
G1 X49.414 Y120.275 E5.73071
G1 X48.226 Y117.529 E5.78691
G1 X47.213 Y114.715 E5.84312
G1 X46.379 Y111.842 E5.89932
G1 X45.726 Y108.923 E5.95552
G1 X45.258 Y105.968 E6.01172
G1 X44.977 Y102.990 E6.06792
G1 X44.883 Y100.000 E6.12412
G1 X44.977 Y97.010 E6.18032
G1 X45.258 Y94.032 E6.23653
G1 X45.726 Y91.077 E6.29273
G1 X46.379 Y88.158 E6.34893
G1 X47.213 Y85.285 E6.40513
G1 X48.226 Y82.471 E6.46133
G1 X49.414 Y79.725 E6.51754
G1 X50.773 Y77.060 E6.57374
G1 X52.295 Y74.485 E6.62994
G1 X53.977 Y72.011 E6.68614
G1 X55.810 Y69.647 E6.74234
G1 X57.788 Y67.404 E6.79854
G1 X59.904 Y65.288 E6.85475
G1 X62.147 Y63.310 E6.91095
G1 X64.511 Y61.477 E6.96715
G1 X66.985 Y59.795 E7.02335
G1 X69.560 Y58.273 E7.07955
G1 X72.225 Y56.914 E7.13575
G1 X74.971 Y55.726 E7.19195
G1 X77.785 Y54.713 E7.24816
G1 X80.658 Y53.878 E7.30436
G1 X83.577 Y53.226 E7.36056
G1 X86.532 Y52.758 E7.41676
G1 X89.510 Y52.477 E7.47296
G1 X92.500 Y52.383 E7.52916 F1800.000
G1 X95.490 Y52.477 E7.58537
G1 X98.468 Y52.758 E7.64157
G1 X101.423 Y53.226 E7.69777
G1 X104.342 Y53.879 E7.75397
G1 X107.215 Y54.713 E7.81017
G1 X110.029 Y55.726 E7.86637
G1 X112.775 Y56.914 E7.92258
G1 X115.440 Y58.273 E7.97878
G1 X118.015 Y59.795 E8.03498
G1 X120.489 Y61.477 E8.09118
G1 X122.853 Y63.310 E8.14738
G1 X125.096 Y65.288 E8.20358
G1 X127.212 Y67.404 E8.25979
G1 X129.190 Y69.647 E8.31599
G1 X131.023 Y72.011 E8.37219
G1 X132.705 Y74.485 E8.42839
G1 X134.227 Y77.060 E8.48459
