; generated by Slic3r 1.1.7 on 2014-11-29 at 14:58:15

; perimeters extrusion width = 0.40mm
; infill extrusion width = 0.42mm
; solid infill extrusion width = 0.42mm
; top infill extrusion width = 0.42mm

; perimeters extrusion width = 0.50mm
; infill extrusion width = 0.70mm
; solid infill extrusion width = 0.70mm
; top infill extrusion width = 0.70mm

; perimeters extrusion width = 0.40mm
; infill extrusion width = 0.42mm
; solid infill extrusion width = 0.42mm
; top infill extrusion width = 0.42mm

G21 ; set units to millimeters
M190 S100 ; wait for bed temperature to be reached
M104 S220 T0 ; set temperature
M104 S235 T1 ; set temperature
G28 ; home all axes
M109 S220 T0 ; wait for temperature to be reached
M109 S235 T1 ; wait for temperature to be reached
G90 ; use absolute coordinates
G92 E0
M82 ; use absolute distances for extrusion
T0
G92 E0
M106 S89
G1 F2400.000 E-3.00000
G1 Z0.860 F9000.000
G92 E0
G1 X53.699 Y31.319 F9000.000
G1 Z0.260 F9000.000
G1 E3.00000 F2400.000
G1 X55.915 Y27.990 E3.06695 F1800.000
G1 X58.466 Y24.911 E3.13389
G1 X61.325 Y22.115 E3.20083
G1 X64.461 Y19.634 E3.26777
G1 X67.016 Y17.975 E3.31876
G1 X67.839 Y17.494 E3.33473
G1 X70.553 Y16.111 E3.38572
G1 X71.422 Y15.719 E3.40168
G1 X75.171 Y14.328 E3.46863
G1 X78.114 Y13.539 E3.51962
G1 X79.045 Y13.336 E3.53558
G1 X82.053 Y12.860 E3.58657
G1 X83.002 Y12.755 E3.60254
G1 X86.997 Y12.591 E3.66947
G1 X90.039 Y12.750 E3.72046
G1 X90.988 Y12.845 E3.73643
G1 X94.930 Y13.515 E3.80337
G1 X98.780 Y14.593 E3.87031
G1 X101.624 Y15.685 E3.92130
G1 X102.497 Y16.068 E3.93727
G1 X105.284 Y17.488 E3.98962
G1 X106.040 Y17.924 E4.00423
G1 X109.369 Y20.139 E4.07117
G1 X112.447 Y22.690 E4.13811
G1 X114.601 Y24.844 E4.18910
G1 X115.243 Y25.549 E4.20506
G1 X117.160 Y27.916 E4.25605
G1 X117.724 Y28.685 E4.27202
G1 X119.383 Y31.240 E4.32301
G1 X119.864 Y32.063 E4.33897
G1 X121.640 Y35.646 E4.40592
G1 X122.731 Y38.490 E4.45691
G1 X123.031 Y39.395 E4.47287
G1 X123.819 Y42.337 E4.52386
G1 X124.022 Y43.269 E4.53982
G1 X124.498 Y46.277 E4.59081
G1 X124.603 Y47.226 E4.60678
G1 X124.762 Y50.267 E4.65777
G1 X124.767 Y51.221 E4.67373
G1 X124.513 Y55.212 E4.74068
G1 X123.843 Y59.154 E4.80762
G1 X123.055 Y62.096 E4.85861
G1 X122.765 Y63.004 E4.87457
G1 X121.290 Y66.721 E4.94152
G1 X119.907 Y69.435 E4.99250
G1 X119.435 Y70.263 E5.00847
G1 X117.776 Y72.818 E5.05946
G1 X117.219 Y73.592 E5.07543
G1 X114.668 Y76.671 E5.14237
G1 X111.809 Y79.467 E5.20931
G1 X108.673 Y81.948 E5.27625
G1 X105.295 Y84.088 E5.34319
G1 X101.712 Y85.864 E5.41014
G1 X97.963 Y87.254 E5.47708
G1 X94.089 Y88.246 E5.54401
G1 X90.133 Y88.827 E5.61096
G1 X86.138 Y88.991 E5.67790
G1 X82.147 Y88.737 E5.74485
G1 X78.205 Y88.067 E5.81178
G1 X74.354 Y86.989 E5.87872
G1 X70.637 Y85.514 E5.94567
G1 X67.095 Y83.659 E6.01261
G1 X63.766 Y81.443 E6.07955
G1 X60.687 Y78.892 E6.14649
G1 X57.892 Y76.033 E6.21343
G1 X55.410 Y72.897 E6.28037
G1 X53.270 Y69.519 E6.34731
G1 X51.495 Y65.936 E6.41426
G1 X50.079 Y62.096 E6.48277
G1 X49.112 Y58.313 E6.54813
G1 X48.531 Y54.357 E6.61508
G1 X48.367 Y50.362 E6.68201
G1 X48.621 Y46.370 E6.74896
G1 X49.291 Y42.428 E6.81590
G1 X50.369 Y38.578 E6.88284
G1 X51.844 Y34.861 E6.94978
G1 X53.672 Y31.372 E7.01572
G1 X54.009 Y31.520 F9000.000
G1 X56.202 Y28.222 E7.08202 F1800.000
G1 X58.727 Y25.171 E7.14831
G1 X61.557 Y22.402 E7.21461
G1 X64.662 Y19.943 E7.28090
G1 X67.216 Y18.284 E7.33189
G1 X68.007 Y17.822 E7.34722
G1 X70.720 Y16.439 E7.39820
G1 X71.554 Y16.063 E7.41353
G1 X75.267 Y14.684 E7.47982
G1 X78.209 Y13.895 E7.53081
G1 X79.103 Y13.700 E7.54613
G1 X82.111 Y13.224 E7.59712
G1 X83.021 Y13.123 E7.61244
G1 X86.978 Y12.959 E7.67873
G1 X90.019 Y13.118 E7.72972
G1 X90.930 Y13.209 E7.74505
G1 X94.834 Y13.871 E7.81134
G1 X98.648 Y14.937 E7.87764
G1 X101.492 Y16.029 E7.92863
G1 X102.330 Y16.397 E7.94395
G1 X105.116 Y17.816 E7.99630
G1 X105.839 Y18.233 E8.01026
G1 X109.137 Y20.426 E8.07656
G1 X112.187 Y22.951 E8.14285
G1 X114.341 Y25.105 E8.19384
G1 X114.956 Y25.781 E8.20916
G1 X116.873 Y28.148 E8.26014
G1 X117.415 Y28.886 E8.27547
G1 X119.074 Y31.440 E8.32646
G1 X119.536 Y32.230 E8.34178
G1 X121.296 Y35.778 E8.40808
G1 X122.387 Y38.622 E8.45906
G1 X122.675 Y39.491 E8.47438
G1 X123.463 Y42.433 E8.52537
G1 X123.658 Y43.327 E8.54069
G1 X124.134 Y46.335 E8.59168
G1 X124.235 Y47.245 E8.60700
G1 X124.394 Y50.286 E8.65799
G1 X124.399 Y51.201 E8.67331
G1 X124.149 Y55.154 E8.73961
G1 X123.487 Y59.058 E8.80590
G1 X122.699 Y62.000 E8.85689
G1 X122.421 Y62.872 E8.87221
G1 X120.962 Y66.554 E8.93851
G1 X119.579 Y69.268 E8.98950
G1 X119.126 Y70.063 E9.00482
G1 X117.467 Y72.617 E9.05581
G1 X116.933 Y73.360 E9.07113
G1 X114.407 Y76.411 E9.13742
G1 X111.577 Y79.180 E9.20372
G1 X108.472 Y81.639 E9.27001
G1 X105.128 Y83.760 E9.33631
G1 X101.580 Y85.519 E9.40261
G1 X97.867 Y86.898 E9.46891
G1 X94.032 Y87.882 E9.53520
G1 X90.113 Y88.459 E9.60150
G1 X86.157 Y88.623 E9.66779
G1 X82.204 Y88.373 E9.73409
G1 X78.300 Y87.711 E9.80039
G1 X74.486 Y86.645 E9.86668
G1 X70.804 Y85.186 E9.93298
G1 X67.296 Y83.349 E9.99928
G1 X63.998 Y81.157 E10.06558
G1 X60.947 Y78.631 E10.13187
G1 X58.178 Y75.801 E10.19816
G1 X55.719 Y72.696 E10.26446
G1 X53.598 Y69.352 E10.33075
G1 X51.839 Y65.804 E10.39705
G1 X50.435 Y62.000 E10.46492
G1 X49.476 Y58.255 E10.52964
G1 X48.899 Y54.337 E10.59594
G1 X48.735 Y50.381 E10.66223
G1 X48.985 Y46.428 E10.72853
G1 X49.647 Y42.524 E10.79482
G1 X50.713 Y38.710 E10.86111
G1 X52.173 Y35.028 E10.92742
G1 X53.981 Y31.573 E10.99270
G1 F2400.000 E0.99270
G1 Z0.860 F9000.000
G92 E0
T1
G92 E0
G1 X7.618 Y30.720 F9000.000
G1 Z0.260 F9000.000
G1 X9.788 Y27.454 E0.07043 F1800.000
G1 X12.288 Y24.432 E0.14085
G1 X15.089 Y21.688 E0.21127
G1 X18.163 Y19.252 E0.28170
G1 X20.717 Y17.593 E0.33640
G1 X21.474 Y17.151 E0.35214
G1 X24.188 Y15.768 E0.40684
G1 X24.987 Y15.407 E0.42258
G1 X28.662 Y14.040 E0.49300
G1 X31.604 Y13.251 E0.54770
G1 X32.460 Y13.064 E0.56344
G1 X35.469 Y12.588 E0.61813
G1 X36.340 Y12.491 E0.63388
G1 X40.258 Y12.327 E0.70430
G1 X43.300 Y12.486 E0.75900
G1 X44.172 Y12.573 E0.77474
G1 X48.039 Y13.227 E0.84516
G1 X51.816 Y14.281 E0.91558
G1 X54.660 Y15.373 E0.97028
G1 X55.463 Y15.725 E0.98602
G1 X58.249 Y17.145 E1.04218
G1 X58.938 Y17.542 E1.05646
G1 X62.205 Y19.712 E1.12689
G1 X65.226 Y22.212 E1.19731
G1 X67.380 Y24.365 E1.25200
G1 X67.970 Y25.013 E1.26774
G1 X69.887 Y27.380 E1.32244
G1 X70.406 Y28.087 E1.33818
G1 X72.065 Y30.641 E1.39288
G1 X72.508 Y31.398 E1.40862
G1 X74.251 Y34.910 E1.47905
G1 X75.343 Y37.754 E1.53374
G1 X75.619 Y38.586 E1.54949
G1 X76.407 Y41.528 E1.60418
G1 X76.594 Y42.384 E1.61992
G1 X77.070 Y45.393 E1.67461
G1 X77.167 Y46.264 E1.69036
G1 X77.326 Y49.306 E1.74506
G1 X77.331 Y50.182 E1.76079
G1 X77.085 Y54.096 E1.83122
G1 X76.431 Y57.963 E1.90164
G1 X75.643 Y60.905 E1.95634
G1 X75.377 Y61.740 E1.97208
G1 X73.933 Y65.386 E2.04251
G1 X72.550 Y68.100 E2.09720
G1 X72.116 Y68.862 E2.11294
G1 X70.458 Y71.416 E2.16764
G1 X69.946 Y72.129 E2.18338
G1 X67.447 Y75.150 E2.25380
G1 X64.645 Y77.894 E2.32423
G1 X61.572 Y80.330 E2.39465
G1 X58.260 Y82.432 E2.46508
G1 X54.748 Y84.175 E2.53550
G1 X51.072 Y85.542 E2.60593
G1 X47.274 Y86.518 E2.67635
G1 X43.394 Y87.091 E2.74677
G1 X39.476 Y87.255 E2.81720
G1 X35.562 Y87.009 E2.88762
G1 X31.695 Y86.355 E2.95804
G1 X27.918 Y85.301 E3.02847
G1 X24.272 Y83.857 E3.09889
G1 X20.796 Y82.040 E3.16932
G1 X17.530 Y79.870 E3.23974
G1 X14.508 Y77.371 E3.31017
G1 X11.764 Y74.569 E3.38058
G1 X9.328 Y71.495 E3.45101
G1 X7.227 Y68.184 E3.52144
G1 X5.483 Y64.672 E3.59186
G1 X4.091 Y60.905 E3.66397
G1 X3.140 Y57.198 E3.73270
G1 X2.567 Y53.318 E3.80313
G1 X2.403 Y49.400 E3.87354
G1 X2.649 Y45.486 E3.94398
G1 X3.303 Y41.619 E4.01440
G1 X4.357 Y37.842 E4.08482
G1 X5.801 Y34.196 E4.15525
G1 X7.583 Y30.787 E4.22432
G1 X7.927 Y30.921 F9000.000
G1 X10.075 Y27.686 E4.29406 F1800.000
G1 X12.548 Y24.693 E4.36379
G1 X15.321 Y21.975 E4.43352
G1 X18.363 Y19.561 E4.50325
G1 X20.918 Y17.902 E4.55795
G1 X21.641 Y17.479 E4.57300
G1 X24.355 Y16.096 E4.62769
G1 X25.119 Y15.751 E4.64274
G1 X28.758 Y14.396 E4.71247
G1 X31.700 Y13.607 E4.76717
G1 X32.518 Y13.428 E4.78221
G1 X35.526 Y12.952 E4.83691
G1 X36.360 Y12.859 E4.85196
G1 X40.239 Y12.695 E4.92169
G1 X43.281 Y12.854 E4.97639
G1 X44.115 Y12.937 E4.99144
G1 X47.944 Y13.583 E5.06117
G1 X51.684 Y14.626 E5.13090
G1 X54.528 Y15.717 E5.18560
G1 X55.295 Y16.053 E5.20065
G1 X58.082 Y17.473 E5.25680
G1 X58.737 Y17.851 E5.27039
G1 X61.973 Y19.998 E5.34013
G1 X64.966 Y22.472 E5.40986
G1 X67.119 Y24.626 E5.46455
G1 X67.684 Y25.245 E5.47960
G1 X69.600 Y27.612 E5.53429
G1 X70.097 Y28.287 E5.54934
G1 X71.756 Y30.842 E5.60404
G1 X72.179 Y31.565 E5.61909
G1 X73.907 Y35.043 E5.68882
G1 X74.999 Y37.886 E5.74352
G1 X75.263 Y38.681 E5.75857
G1 X76.051 Y41.624 E5.81326
G1 X76.230 Y42.442 E5.82831
G1 X76.706 Y45.450 E5.88300
G1 X76.799 Y46.283 E5.89806
G1 X76.958 Y49.325 E5.95275
G1 X76.963 Y50.163 E5.96780
G1 X76.721 Y54.039 E6.03753
G1 X76.075 Y57.867 E6.10726
G1 X75.287 Y60.809 E6.16196
G1 X75.033 Y61.608 E6.17701
G1 X73.605 Y65.219 E6.24674
G1 X72.222 Y67.933 E6.30144
G1 X71.807 Y68.661 E6.31649
G1 X70.148 Y71.216 E6.37118
G1 X69.660 Y71.897 E6.38623
G1 X67.186 Y74.889 E6.45596
G1 X64.413 Y77.607 E6.52569
G1 X61.371 Y80.021 E6.59542
G1 X58.093 Y82.103 E6.66516
G1 X54.616 Y83.831 E6.73489
G1 X50.977 Y85.186 E6.80462
G1 X47.216 Y86.154 E6.87435
G1 X43.375 Y86.723 E6.94409
G1 X39.495 Y86.887 E7.01381
G1 X35.620 Y86.645 E7.08355
G1 X31.791 Y85.999 E7.15328
G1 X28.050 Y84.957 E7.22301
G1 X24.439 Y83.529 E7.29274
G1 X20.997 Y81.731 E7.36248
G1 X17.762 Y79.584 E7.43221
G1 X14.769 Y77.110 E7.50194
G1 X12.051 Y74.337 E7.57166
G1 X9.637 Y71.295 E7.64140
G1 X7.555 Y68.017 E7.71113
G1 X5.827 Y64.540 E7.78087
G1 X4.447 Y60.809 E7.85229
G1 X3.505 Y57.140 E7.92032
G1 X2.935 Y53.299 E7.99006
G1 X2.771 Y49.419 E8.05978
G1 X3.013 Y45.543 E8.12952
G1 X3.659 Y41.715 E8.19925
G1 X4.702 Y37.974 E8.26898
G1 X6.129 Y34.363 E8.33871
G1 X7.892 Y30.988 E8.40709
G1 F3600.000 E-1.59291
G1 Z0.860 F9000.000
G92 E0
T0
G92 E0
G1 X54.936 Y32.122 F9000.000
G1 Z0.260 F9000.000
G1 E10.00000 F2400.000
G1 X57.061 Y28.917 E10.06437 F1800.000
G1 X59.509 Y25.953 E10.12873
G1 X62.253 Y23.261 E10.19308
G1 X65.264 Y20.870 E10.25745
G1 X67.819 Y19.211 E10.30843
G1 X68.509 Y18.807 E10.32182
G1 X71.222 Y17.425 E10.37281
G1 X71.951 Y17.095 E10.38619
G1 X75.553 Y15.752 E10.45055
G1 X78.495 Y14.963 E10.50154
G1 X79.276 Y14.792 E10.51492
G1 X82.284 Y14.316 E10.56591
G1 X83.079 Y14.227 E10.57930
G1 X86.920 Y14.063 E10.64365
G1 X89.961 Y14.222 E10.69464
G1 X90.757 Y14.301 E10.70803
G1 X94.548 Y14.939 E10.77239
G1 X98.252 Y15.970 E10.83675
G1 X101.096 Y17.061 E10.88773
G1 X101.828 Y17.382 E10.90112
G1 X104.614 Y18.801 E10.95347
G1 X105.237 Y19.160 E10.96549
G1 X108.441 Y21.285 E11.02986
G1 X111.405 Y23.733 E11.09421
G1 X113.559 Y25.887 E11.14520
G1 X114.097 Y26.477 E11.15858
G1 X116.014 Y28.844 E11.20957
G1 X116.488 Y29.488 E11.22295
G1 X118.147 Y32.043 E11.27394
G1 X118.551 Y32.732 E11.28733
G1 X120.263 Y36.175 E11.35169
G1 X121.355 Y39.018 E11.40268
G1 X121.606 Y39.777 E11.41606
G1 X122.395 Y42.719 E11.46705
G1 X122.566 Y43.500 E11.48043
G1 X123.042 Y46.508 E11.53142
G1 X123.131 Y47.303 E11.54480
G1 X123.290 Y50.344 E11.59579
G1 X123.295 Y51.144 E11.60917
G1 X123.057 Y54.981 E11.67354
G1 X122.419 Y58.772 E11.73789
G1 X121.631 Y61.714 E11.78888
G1 X121.389 Y62.476 E11.80227
G1 X119.976 Y66.052 E11.86663
G1 X118.594 Y68.766 E11.91762
G1 X118.198 Y69.460 E11.93100
G1 X116.539 Y72.015 E11.98199
G1 X116.073 Y72.665 E11.99537
G1 X113.625 Y75.629 E12.05973
G1 X110.881 Y78.321 E12.12409
G1 X107.870 Y80.712 E12.18845
G1 X104.626 Y82.775 E12.25281
G1 X101.184 Y84.487 E12.31717
G1 X97.581 Y85.830 E12.38153
G1 X93.859 Y86.790 E12.44589
G1 X90.056 Y87.355 E12.51026
G1 X86.215 Y87.519 E12.57461
G1 X82.377 Y87.281 E12.63898
G1 X78.586 Y86.643 E12.70333
G1 X74.882 Y85.612 E12.76769
G1 X71.306 Y84.200 E12.83206
G1 X67.898 Y82.422 E12.89642
G1 X64.694 Y80.297 E12.96078
G1 X61.729 Y77.849 E13.02514
G1 X59.037 Y75.105 E13.08949
G1 X56.646 Y72.094 E13.15386
G1 X54.584 Y68.850 E13.21822
G1 X52.871 Y65.407 E13.28258
G1 X51.503 Y61.714 E13.34851
G1 X50.569 Y58.082 E13.41129
G1 X50.004 Y54.279 E13.47566
G1 X49.839 Y50.439 E13.54001
G1 X50.077 Y46.601 E13.60438
G1 X50.715 Y42.810 E13.66873
G1 X51.746 Y39.106 E13.73309
G1 X53.158 Y35.530 E13.79746
G1 X54.908 Y32.175 E13.86081
G1 X55.245 Y32.323 F9000.000
G1 X57.347 Y29.149 E13.92453 F1800.000
G1 X59.770 Y26.214 E13.98824
G1 X62.485 Y23.548 E14.05195
G1 X65.465 Y21.179 E14.11567
G1 X68.019 Y19.521 E14.16666
G1 X68.676 Y19.136 E14.17940
G1 X71.390 Y17.753 E14.23039
G1 X72.083 Y17.439 E14.24312
G1 X75.648 Y16.108 E14.30684
G1 X78.590 Y15.319 E14.35783
G1 X79.333 Y15.156 E14.37056
G1 X82.342 Y14.680 E14.42155
G1 X83.098 Y14.595 E14.43429
G1 X86.900 Y14.431 E14.49800
G1 X89.942 Y14.591 E14.54899
G1 X90.699 Y14.665 E14.56173
G1 X94.453 Y15.295 E14.62545
G1 X98.120 Y16.314 E14.68916
G1 X100.963 Y17.405 E14.74015
G1 X101.661 Y17.710 E14.75289
G1 X104.447 Y19.130 E14.80524
G1 X105.036 Y19.469 E14.81662
G1 X108.209 Y21.571 E14.88033
G1 X111.144 Y23.993 E14.94405
G1 X113.298 Y26.147 E14.99503
G1 X113.811 Y26.709 E15.00777
G1 X115.728 Y29.076 E15.05876
G1 X116.179 Y29.689 E15.07150
G1 X117.838 Y32.243 E15.12249
G1 X118.222 Y32.900 E15.13522
G1 X119.919 Y36.307 E15.19894
G1 X121.011 Y39.150 E15.24993
G1 X121.250 Y39.872 E15.26267
G1 X122.039 Y42.814 E15.31365
G1 X122.202 Y43.557 E15.32639
G1 X122.678 Y46.566 E15.37738
G1 X122.763 Y47.322 E15.39012
G1 X122.922 Y50.364 E15.44111
G1 X122.927 Y51.124 E15.45384
G1 X122.693 Y54.923 E15.51756
G1 X122.063 Y58.677 E15.58127
G1 X121.275 Y61.619 E15.63226
G1 X121.044 Y62.344 E15.64500
G1 X119.648 Y65.884 E15.70871
G1 X118.265 Y68.598 E15.75970
G1 X117.889 Y69.260 E15.77244
G1 X116.230 Y71.814 E15.82343
G1 X115.787 Y72.433 E15.83617
G1 X113.365 Y75.368 E15.89988
G1 X110.649 Y78.035 E15.96359
G1 X107.669 Y80.403 E16.02731
G1 X104.458 Y82.446 E16.09102
G1 X101.052 Y84.143 E16.15474
G1 X97.486 Y85.474 E16.21846
G1 X93.801 Y86.426 E16.28217
G1 X90.036 Y86.987 E16.34589
G1 X86.234 Y87.151 E16.40960
G1 X82.435 Y86.917 E16.47332
G1 X78.682 Y86.287 E16.53703
G1 X75.014 Y85.268 E16.60074
G1 X71.474 Y83.872 E16.66446
G1 X68.099 Y82.113 E16.72818
G1 X64.926 Y80.011 E16.79189
G1 X61.990 Y77.589 E16.85561
G1 X59.324 Y74.873 E16.91932
G1 X56.956 Y71.893 E16.98304
G1 X54.912 Y68.682 E17.04675
G1 X53.215 Y65.275 E17.11047
G1 X51.859 Y61.619 E17.17576
G1 X50.933 Y58.025 E17.23789
G1 X50.372 Y54.260 E17.30161
G1 X50.207 Y50.458 E17.36532
G1 X50.441 Y46.659 E17.42904
G1 X51.071 Y42.905 E17.49275
G1 X52.090 Y39.238 E17.55646
G1 X53.486 Y35.698 E17.62018
G1 X55.217 Y32.376 E17.68289
G1 F2400.000 E14.68289
G1 Z0.860 F9000.000
G92 E0
G1 X113.809 Y62.920 F9000.000
G1 Z0.260 F9000.000
G1 E3.00000 F2400.000
G1 X112.392 Y65.701 E3.05225 F1800.000
G1 X110.692 Y68.319 E3.10451
G1 X108.667 Y70.804 E3.15817
G1 X106.520 Y72.951 E3.20900
G1 X104.095 Y74.916 E3.26125
G1 X101.477 Y76.616 E3.31351
G1 X98.696 Y78.033 E3.36576
G1 X95.782 Y79.151 E3.41801
G1 X92.767 Y79.959 E3.47026
G1 X89.684 Y80.447 E3.52252
G1 X86.567 Y80.611 E3.57477
G1 X83.450 Y80.447 E3.62702
G1 X80.367 Y79.959 E3.67927
G1 X77.352 Y79.151 E3.73153
G1 X74.438 Y78.033 E3.78378
G1 X71.657 Y76.616 E3.83603
G1 X69.040 Y74.916 E3.88828
G1 X66.614 Y72.951 E3.94054
G1 X64.407 Y70.744 E3.99279
G1 X62.442 Y68.319 E4.04504
G1 X60.742 Y65.701 E4.09729
G1 X59.325 Y62.920 E4.14955
G1 X58.207 Y60.006 E4.20180
G1 X57.399 Y56.991 E4.25405
G1 X56.911 Y53.908 E4.30630
G1 X56.747 Y50.791 E4.35856
G1 X56.911 Y47.674 E4.41081
G1 X57.399 Y44.591 E4.46306
G1 X58.237 Y41.497 E4.51673
G1 X59.325 Y38.662 E4.56756
G1 X60.742 Y35.881 E4.61981
G1 X62.442 Y33.263 E4.67206
G1 X64.407 Y30.838 E4.72431
G1 X66.614 Y28.631 E4.77657
G1 X69.040 Y26.666 E4.82882
G1 X71.657 Y24.966 E4.88107
G1 X74.438 Y23.549 E4.93332
G1 X77.352 Y22.431 E4.98558
G1 X80.367 Y21.623 E5.03783
G1 X83.450 Y21.135 E5.09008
G1 X86.567 Y20.971 E5.14233
G1 X89.684 Y21.135 E5.19459
G1 X92.767 Y21.623 E5.24684
G1 X95.782 Y22.431 E5.29909
G1 X98.696 Y23.549 E5.35134
