; generated by Slic3r 1.1.7 on 2014-11-29 at 14:50:17

; perimeters extrusion width = 0.40mm
; infill extrusion width = 0.42mm
; solid infill extrusion width = 0.42mm
; top infill extrusion width = 0.42mm

; perimeters extrusion width = 0.50mm
; infill extrusion width = 0.70mm
; solid infill extrusion width = 0.70mm
; top infill extrusion width = 0.70mm

G21 ; set units to millimeters
M190 S100 ; wait for bed temperature to be reached
M104 S220 T0 ; set temperature
M104 S235 T1 ; set temperature
G28 ; home all axes
M109 S220 T0 ; wait for temperature to be reached
M109 S235 T1 ; wait for temperature to be reached
G90 ; use absolute coordinates
G92 E0
M82 ; use absolute distances for extrusion
T0
G92 E0
M106 S89
G1 F2400.000 E-3.00000
G1 Z0.860 F9000.000
G92 E0
G1 X72.277 Y34.861 F9000.000
G1 Z0.260 F9000.000
G1 E3.00000 F2400.000
G1 X74.132 Y31.319 E3.06694 F1800.000
G1 X76.348 Y27.990 E3.13389
G1 X78.899 Y24.911 E3.20083
G1 X81.758 Y22.115 E3.26776
G1 X84.894 Y19.634 E3.33471
G1 X87.449 Y17.975 E3.38570
G1 X88.272 Y17.494 E3.40166
G1 X91.855 Y15.719 E3.46861
G1 X94.699 Y14.627 E3.51960
G1 X95.604 Y14.328 E3.53556
G1 X99.478 Y13.336 E3.60250
G1 X103.435 Y12.755 E3.66945
G1 X106.476 Y12.596 E3.72044
G1 X107.430 Y12.591 E3.73640
G1 X111.421 Y12.845 E3.80334
G1 X115.363 Y13.515 E3.87028
G1 X118.305 Y14.303 E3.92127
G1 X119.213 Y14.593 E3.93724
G1 X122.930 Y16.068 E4.00418
G1 X125.644 Y17.451 E4.05517
G1 X126.472 Y17.924 E4.07113
G1 X129.801 Y20.139 E4.13808
G1 X132.169 Y22.056 E4.18907
G1 X132.880 Y22.690 E4.20503
G1 X135.676 Y25.549 E4.27197
G1 X138.157 Y28.685 E4.33891
G1 X139.816 Y31.240 E4.38990
G1 X140.297 Y32.063 E4.40587
G1 X142.073 Y35.646 E4.47281
G1 X143.164 Y38.490 E4.52380
G1 X143.463 Y39.395 E4.53977
G1 X144.455 Y43.269 E4.60670
G1 X145.036 Y47.226 E4.67365
G1 X145.200 Y51.221 E4.74059
G1 X145.041 Y54.262 E4.79158
G1 X144.946 Y55.212 E4.80755
G1 X144.470 Y58.220 E4.85854
G1 X144.276 Y59.154 E4.87450
G1 X143.488 Y62.096 E4.92549
G1 X143.198 Y63.004 E4.94145
G1 X142.106 Y65.848 E4.99244
G1 X141.723 Y66.721 E5.00841
G1 X140.340 Y69.435 E5.05940
G1 X139.868 Y70.263 E5.07537
G1 X137.652 Y73.592 E5.14231
G1 X135.101 Y76.671 E5.20925
G1 X132.242 Y79.467 E5.27619
G1 X129.106 Y81.948 E5.34313
G1 X125.728 Y84.088 E5.41007
G1 X122.145 Y85.864 E5.47702
G1 X118.396 Y87.254 E5.54396
G1 X114.522 Y88.246 E5.61089
G1 X110.565 Y88.827 E5.67784
G1 X106.571 Y88.991 E5.74478
G1 X102.580 Y88.737 E5.81172
G1 X98.637 Y88.067 E5.87866
G1 X94.787 Y86.989 E5.94560
G1 X91.070 Y85.514 E6.01255
G1 X87.528 Y83.659 E6.07949
G1 X84.199 Y81.443 E6.14643
G1 X81.120 Y78.892 E6.21337
G1 X78.324 Y76.033 E6.28031
G1 X75.843 Y72.897 E6.34725
G1 X73.703 Y69.519 E6.41420
G1 X71.927 Y65.936 E6.48114
G1 X70.537 Y62.187 E6.54808
G1 X69.545 Y58.313 E6.61502
G1 X68.964 Y54.357 E6.68197
G1 X68.800 Y50.362 E6.74890
G1 X69.054 Y46.370 E6.81585
G1 X69.724 Y42.428 E6.88279
G1 X70.802 Y38.578 E6.94972
G1 X72.255 Y34.917 E7.01567
G1 X72.606 Y35.028 F9000.000
G1 X74.442 Y31.520 E7.08196 F1800.000
G1 X76.635 Y28.222 E7.14826
G1 X79.160 Y25.171 E7.21456
G1 X81.990 Y22.402 E7.28085
G1 X85.095 Y19.943 E7.34715
G1 X87.650 Y18.284 E7.39814
G1 X88.439 Y17.822 E7.41346
G1 X91.987 Y16.063 E7.47975
G1 X94.831 Y14.971 E7.53075
G1 X95.700 Y14.684 E7.54606
G1 X99.536 Y13.700 E7.61236
G1 X103.454 Y13.123 E7.67866
G1 X106.496 Y12.964 E7.72965
G1 X107.410 Y12.959 E7.74496
G1 X111.363 Y13.209 E7.81126
G1 X115.267 Y13.871 E7.87756
G1 X118.209 Y14.659 E7.92855
G1 X119.081 Y14.937 E7.94387
G1 X122.763 Y16.397 E8.01016
G1 X125.477 Y17.779 E8.06115
G1 X126.272 Y18.233 E8.07647
G1 X129.569 Y20.426 E8.14277
G1 X131.937 Y22.342 E8.19376
G1 X132.620 Y22.951 E8.20908
G1 X135.389 Y25.781 E8.27537
G1 X137.848 Y28.886 E8.34167
G1 X139.507 Y31.440 E8.39266
G1 X139.969 Y32.230 E8.40798
G1 X141.728 Y35.778 E8.47428
G1 X142.820 Y38.622 E8.52527
G1 X143.107 Y39.491 E8.54059
G1 X144.091 Y43.327 E8.60688
G1 X144.668 Y47.245 E8.67318
G1 X144.832 Y51.201 E8.73947
G1 X144.673 Y54.243 E8.79046
G1 X144.582 Y55.154 E8.80579
G1 X144.105 Y58.162 E8.85677
G1 X143.920 Y59.058 E8.87209
G1 X143.132 Y62.000 E8.92308
G1 X142.854 Y62.872 E8.93840
G1 X141.762 Y65.716 E8.98939
G1 X141.394 Y66.554 E9.00471
G1 X140.012 Y69.268 E9.05570
G1 X139.558 Y70.063 E9.07102
G1 X137.365 Y73.360 E9.13732
G1 X134.840 Y76.411 E9.20361
G1 X132.010 Y79.180 E9.26991
G1 X128.905 Y81.639 E9.33620
G1 X125.561 Y83.760 E9.40250
G1 X122.013 Y85.519 E9.46880
G1 X118.300 Y86.898 E9.53509
G1 X114.464 Y87.882 E9.60139
G1 X110.546 Y88.459 E9.66769
G1 X106.590 Y88.623 E9.73398
G1 X102.637 Y88.373 E9.80028
G1 X98.733 Y87.711 E9.86657
G1 X94.919 Y86.645 E9.93287
G1 X91.237 Y85.186 E9.99917
G1 X87.728 Y83.349 E10.06546
G1 X84.431 Y81.157 E10.13176
G1 X81.380 Y78.631 E10.19806
G1 X78.611 Y75.801 E10.26435
G1 X76.152 Y72.696 E10.33065
G1 X74.031 Y69.352 E10.39695
G1 X72.272 Y65.804 E10.46324
G1 X70.893 Y62.092 E10.52953
G1 X69.909 Y58.255 E10.59583
G1 X69.332 Y54.337 E10.66213
G1 X69.168 Y50.381 E10.72842
G1 X69.418 Y46.428 E10.79472
G1 X70.080 Y42.524 E10.86102
G1 X71.146 Y38.710 E10.92731
G1 X72.583 Y35.084 E10.99261
G1 F2400.000 E0.99261
G1 Z0.860 F9000.000
G92 E0
T1
G92 E0
G1 X26.234 Y34.196 F9000.000
G1 Z0.260 F9000.000
G1 X28.051 Y30.720 E0.07042 F1800.000
G1 X30.221 Y27.454 E0.14085
G1 X32.721 Y24.432 E0.21127
G1 X35.522 Y21.688 E0.28169
G1 X38.596 Y19.252 E0.35212
G1 X41.150 Y17.593 E0.40682
G1 X41.907 Y17.151 E0.42256
G1 X45.419 Y15.407 E0.49298
G1 X48.263 Y14.315 E0.54768
G1 X49.095 Y14.040 E0.56342
G1 X52.893 Y13.064 E0.63384
G1 X56.773 Y12.491 E0.70427
G1 X59.815 Y12.332 E0.75897
G1 X60.691 Y12.327 E0.77470
G1 X64.605 Y12.573 E0.84513
G1 X68.472 Y13.227 E0.91555
G1 X71.414 Y14.015 E0.97025
G1 X72.249 Y14.281 E0.98599
G1 X75.895 Y15.725 E1.05641
G1 X78.609 Y17.108 E1.11111
G1 X79.371 Y17.542 E1.12685
G1 X82.637 Y19.712 E1.19728
G1 X85.005 Y21.629 E1.25198
G1 X85.659 Y22.212 E1.26771
G1 X88.403 Y25.013 E1.33813
G1 X90.839 Y28.087 E1.40856
G1 X92.498 Y30.641 E1.46326
G1 X92.940 Y31.398 E1.47900
G1 X94.684 Y34.910 E1.54942
G1 X95.776 Y37.754 E1.60412
G1 X96.051 Y38.586 E1.61986
G1 X97.027 Y42.384 E1.69028
G1 X97.600 Y46.264 E1.76071
G1 X97.764 Y50.182 E1.83113
G1 X97.605 Y53.224 E1.88583
G1 X97.518 Y54.096 E1.90157
G1 X97.041 Y57.105 E1.95627
G1 X96.864 Y57.963 E1.97201
G1 X96.076 Y60.905 E2.02670
G1 X95.810 Y61.740 E2.04244
G1 X94.718 Y64.584 E2.09714
G1 X94.366 Y65.386 E2.11288
G1 X92.983 Y68.100 E2.16758
G1 X92.549 Y68.862 E2.18332
G1 X90.379 Y72.129 E2.25375
G1 X87.879 Y75.150 E2.32417
G1 X85.078 Y77.894 E2.39459
G1 X82.004 Y80.330 E2.46501
G1 X78.693 Y82.432 E2.53544
G1 X75.181 Y84.175 E2.60587
G1 X71.505 Y85.542 E2.67629
G1 X67.707 Y86.518 E2.74671
G1 X63.827 Y87.091 E2.81714
G1 X59.909 Y87.255 E2.88756
G1 X55.995 Y87.009 E2.95799
G1 X52.128 Y86.355 E3.02841
G1 X48.351 Y85.301 E3.09883
G1 X44.705 Y83.857 E3.16926
G1 X41.229 Y82.040 E3.23968
G1 X37.963 Y79.870 E3.31011
G1 X34.941 Y77.370 E3.38053
G1 X32.197 Y74.569 E3.45095
G1 X29.761 Y71.496 E3.52138
G1 X27.660 Y68.184 E3.59180
G1 X25.916 Y64.672 E3.66223
G1 X24.549 Y60.996 E3.73265
G1 X23.573 Y57.198 E3.80307
G1 X23.000 Y53.318 E3.87350
G1 X22.836 Y49.400 E3.94392
G1 X23.082 Y45.486 E4.01435
G1 X23.736 Y41.619 E4.08477
G1 X24.790 Y37.842 E4.15519
G1 X26.206 Y34.265 E4.22427
G1 X26.562 Y34.363 F9000.000
G1 X28.360 Y30.921 E4.29400 F1800.000
G1 X30.507 Y27.686 E4.36374
G1 X32.981 Y24.693 E4.43347
G1 X35.754 Y21.975 E4.50319
G1 X38.796 Y19.561 E4.57293
G1 X41.351 Y17.902 E4.62763
G1 X42.074 Y17.479 E4.64268
G1 X45.551 Y15.751 E4.71241
G1 X48.395 Y14.659 E4.76711
G1 X49.190 Y14.396 E4.78215
G1 X52.951 Y13.428 E4.85188
G1 X56.792 Y12.859 E4.92162
G1 X59.834 Y12.700 E4.97632
G1 X60.672 Y12.695 E4.99136
G1 X64.548 Y12.937 E5.06109
G1 X68.376 Y13.583 E5.13082
G1 X71.319 Y14.371 E5.18552
G1 X72.117 Y14.626 E5.20057
G1 X75.728 Y16.053 E5.27030
G1 X78.442 Y17.436 E5.32500
G1 X79.170 Y17.851 E5.34004
G1 X82.406 Y19.998 E5.40978
G1 X84.773 Y21.915 E5.46448
G1 X85.398 Y22.472 E5.47952
G1 X88.116 Y25.245 E5.54925
G1 X90.530 Y28.287 E5.61898
G1 X92.189 Y30.842 E5.67368
G1 X92.612 Y31.565 E5.68873
G1 X94.340 Y35.043 E5.75846
G1 X95.432 Y37.886 E5.81316
G1 X95.695 Y38.682 E5.82821
G1 X96.663 Y42.442 E5.89793
G1 X97.232 Y46.283 E5.96767
G1 X97.396 Y50.163 E6.03740
G1 X97.237 Y53.205 E6.09210
G1 X97.154 Y54.039 E6.10715
G1 X96.677 Y57.047 E6.16184
G1 X96.508 Y57.867 E6.17689
G1 X95.720 Y60.809 E6.23158
G1 X95.466 Y61.608 E6.24663
G1 X94.374 Y64.452 E6.30133
G1 X94.038 Y65.219 E6.31638
G1 X92.655 Y67.933 E6.37107
G1 X92.240 Y68.661 E6.38612
G1 X90.093 Y71.897 E6.45586
G1 X87.619 Y74.889 E6.52559
G1 X84.846 Y77.607 E6.59532
G1 X81.804 Y80.021 E6.66505
G1 X78.526 Y82.103 E6.73478
G1 X75.049 Y83.831 E6.80452
G1 X71.410 Y85.186 E6.87425
G1 X67.649 Y86.154 E6.94398
G1 X63.808 Y86.723 E7.01371
G1 X59.928 Y86.887 E7.08344
G1 X56.053 Y86.645 E7.15318
G1 X52.224 Y85.999 E7.22290
G1 X48.483 Y84.957 E7.29264
G1 X44.872 Y83.529 E7.36237
G1 X41.430 Y81.731 E7.43210
G1 X38.195 Y79.584 E7.50184
G1 X35.202 Y77.110 E7.57157
G1 X32.484 Y74.337 E7.64129
G1 X30.070 Y71.295 E7.71103
G1 X27.988 Y68.017 E7.78076
G1 X26.260 Y64.540 E7.85049
G1 X24.905 Y60.901 E7.92022
G1 X23.937 Y57.140 E7.98995
G1 X23.368 Y53.299 E8.05969
G1 X23.204 Y49.419 E8.12942
G1 X23.446 Y45.543 E8.19915
G1 X24.092 Y41.715 E8.26888
G1 X25.134 Y37.974 E8.33861
G1 X26.535 Y34.433 E8.40700
G1 F3600.000 E-1.59300
G1 Z0.860 F9000.000
G92 E0
T0
G92 E0
G1 X73.591 Y35.530 F9000.000
G1 Z0.260 F9000.000
G1 E10.00000 F2400.000
G1 X75.369 Y32.122 E10.06436 F1800.000
G1 X77.494 Y28.917 E10.12872
G1 X79.942 Y25.953 E10.19308
G1 X82.686 Y23.261 E10.25744
G1 X85.697 Y20.870 E10.32180
G1 X88.252 Y19.211 E10.37279
G1 X88.941 Y18.807 E10.38617
G1 X92.384 Y17.095 E10.45054
G1 X95.227 Y16.003 E10.50153
G1 X95.986 Y15.752 E10.51491
G1 X99.709 Y14.792 E10.57926
G1 X103.512 Y14.227 E10.64363
G1 X106.553 Y14.068 E10.69462
G1 X107.352 Y14.063 E10.70800
G1 X111.190 Y14.301 E10.77236
G1 X114.981 Y14.939 E10.83672
G1 X117.923 Y15.727 E10.88771
G1 X118.685 Y15.970 E10.90109
G1 X122.261 Y17.382 E10.96545
G1 X124.975 Y18.765 E11.01644
G1 X125.669 Y19.160 E11.02982
G1 X128.874 Y21.285 E11.09419
G1 X131.241 Y23.202 E11.14518
G1 X131.838 Y23.733 E11.15856
G1 X134.530 Y26.477 E11.22291
G1 X136.921 Y29.488 E11.28727
G1 X138.580 Y32.043 E11.33826
G1 X138.984 Y32.732 E11.35165
G1 X140.696 Y36.175 E11.41601
G1 X141.788 Y39.018 E11.46700
G1 X142.039 Y39.777 E11.48038
G1 X142.999 Y43.500 E11.54474
G1 X143.564 Y47.303 E11.60910
G1 X143.728 Y51.144 E11.67346
G1 X143.569 Y54.185 E11.72445
G1 X143.490 Y54.981 E11.73784
G1 X143.013 Y57.989 E11.78882
G1 X142.852 Y58.772 E11.80220
G1 X142.064 Y61.714 E11.85319
G1 X141.821 Y62.476 E11.86658
G1 X140.730 Y65.319 E11.91756
G1 X140.409 Y66.052 E11.93095
G1 X139.027 Y68.766 E11.98194
G1 X138.631 Y69.460 E11.99532
G1 X136.506 Y72.665 E12.05968
G1 X134.058 Y75.629 E12.12404
G1 X131.314 Y78.321 E12.18840
G1 X128.303 Y80.712 E12.25276
G1 X125.059 Y82.775 E12.31712
G1 X121.616 Y84.487 E12.38148
G1 X118.014 Y85.830 E12.44584
G1 X114.291 Y86.790 E12.51020
G1 X110.488 Y87.355 E12.57457
G1 X106.648 Y87.519 E12.63892
G1 X102.810 Y87.281 E12.70328
G1 X99.019 Y86.643 E12.76764
G1 X95.315 Y85.612 E12.83200
G1 X91.739 Y84.200 E12.89637
G1 X88.331 Y82.422 E12.96073
G1 X85.126 Y80.297 E13.02509
G1 X82.162 Y77.849 E13.08945
G1 X79.470 Y75.105 E13.15380
G1 X77.079 Y72.094 E13.21817
G1 X75.016 Y68.850 E13.28253
G1 X73.304 Y65.407 E13.34689
G1 X71.961 Y61.805 E13.41125
G1 X71.001 Y58.082 E13.47561
G1 X70.436 Y54.279 E13.53997
G1 X70.272 Y50.439 E13.60433
G1 X70.510 Y46.601 E13.66869
G1 X71.148 Y42.810 E13.73305
G1 X72.178 Y39.106 E13.79741
G1 X73.569 Y35.586 E13.86077
G1 X73.919 Y35.698 F9000.000
G1 X75.678 Y32.322 E13.92448 F1800.000
G1 X77.780 Y29.149 E13.98820
G1 X80.202 Y26.214 E14.05191
G1 X82.918 Y23.548 E14.11562
G1 X85.898 Y21.179 E14.17934
G1 X88.452 Y19.520 E14.23033
G1 X89.109 Y19.136 E14.24307
G1 X92.516 Y17.439 E14.30678
G1 X95.359 Y16.348 E14.35778
G1 X96.081 Y16.108 E14.37051
G1 X99.766 Y15.156 E14.43422
G1 X103.531 Y14.595 E14.49794
G1 X106.573 Y14.436 E14.54893
G1 X107.333 Y14.431 E14.56166
G1 X111.132 Y14.665 E14.62538
G1 X114.886 Y15.295 E14.68910
G1 X117.828 Y16.083 E14.74009
G1 X118.553 Y16.314 E14.75282
G1 X122.093 Y17.710 E14.81654
G1 X124.807 Y19.093 E14.86753
G1 X125.469 Y19.469 E14.88026
G1 X128.642 Y21.571 E14.94398
G1 X131.009 Y23.488 E14.99497
G1 X131.577 Y23.993 E15.00770
G1 X134.244 Y26.709 E15.07142
G1 X136.612 Y29.689 E15.13513
G1 X138.271 Y32.243 E15.18612
G1 X138.655 Y32.900 E15.19886
G1 X140.352 Y36.307 E15.26258
G1 X141.444 Y39.150 E15.31357
G1 X141.683 Y39.872 E15.32630
G1 X142.635 Y43.557 E15.39001
G1 X143.196 Y47.322 E15.45373
G1 X143.360 Y51.124 E15.51745
G1 X143.200 Y54.166 E15.56843
G1 X143.126 Y54.923 E15.58117
G1 X142.649 Y57.932 E15.63216
G1 X142.496 Y58.677 E15.64490
G1 X141.708 Y61.619 E15.69589
G1 X141.477 Y62.344 E15.70862
G1 X140.386 Y65.187 E15.75961
G1 X140.081 Y65.884 E15.77235
G1 X138.698 Y68.598 E15.82334
G1 X138.322 Y69.260 E15.83608
G1 X136.220 Y72.433 E15.89979
G1 X133.798 Y75.368 E15.96351
G1 X131.082 Y78.035 E16.02722
G1 X128.102 Y80.403 E16.09094
G1 X124.891 Y82.446 E16.15465
G1 X121.484 Y84.143 E16.21837
G1 X117.919 Y85.474 E16.28208
G1 X114.234 Y86.426 E16.34579
G1 X110.469 Y86.987 E16.40951
G1 X106.667 Y87.151 E16.47322
G1 X102.868 Y86.917 E16.53694
G1 X99.114 Y86.287 E16.60066
G1 X95.447 Y85.268 E16.66437
G1 X91.907 Y83.872 E16.72809
G1 X88.531 Y82.113 E16.79180
G1 X85.358 Y80.011 E16.85552
G1 X82.423 Y77.589 E16.91923
G1 X79.756 Y74.873 E16.98295
G1 X77.388 Y71.893 E17.04666
G1 X75.345 Y68.682 E17.11038
G1 X73.648 Y65.275 E17.17409
G1 X72.317 Y61.710 E17.23781
G1 X71.365 Y58.025 E17.30152
G1 X70.804 Y54.260 E17.36524
G1 X70.640 Y50.458 E17.42895
G1 X70.874 Y46.659 E17.49267
G1 X71.504 Y42.905 E17.55638
G1 X72.523 Y39.239 E17.62009
G1 X73.897 Y35.753 E17.68281
G1 F2400.000 E14.68281
G1 Z0.860 F9000.000
G92 E0
G1 X129.160 Y70.744 F9000.000
G1 Z0.260 F9000.000
G1 E3.00000 F2400.000
G1 X126.953 Y72.951 E3.05225 F1800.000
G1 X124.528 Y74.916 E3.10450
G1 X121.910 Y76.616 E3.15676
G1 X119.129 Y78.033 E3.20901
G1 X116.215 Y79.151 E3.26126
G1 X113.200 Y79.959 E3.31351
G1 X110.117 Y80.447 E3.36577
G1 X107.000 Y80.611 E3.41802
G1 X103.883 Y80.447 E3.47027
G1 X100.800 Y79.959 E3.52252
G1 X97.785 Y79.151 E3.57478
G1 X94.871 Y78.033 E3.62703
G1 X92.090 Y76.616 E3.67928
G1 X89.472 Y74.916 E3.73153
G1 X87.047 Y72.951 E3.78379
G1 X84.840 Y70.744 E3.83604
G1 X82.875 Y68.319 E3.88829
G1 X81.175 Y65.701 E3.94054
G1 X79.758 Y62.920 E3.99280
G1 X78.640 Y60.006 E4.04505
G1 X77.832 Y56.991 E4.09730
G1 X77.344 Y53.908 E4.14955
G1 X77.180 Y50.791 E4.20181
G1 X77.344 Y47.674 E4.25406
G1 X77.832 Y44.591 E4.30631
G1 X78.640 Y41.576 E4.35856
G1 X79.758 Y38.662 E4.41081
G1 X81.175 Y35.881 E4.46307
G1 X82.875 Y33.263 E4.51532
G1 X84.840 Y30.838 E4.56757
G1 X87.047 Y28.631 E4.61982
G1 X89.472 Y26.666 E4.67208
G1 X92.090 Y24.966 E4.72433
G1 X94.871 Y23.549 E4.77658
G1 X97.785 Y22.431 E4.82883
G1 X100.800 Y21.623 E4.88109
G1 X103.883 Y21.135 E4.93334
G1 X107.000 Y20.971 E4.98559
G1 X110.117 Y21.135 E5.03784
G1 X113.200 Y21.623 E5.09010
G1 X116.133 Y22.409 E5.14093
G1 X119.129 Y23.549 E5.19459
G1 X121.910 Y24.966 E5.24685
G1 X124.528 Y26.666 E5.29910
G1 X126.953 Y28.631 E5.35135
G1 X129.160 Y30.838 E5.40360
G1 X131.125 Y33.263 E5.45585
G1 X132.825 Y35.881 E5.50811
G1 X134.242 Y38.662 E5.56036
G1 X135.360 Y41.576 E5.61261
G1 X136.168 Y44.591 E5.66486
G1 X136.656 Y47.674 E5.71712
G1 X136.820 Y50.791 E5.76937
G1 X136.656 Y53.908 E5.82162
G1 X136.168 Y56.991 E5.87387
G1 X135.360 Y60.006 E5.92613
G1 X134.242 Y62.920 E5.97838
G1 X132.825 Y65.701 E6.03063
G1 X131.125 Y68.319 E6.08288
G1 X129.198 Y70.698 E6.13413
G1 X128.771 Y70.654 F9000.000
G1 X128.886 Y70.497 F9000.000
G1 X126.706 Y72.677 E6.18574 F1800.000
G1 X124.311 Y74.617 E6.23734
G1 X121.725 Y76.296 E6.28895
G1 X118.979 Y77.696 E6.34056
G1 X116.101 Y78.800 E6.39216
G1 X113.123 Y79.598 E6.44377
G1 X110.078 Y80.080 E6.49537
G1 X107.000 Y80.242 E6.54698
