; generated by Slic3r 1.1.7 on 2014-12-22 at 20:58:21

; perimeters extrusion width = 0.40mm
; infill extrusion width = 1.28mm
; solid infill extrusion width = 0.68mm
; top infill extrusion width = 0.68mm

G21 ; set units to millimeters
M190 S110 ; wait for bed temperature to be reached
M104 S245 ; set temperature
G28 ; home all axes
M109 S245 ; wait for temperature to be reached
G90 ; use absolute coordinates
G92 E0
M82 ; use absolute distances for extrusion
M106 S89
G1 F2400.000 E-3.00000
G1 Z0.720 F6000.000
G92 E0
G1 X80.187 Y63.071 F6000.000
G1 Z0.120 F6000.000
G1 E3.00000 F2400.000
G1 X81.839 Y61.005 E3.03437 F2400.000
G1 X84.031 Y59.523 E3.06875
G1 X87.808 Y58.671 E3.11905
G1 X95.088 Y58.671 E3.21363
G1 X97.703 Y59.069 E3.24801
G1 X100.083 Y60.226 E3.28238
G1 X102.709 Y63.071 E3.33269
G1 X106.349 Y69.376 E3.42727
G1 X107.312 Y71.840 E3.46164
G1 X107.518 Y73.365 E3.48163
G1 X108.370 Y91.589 E3.71866
G1 X108.095 Y94.220 E3.75304
G1 X107.201 Y96.400 E3.78365
G1 X103.411 Y102.964 E3.88213
G1 X101.759 Y105.031 E3.91650
G1 X99.567 Y106.513 E3.95088
G1 X95.790 Y107.364 E4.00118
G1 X88.210 Y107.364 E4.09966
G1 X85.594 Y106.967 E4.13403
G1 X83.215 Y105.810 E4.16841
G1 X80.589 Y102.965 E4.21871
G1 X76.799 Y96.400 E4.31719
G1 X75.836 Y93.936 E4.35157
G1 X75.621 Y92.122 E4.37530
G1 X75.369 Y73.898 E4.61209
G1 X75.730 Y71.277 E4.64647
G1 X76.547 Y69.376 E4.67335
G1 X80.157 Y63.123 E4.76715
G1 X80.533 Y63.271 F6000.000
G1 X82.154 Y61.259 E4.80073 F2400.000
G1 X84.311 Y59.834 E4.83431
G1 X87.808 Y59.071 E4.88081
G1 X95.088 Y59.071 E4.97539
G1 X97.642 Y59.469 E5.00897
G1 X99.954 Y60.624 E5.04255
G1 X102.362 Y63.271 E5.08905
G1 X106.002 Y69.576 E5.18363
G1 X106.935 Y71.987 E5.21721
G1 X107.119 Y73.384 E5.23552
G1 X107.971 Y91.608 E5.47255
G1 X107.693 Y94.177 E5.50613
G1 X106.855 Y96.200 E5.53458
G1 X103.065 Y102.764 E5.63306
G1 X101.443 Y104.777 E5.66664
G1 X99.287 Y106.202 E5.70022
G1 X95.790 Y106.964 E5.74672
G1 X88.210 Y106.964 E5.84520
G1 X85.656 Y106.567 E5.87878
G1 X83.344 Y105.412 E5.91236
G1 X80.935 Y102.765 E5.95886
G1 X77.145 Y96.200 E6.05734
G1 X76.213 Y93.790 E6.09092
G1 X76.021 Y92.116 E6.11280
G1 X75.769 Y73.892 E6.34959
G1 X76.131 Y71.333 E6.38317
G1 X76.893 Y69.576 E6.40806
G1 X80.503 Y63.323 E6.50186
G1 X80.880 Y63.471 F6000.000
G1 X82.469 Y61.513 E6.53463 F2400.000
G1 X84.589 Y60.148 E6.56739
G1 X87.808 Y59.471 E6.61012
G1 X95.088 Y59.471 E6.70471
G1 X97.578 Y59.869 E6.73747
G1 X99.821 Y61.022 E6.77024
G1 X102.016 Y63.471 E6.81297
G1 X105.656 Y69.776 E6.90755
G1 X106.557 Y72.132 E6.94032
G1 X106.719 Y73.402 E6.95696
G1 X107.571 Y91.626 E7.19399
G1 X107.291 Y94.133 E7.22675
G1 X106.508 Y96.000 E7.25306
G1 X102.718 Y102.564 E7.35154
G1 X101.129 Y104.522 E7.38431
G1 X99.009 Y105.888 E7.41707
G1 X95.790 Y106.564 E7.45980
G1 X88.210 Y106.564 E7.55829
G1 X85.720 Y106.167 E7.59105
G1 X83.477 Y105.014 E7.62382
G1 X81.282 Y102.565 E7.66655
G1 X77.492 Y96.000 E7.76503
G1 X76.591 Y93.645 E7.79779
G1 X76.421 Y92.111 E7.81784
G1 X76.169 Y73.887 E8.05464
G1 X76.532 Y71.391 E8.08740
G1 X77.240 Y69.776 E8.11031
G1 X80.850 Y63.523 E8.20412
G1 X81.226 Y63.671 F6000.000
G1 X82.783 Y61.770 E8.23605 F2400.000
G1 X84.865 Y60.464 E8.26798
G1 X87.808 Y59.871 E8.30698
G1 X95.088 Y59.871 E8.40156
G1 X97.513 Y60.269 E8.43349
G1 X99.685 Y61.419 E8.46542
G1 X101.670 Y63.671 E8.50442
G1 X105.310 Y69.976 E8.59901
G1 X106.319 Y73.421 E8.64565
G1 X107.172 Y91.645 E8.88268
G1 X106.888 Y94.086 E8.91461
G1 X106.162 Y95.800 E8.93879
G1 X102.372 Y102.364 E9.03727
G1 X100.815 Y104.266 E9.06920
G1 X98.733 Y105.572 E9.10113
G1 X95.790 Y106.164 E9.14013
G1 X88.210 Y106.164 E9.23861
G1 X85.785 Y105.767 E9.27054
G1 X83.613 Y104.617 E9.30247
G1 X81.628 Y102.365 E9.34147
G1 X77.838 Y95.800 E9.43996
G1 X76.970 Y93.501 E9.47189
G1 X76.821 Y92.105 E9.49012
G1 X76.568 Y73.881 E9.72691
G1 X76.932 Y71.451 E9.75884
G1 X77.586 Y69.976 E9.77980
G1 X81.196 Y63.723 E9.87361
G1 X81.572 Y63.871 F6000.000
G1 X83.096 Y62.028 E9.90468 F2400.000
G1 X85.139 Y60.784 E9.93575
G1 X87.808 Y60.271 E9.97106
G1 X95.088 Y60.271 E10.06565
G1 X97.446 Y60.669 E10.09672
G1 X99.544 Y61.817 E10.12779
G1 X101.323 Y63.871 E10.16310
G1 X104.963 Y70.176 E10.25769
G1 X105.920 Y73.440 E10.30187
G1 X106.772 Y91.664 E10.53890
G1 X106.486 Y94.038 E10.56997
G1 X105.815 Y95.600 E10.59205
G1 X102.025 Y102.164 E10.69054
G1 X100.502 Y104.008 E10.72161
G1 X98.459 Y105.252 E10.75268
G1 X95.790 Y105.764 E10.78799
G1 X88.210 Y105.764 E10.88647
G1 X85.852 Y105.367 E10.91755
G1 X83.753 Y104.219 E10.94862
G1 X81.975 Y102.165 E10.98393
G1 X78.185 Y95.600 E11.08241
G1 X77.349 Y93.359 E11.11348
G1 X77.221 Y92.100 E11.12993
G1 X76.968 Y73.876 E11.36672
G1 X77.333 Y71.512 E11.39780
G1 X77.932 Y70.176 E11.41682
G1 X81.542 Y63.923 E11.51062
G1 X81.919 Y64.071 F6000.000
G1 X83.407 Y62.287 E11.54081 F2400.000
G1 X85.410 Y61.108 E11.57101
G1 X87.808 Y60.671 E11.60267
G1 X95.088 Y60.671 E11.69725
G1 X97.377 Y61.069 E11.72745
G1 X99.400 Y62.213 E11.75764
G1 X100.977 Y64.071 E11.78930
G1 X104.617 Y70.376 E11.88388
G1 X105.520 Y73.458 E11.92562
G1 X106.373 Y91.682 E12.16264
G1 X106.083 Y93.988 E12.19284
G1 X105.469 Y95.400 E12.21284
G1 X101.679 Y101.964 E12.31132
G1 X100.190 Y103.749 E12.34151
G1 X98.188 Y104.928 E12.37170
G1 X95.790 Y105.364 E12.40337
G1 X88.210 Y105.364 E12.50185
G1 X85.920 Y104.967 E12.53204
G1 X83.898 Y103.823 E12.56223
G1 X82.321 Y101.965 E12.59390
G1 X78.531 Y95.400 E12.69238
G1 X77.621 Y92.094 E12.73693
G1 X77.368 Y73.870 E12.97372
G1 X77.734 Y71.575 E13.00391
G1 X78.279 Y70.376 E13.02102
G1 X81.889 Y64.123 E13.11483
G1 X82.265 Y64.271 F6000.000
G1 X83.718 Y62.548 E13.14411 F2400.000
G1 X85.678 Y61.436 E13.17339
G1 X87.808 Y61.071 E13.20146
G1 X95.088 Y61.071 E13.29604
G1 X97.306 Y61.468 E13.32533
G1 X99.250 Y62.610 E13.35461
G1 X100.630 Y64.271 E13.38268
G1 X104.270 Y70.576 E13.47726
G1 X105.121 Y73.477 E13.51654
G1 X105.973 Y91.701 E13.75357
G1 X105.680 Y93.936 E13.78285
G1 X105.123 Y95.200 E13.80080
G1 X101.333 Y101.764 E13.89928
G1 X99.880 Y103.487 E13.92856
G1 X97.919 Y104.600 E13.95785
G1 X95.790 Y104.964 E13.98591
G1 X88.210 Y104.964 E14.08440
G1 X85.991 Y104.568 E14.11368
G1 X84.048 Y103.426 E14.14296
G1 X82.667 Y101.765 E14.17103
G1 X78.877 Y95.200 E14.26951
G1 X78.021 Y92.089 E14.31144
G1 X77.768 Y73.865 E14.54823
G1 X78.135 Y71.641 E14.57751
G1 X78.625 Y70.576 E14.59274
G1 X82.235 Y64.323 E14.68655
G1 X83.733 Y65.329 F6000.000
G1 X84.440 Y64.104 E14.70493 F2400.000
G1 X86.575 Y62.871 E14.73695
G1 X96.320 Y62.871 E14.86357
G1 X98.455 Y64.104 E14.89559
G1 X103.328 Y72.544 E15.02220
G1 X103.328 Y75.009 E15.05423
G1 X99.267 Y82.043 E15.15976
G1 X99.267 Y82.257 E15.16254
G1 X104.180 Y90.767 E15.29022
G1 X104.180 Y93.233 E15.32224
G1 X99.157 Y101.932 E15.45275
G1 X97.023 Y103.164 E15.48478
G1 X86.977 Y103.164 E15.61529
G1 X84.843 Y101.932 E15.64732
G1 X79.820 Y93.233 E15.77782
G1 X79.820 Y90.767 E15.80985
G1 X84.181 Y83.214 E15.92317
G1 X84.181 Y82.999 E15.92596
G1 X79.568 Y75.009 E16.04584
G1 X79.568 Y72.544 E16.07786
G1 X83.703 Y65.381 E16.18532
G1 X84.079 Y65.529 F6000.000
G1 X84.733 Y64.397 E16.20230 F2400.000
G1 X86.682 Y63.271 E16.23155
G1 X96.213 Y63.271 E16.35537
G1 X98.162 Y64.397 E16.38461
G1 X102.928 Y72.651 E16.50844
G1 X102.928 Y74.902 E16.53768
G1 X98.805 Y82.043 E16.64482
G1 X98.805 Y82.257 E16.64760
G1 X103.780 Y90.875 E16.77688
G1 X103.780 Y93.125 E16.80613
G1 X98.865 Y101.639 E16.93385
G1 X96.915 Y102.764 E16.96309
G1 X87.085 Y102.764 E17.09082
G1 X85.135 Y101.639 E17.12006
G1 X80.220 Y93.125 E17.24778
G1 X80.220 Y90.875 E17.27702
G1 X84.643 Y83.214 E17.39195
G1 X84.643 Y82.999 E17.39474
G1 X79.968 Y74.902 E17.51622
G1 X79.968 Y72.651 E17.54547
G1 X84.049 Y65.581 E17.65153
G1 F2400.000 E14.65153
G1 Z0.720 F6000.000
G92 E0
G1 X98.253 Y82.199 F6000.000
G1 Z0.120 F6000.000
G1 E3.00000 F2400.000
G1 X98.338 Y82.519 E3.00431 F2400.000
G1 X98.572 Y82.654 E3.00781
G1 X103.380 Y90.982 E3.13274
G1 X103.380 Y93.018 E3.15920
G1 X98.572 Y101.346 E3.28414
G1 X96.808 Y102.364 E3.31060
G1 X87.192 Y102.364 E3.43554
G1 X85.428 Y101.346 E3.46199
G1 X80.620 Y93.018 E3.58693
G1 X80.620 Y90.982 E3.61339
G1 X85.105 Y83.214 E3.72993
G1 X85.105 Y82.999 E3.73271
G1 X80.368 Y74.794 E3.85581
G1 X80.368 Y72.758 E3.88226
G1 X85.026 Y64.690 E4.00331
G1 X86.790 Y63.671 E4.02976
G1 X96.106 Y63.671 E4.15080
G1 X97.870 Y64.690 E4.17726
G1 X102.528 Y72.758 E4.29830
G1 X102.528 Y74.794 E4.32476
G1 X98.283 Y82.147 E4.43507
G1 X97.706 Y82.345 F6000.000
G1 X97.792 Y82.665 E4.43937 F2400.000
G1 X98.279 Y82.947 E4.44668
G1 X102.980 Y91.089 E4.56883
G1 X102.980 Y92.911 E4.59250
G1 X98.279 Y101.053 E4.71466
G1 X96.701 Y101.964 E4.73833
G1 X87.299 Y101.964 E4.86048
G1 X85.721 Y101.053 E4.88415
G1 X81.020 Y92.911 E5.00631
G1 X81.020 Y91.089 E5.02998
G1 X85.666 Y83.041 E5.15072
G1 X85.581 Y82.721 E5.15502
G1 X85.319 Y82.570 E5.15895
G1 X80.768 Y74.687 E5.27721
G1 X80.768 Y72.865 E5.30088
G1 X85.319 Y64.982 E5.41914
G1 X86.897 Y64.071 E5.44281
G1 X95.999 Y64.071 E5.56107
G1 X97.577 Y64.982 E5.58474
G1 X102.128 Y72.865 E5.70299
G1 X102.128 Y74.687 E5.72667
G1 X97.736 Y82.293 E5.84078
G1 X97.160 Y82.492 F6000.000
G1 X97.246 Y82.812 E5.84508 F2400.000
G1 X97.986 Y83.239 E5.85619
G1 X102.580 Y91.196 E5.97556
G1 X102.580 Y92.804 E5.99645
G1 X97.986 Y100.761 E6.11582
G1 X96.594 Y101.564 E6.13670
G1 X87.406 Y101.564 E6.25607
G1 X86.014 Y100.761 E6.27696
G1 X81.420 Y92.804 E6.39633
G1 X81.420 Y91.196 E6.41722
G1 X86.014 Y83.239 E6.53658
G1 X86.246 Y83.105 E6.54007
G1 X86.246 Y82.643 E6.54607
G1 X85.612 Y82.277 E6.55559
G1 X81.168 Y74.580 E6.67106
G1 X81.168 Y72.972 E6.69195
G1 X85.612 Y65.275 E6.80742
G1 X87.004 Y64.471 E6.82831
G1 X95.892 Y64.471 E6.94378
G1 X97.284 Y65.275 E6.96467
G1 X101.728 Y72.972 E7.08014
G1 X101.728 Y74.580 E7.10103
G1 X97.190 Y82.440 E7.21894
G1 X96.402 Y82.324 F6000.000
G1 X96.402 Y82.786 E7.22494 F2400.000
G1 X97.693 Y83.532 E7.24432
G1 X102.180 Y91.303 E7.36091
G1 X102.180 Y92.697 E7.37901
G1 X97.693 Y100.468 E7.49559
G1 X96.487 Y101.164 E7.51369
G1 X87.513 Y101.164 E7.63028
G1 X86.307 Y100.468 E7.64838
G1 X81.820 Y92.697 E7.76496
G1 X81.820 Y91.303 E7.78307
G1 X86.307 Y83.532 E7.89965
G1 X87.046 Y83.105 E7.91075
G1 X87.046 Y82.643 E7.91675
G1 X85.904 Y81.984 E7.93388
G1 X81.568 Y74.473 E8.04656
G1 X81.568 Y73.079 E8.06466
G1 X85.904 Y65.568 E8.17735
G1 X87.111 Y64.871 E8.19545
G1 X95.784 Y64.871 E8.30814
G1 X96.991 Y65.568 E8.32624
G1 X101.328 Y73.079 E8.43893
G1 X101.328 Y74.473 E8.45703
G1 X96.991 Y81.984 E8.56972
G1 X96.453 Y82.294 E8.57778
G1 X96.698 Y81.691 F6000.000
G1 X95.677 Y82.281 E8.59310 F2400.000
G1 X87.218 Y82.281 E8.70300
G1 X86.197 Y81.691 E8.71832
G1 X81.968 Y74.366 E8.82822
G1 X81.968 Y73.187 E8.84354
G1 X86.197 Y65.861 E8.95344
G1 X87.218 Y65.271 E8.96875
G1 X95.677 Y65.271 E9.07866
G1 X96.698 Y65.861 E9.09397
G1 X100.928 Y73.187 E9.20387
G1 X100.928 Y74.366 E9.21919
G1 X96.728 Y81.639 E9.32831
G1 X96.405 Y81.398 F6000.000
G1 X95.570 Y81.881 E9.34085 F2400.000
G1 X87.325 Y81.881 E9.44796
G1 X86.490 Y81.398 E9.46049
G1 X82.368 Y74.258 E9.56761
G1 X82.368 Y73.294 E9.58014
G1 X86.490 Y66.154 E9.68726
G1 X87.325 Y65.671 E9.69979
G1 X95.570 Y65.671 E9.80691
G1 X96.405 Y66.154 E9.81944
G1 X100.528 Y73.294 E9.92656
G1 X100.528 Y74.258 E9.93909
G1 X96.435 Y81.347 E10.04542
G1 X96.113 Y81.106 F6000.000
G1 X95.463 Y81.481 E10.05517 F2400.000
G1 X87.433 Y81.481 E10.15950
G1 X86.783 Y81.106 E10.16925
G1 X82.768 Y74.151 E10.27358
G1 X82.768 Y73.401 E10.28333
G1 X86.783 Y66.447 E10.38766
G1 X87.433 Y66.071 E10.39741
G1 X95.463 Y66.071 E10.50174
G1 X96.113 Y66.447 E10.51149
G1 X100.128 Y73.401 E10.61582
G1 X100.128 Y74.151 E10.62556
G1 X96.143 Y81.054 E10.72912
G1 X95.820 Y80.813 F6000.000
G1 X95.356 Y81.081 E10.73608 F2400.000
G1 X87.540 Y81.081 E10.83762
G1 X87.076 Y80.813 E10.84459
G1 X83.168 Y74.044 E10.94613
G1 X83.168 Y73.508 E10.95310
G1 X87.076 Y66.739 E11.05464
G1 X87.540 Y66.471 E11.06160
G1 X95.356 Y66.471 E11.16315
G1 X95.820 Y66.739 E11.17011
G1 X99.728 Y73.508 E11.27166
G1 X99.728 Y74.044 E11.27862
G1 X95.850 Y80.761 E11.37939
G1 F2400.000 E8.37939
G1 Z0.720 F6000.000
G92 E0
G1 X87.647 Y80.681 F6000.000
G1 Z0.120 F6000.000
G1 E3.00000 F2400.000
G1 X87.369 Y80.520 E3.00418 F2400.000
G1 X83.568 Y73.937 E3.10294
G1 X83.568 Y73.615 E3.10712
G1 X87.369 Y67.032 E3.20588
G1 X87.647 Y66.871 E3.21005
G1 X95.249 Y66.871 E3.30882
G1 X95.527 Y67.032 E3.31299
G1 X99.328 Y73.615 E3.41175
G1 X99.328 Y73.937 E3.41593
G1 X95.527 Y80.520 E3.51469
G1 X95.249 Y80.681 E3.51887
G1 X87.707 Y80.681 E3.61685
G1 F2400.000 E0.61685
G1 Z0.720 F6000.000
G92 E0
G1 X83.968 Y73.830 F6000.000
G1 Z0.120 F6000.000
G1 E3.00000 F2400.000
G1 X83.968 Y73.723 E3.00139 F2400.000
G1 X87.661 Y67.325 E3.09737
G1 X87.754 Y67.271 E3.09876
G1 X95.141 Y67.271 E3.19474
G1 X95.234 Y67.325 E3.19613
G1 X98.928 Y73.723 E3.29211
G1 X98.928 Y73.830 E3.29350
G1 X95.234 Y80.227 E3.38947
G1 X95.141 Y80.281 E3.39087
G1 X87.754 Y80.281 E3.48684
G1 X87.661 Y80.227 E3.48823
G1 X83.998 Y73.882 E3.58343
G1 F2400.000 E0.58343
G1 Z0.720 F6000.000
G92 E0
G1 X87.621 Y83.236 F6000.000
G1 Z0.120 F6000.000
G1 E3.00000 F2400.000
G1 X96.379 Y83.236 E3.11380 F2400.000
G1 X97.401 Y83.825 E3.12912
G1 X101.780 Y91.411 E3.24291
G1 X101.780 Y92.589 E3.25823
G1 X97.401 Y100.175 E3.37203
G1 X96.379 Y100.764 E3.38735
G1 X87.621 Y100.764 E3.50115
G1 X86.599 Y100.175 E3.51646
G1 X82.220 Y92.589 E3.63026
G1 X82.220 Y91.411 E3.64558
G1 X86.599 Y83.825 E3.75938
G1 X87.569 Y83.266 E3.77392
G1 X87.728 Y83.636 F6000.000
G1 X96.272 Y83.636 E3.88493 F2400.000
G1 X97.108 Y84.118 E3.89746
G1 X101.380 Y91.518 E4.00848
G1 X101.380 Y92.482 E4.02101
G1 X97.108 Y99.882 E4.13202
G1 X96.272 Y100.364 E4.14456
G1 X87.728 Y100.364 E4.25557
G1 X86.892 Y99.882 E4.26810
G1 X82.620 Y92.482 E4.37912
G1 X82.620 Y91.518 E4.39165
G1 X86.892 Y84.118 E4.50266
G1 X87.676 Y83.666 E4.51442
G1 X87.835 Y84.036 F6000.000
G1 X96.165 Y84.036 E4.62264 F2400.000
G1 X96.815 Y84.411 E4.63239
G1 X100.980 Y91.625 E4.74062
G1 X100.980 Y92.375 E4.75037
G1 X96.815 Y99.589 E4.85860
G1 X96.165 Y99.964 E4.86834
G1 X87.835 Y99.964 E4.97657
G1 X87.185 Y99.589 E4.98632
G1 X83.020 Y92.375 E5.09455
G1 X83.020 Y91.625 E5.10430
G1 X87.185 Y84.411 E5.21253
G1 X87.783 Y84.066 E5.22149
G1 X87.942 Y84.436 F6000.000
G1 X96.058 Y84.436 E5.32694 F2400.000
G1 X96.522 Y84.703 E5.33390
G1 X100.580 Y91.732 E5.43934
G1 X100.580 Y92.268 E5.44631
G1 X96.522 Y99.297 E5.55175
G1 X96.058 Y99.564 E5.55871
G1 X87.942 Y99.564 E5.66416
G1 X87.478 Y99.297 E5.67112
G1 X83.420 Y92.268 E5.77656
G1 X83.420 Y91.732 E5.78352
G1 X87.478 Y84.703 E5.88897
G1 X87.890 Y84.466 E5.89515
G1 X88.049 Y84.836 F6000.000
G1 X95.951 Y84.836 E5.99781 F2400.000
G1 X96.229 Y84.996 E6.00199
G1 X100.180 Y91.839 E6.10465
G1 X100.180 Y92.161 E6.10882
G1 X96.229 Y99.004 E6.21148
G1 X95.951 Y99.164 E6.21566
G1 X88.049 Y99.164 E6.31832
G1 X87.771 Y99.004 E6.32250
G1 X83.820 Y92.161 E6.42515
G1 X83.820 Y91.839 E6.42933
G1 X87.771 Y84.996 E6.53199
G1 X87.997 Y84.866 E6.53539
G1 F2400.000 E3.53539
G1 Z0.720 F6000.000
G92 E0
G1 X84.220 Y92.054 F6000.000
G1 Z0.120 F6000.000
G1 E3.00000 F2400.000
G1 X84.220 Y91.946 E3.00139 F2400.000
G1 X88.064 Y85.289 E3.10127
G1 X88.156 Y85.236 E3.10266
G1 X95.844 Y85.236 E3.20253
G1 X95.936 Y85.289 E3.20392
G1 X99.780 Y91.946 E3.30380
G1 X99.780 Y92.054 E3.30519
G1 X95.936 Y98.711 E3.40506
G1 X95.844 Y98.764 E3.40646
G1 X88.156 Y98.764 E3.50633
G1 X88.064 Y98.711 E3.50772
G1 X84.250 Y92.106 E3.60682
G1 F2400.000 E0.60682
G1 Z0.720 F6000.000
G92 E0
G1 X98.497 Y73.776 F6000.000
G1 Z0.120 F6000.000
G1 E3.00000 F2400.000
G1 X94.972 Y79.881 E3.09158 F2400.000
G1 X87.923 Y79.881 E3.18317
G1 X84.399 Y73.776 E3.27475
G1 X87.923 Y67.671 E3.36633
G1 X94.972 Y67.671 E3.45792
G1 X98.467 Y73.724 E3.54872
G1 X98.121 Y73.913 F6000.000
G1 X98.035 Y73.776 F6000.000
G1 X94.741 Y79.481 E3.63430 F2400.000
G1 X88.154 Y79.481 E3.71988
G1 X84.861 Y73.776 E3.80547
G1 X88.154 Y68.071 E3.89105
G1 X94.741 Y68.071 E3.97663
G1 X98.005 Y73.724 E4.06143
G1 X97.573 Y73.776 F6000.000
G1 X94.510 Y79.081 E4.14101 F2400.000
