; generated by Slic3r 1.2.9 on 2017-10-18 at 07:01:07

; external perimeters extrusion width = 0.50mm
; perimeters extrusion width = 0.72mm
; infill extrusion width = 0.72mm
; solid infill extrusion width = 0.72mm
; top infill extrusion width = 0.72mm

M190 S75 ; set bed temperature
M104 S260 ; set temperature
G28 ; home all axes
M109 S260 ; wait for temperature to be reached
G21 ; set units to millimeters
G90 ; use absolute coordinates
M82 ; use absolute distances for extrusion
G92 E0
G1 E-2.00000 F2400.00000
G92 E0
G1 Z0.300 F9000.000
G1 Z0.600 F9000.000
G1 X67.121 Y72.017 F9000.000
G1 Z0.300 F9000.000
G1 E2.00000 F2400.00000
G1 X68.478 Y70.935 E2.02500 F1800.000
G1 X70.567 Y69.777 E2.05940
G1 X72.956 Y69.368 E2.09431
G1 X120.956 Y69.368 E2.78565
G1 X122.554 Y69.548 E2.80881
G1 X124.246 Y69.934 E2.83381 F1800.000
G1 X126.454 Y70.845 E2.86821
G1 X128.241 Y72.430 E2.90262
G1 X129.119 Y73.820 E2.92629
G1 X129.872 Y75.384 E2.95129
G1 X130.583 Y78.500 E2.99733
G1 X130.583 Y116.500 E3.54463
G1 X129.872 Y119.616 E3.59067
G1 X129.119 Y121.180 E3.61567
G1 X127.739 Y123.130 E3.65007
G1 X125.796 Y124.519 E3.68448
G1 X124.246 Y125.066 E3.70815
G1 X122.554 Y125.452 E3.73315
G1 X120.956 Y125.632 E3.75631
G1 X72.956 Y125.632 E4.44765
G1 X70.600 Y125.235 E4.48205
G1 X68.478 Y124.065 E4.51696
G1 X67.121 Y122.983 E4.54196
G1 X65.527 Y121.204 E4.57636
G1 X64.605 Y119.001 E4.61077
G1 X64.417 Y117.368 E4.63444
G1 X64.417 Y77.632 E5.20675
G1 X64.814 Y75.277 E5.24115
G1 X65.961 Y73.182 E5.27556
G1 X67.068 Y72.070 E5.29815
G1 X67.274 Y72.278 F9000.000
G1 X68.662 Y71.166 E5.32376 F1800.000
G1 X70.712 Y70.039 E5.35745
G1 X72.956 Y69.663 E5.39022
G1 X120.956 Y69.663 E6.08156
G1 X122.488 Y69.836 E6.10377
G1 X124.180 Y70.222 E6.12877 F1800.000
G1 X126.339 Y71.122 E6.16245
G1 X128.072 Y72.693 E6.19614
G1 X128.853 Y73.948 E6.21743
G1 X129.606 Y75.512 E6.24243
G1 X130.288 Y78.500 E6.28657
G1 X130.288 Y116.500 E6.83388
G1 X129.606 Y119.488 E6.87802
G1 X128.853 Y121.052 E6.90302
G1 X127.495 Y122.956 E6.93670
G1 X125.578 Y124.296 E6.97039
G1 X124.180 Y124.778 E6.99169
G1 X122.488 Y125.164 E7.01668
G1 X120.956 Y125.337 E7.03889
G1 X72.956 Y125.337 E7.73023
G1 X70.651 Y124.940 E7.76392
G1 X68.662 Y123.834 E7.79669
G1 X67.305 Y122.752 E7.82169
G1 X65.751 Y121.005 E7.85537
G1 X64.871 Y118.838 E7.88906
G1 X64.712 Y117.368 E7.91035
G1 X64.712 Y77.632 E8.48266
G1 X65.109 Y75.327 E8.51634
G1 X66.255 Y73.289 E8.55003
G1 X67.221 Y72.331 E8.56962
G1 X67.426 Y72.541 F9000.000
G1 X68.846 Y71.397 E8.59589 F1800.000
G1 X70.855 Y70.303 E8.62884
G1 X72.956 Y69.959 E8.65949
G1 X120.956 Y69.959 E9.35083
G1 X122.423 Y70.124 E9.37209
G1 X124.115 Y70.510 E9.39709 F1800.000
G1 X126.223 Y71.399 E9.43003
G1 X127.900 Y72.954 E9.46298
G1 X128.587 Y74.077 E9.48193
G1 X129.340 Y75.640 E9.50693
G1 X129.992 Y78.500 E9.54918
G1 X129.992 Y116.500 E10.09648
G1 X129.340 Y119.360 E10.13873
G1 X128.587 Y120.923 E10.16373
G1 X127.251 Y122.781 E10.19667
G1 X125.362 Y124.070 E10.22962
G1 X124.115 Y124.490 E10.24857
G1 X122.423 Y124.876 E10.27357
G1 X120.956 Y125.041 E10.29483
G1 X72.956 Y125.041 E10.98617
G1 X70.703 Y124.644 E11.01911
G1 X68.846 Y123.603 E11.04977
G1 X67.489 Y122.521 E11.07477
G1 X65.976 Y120.806 E11.10772
G1 X65.139 Y118.677 E11.14066
G1 X65.008 Y117.368 E11.15961
G1 X65.008 Y77.632 E11.73192
G1 X65.405 Y75.379 E11.76487
G1 X66.548 Y73.398 E11.79781
G1 X67.372 Y72.593 E11.81440
G1 X67.575 Y72.805 F9000.000
G1 X69.031 Y71.628 E11.84136 F1800.000
G1 X70.998 Y70.567 E11.87356
G1 X72.956 Y70.255 E11.90211
G1 X120.956 Y70.255 E12.59345
G1 X122.357 Y70.412 E12.61375
G1 X124.049 Y70.799 E12.63875 F1800.000
G1 X126.105 Y71.675 E12.67094
G1 X127.726 Y73.215 E12.70314
G1 X128.320 Y74.205 E12.71977
G1 X129.073 Y75.769 E12.74477
G1 X129.697 Y78.500 E12.78512
G1 X129.697 Y116.500 E13.33243
G1 X129.073 Y119.231 E13.37278
G1 X128.320 Y120.795 E13.39778
G1 X127.008 Y122.605 E13.42998
G1 X125.147 Y123.842 E13.46217
G1 X124.049 Y124.201 E13.47881
G1 X122.357 Y124.588 E13.50380
G1 X120.956 Y124.745 E13.52411
G1 X72.956 Y124.745 E14.21544
G1 X70.756 Y124.349 E14.24764
G1 X69.031 Y123.372 E14.27620
G1 X67.674 Y122.290 E14.30119
G1 X66.201 Y120.608 E14.33339
G1 X65.409 Y118.518 E14.36558
G1 X65.303 Y117.368 E14.38222
G1 X65.303 Y77.632 E14.95452
G1 X65.700 Y75.432 E14.98672
G1 X66.841 Y73.510 E15.01891
G1 X67.521 Y72.857 E15.03250
G1 E13.03250 F2400.00000
G92 E0
G1 Z0.600 F9000.000
G1 X71.779 Y77.719 F9000.000
G1 Z0.300 F9000.000
G1 E2.00000 F2400.00000
G1 X73.019 Y76.730 E2.02284 F1800.000
G1 X120.936 Y76.730 E2.71298
G1 X121.001 Y76.745 E2.71394
G1 X122.523 Y77.093 E2.73643 F1800.000
G1 X123.221 Y78.541 E2.75959
G1 X123.221 Y116.459 E3.30572
G1 X122.523 Y117.907 E3.32887
G1 X120.936 Y118.270 E3.35233
G1 X73.019 Y118.270 E4.04247
G1 X71.779 Y117.281 E4.06531
G1 X71.779 Y77.794 E4.63404
G1 X72.278 Y77.756 F9000.000
G1 X72.075 Y77.861 F9000.000
G1 X73.122 Y77.026 E4.65334 F1800.000
G1 X120.935 Y77.033 E5.34197
G1 X122.319 Y77.349 E5.36242 F1800.000
G1 X122.925 Y78.609 E5.38255
G1 X122.925 Y116.391 E5.92673
G1 X122.319 Y117.651 E5.94687
G1 X120.902 Y117.974 E5.96779
G1 X73.122 Y117.974 E6.65596
G1 X72.075 Y117.139 E6.67526
G1 X72.075 Y77.936 E7.23989
G1 E5.23989 F2400.00000
G92 E0
G1 Z0.600 F9000.000
G1 X122.630 Y103.139 F9000.000
G1 Z0.300 F9000.000
G1 E2.00000 F2400.00000
G1 X122.630 Y116.324 E2.18990 F1800.000
G1 X122.114 Y117.394 E2.20701
G1 X120.869 Y117.679 E2.22541
G1 X73.226 Y117.679 E2.91160
G1 X72.370 Y116.996 E2.92737
G1 X72.370 Y78.004 E3.48897
G1 X73.226 Y77.321 E3.50473
G1 X120.869 Y77.321 E4.19093
G1 X122.114 Y77.606 E4.20933
G1 X122.630 Y78.676 E4.22644 F1800.000
G1 X122.630 Y103.064 E4.57770
G1 E2.57770 F2400.00000
G92 E0
G1 Z0.600 F9000.000
G1 X122.046 Y77.929 F9000.000
G1 Z0.300 F9000.000
G1 E2.00000 F2400.00000
G1 X121.851 Y77.734 E2.00398 F1800.000
G1 X121.308 Y77.610 E2.01201
G1 X122.435 Y78.737 E2.03499
G1 X122.461 Y79.182 E2.04143
G1 X120.769 Y77.490 E2.07596
G1 X120.350 Y77.490 E2.08200
G1 X122.461 Y79.601 E2.12507
G1 X122.461 Y80.020 E2.13112
G1 X119.931 Y77.490 E2.18274
G1 X119.513 Y77.490 E2.18878
G1 X122.461 Y80.439 E2.24895
G1 X122.461 Y80.857 E2.25499
G1 X119.094 Y77.490 E2.32370
G1 X118.675 Y77.490 E2.32975
G1 X122.461 Y81.276 E2.40700
G1 X122.461 Y81.695 E2.41305
G1 X118.256 Y77.490 E2.49885
G1 X117.837 Y77.490 E2.50490
G1 X122.461 Y82.114 E2.59925
G1 X122.461 Y82.533 E2.60529
G1 X117.418 Y77.490 E2.70819
G1 X117.000 Y77.490 E2.71423
G1 X122.461 Y82.951 E2.82567
G1 X122.461 Y83.370 E2.83172
G1 X116.581 Y77.490 E2.95170
G1 X116.162 Y77.490 E2.95775
G1 X122.461 Y83.789 E3.08628
G1 X122.461 Y84.208 E3.09233
G1 X115.743 Y77.490 E3.22941
G1 X115.324 Y77.490 E3.23545
G1 X122.461 Y84.627 E3.38108
G1 X122.461 Y85.046 E3.38712
G1 X114.906 Y77.490 E3.54130
G1 X114.487 Y77.490 E3.54734
G1 X122.461 Y85.464 E3.71006
G1 X122.461 Y85.883 E3.71610
G1 X114.068 Y77.490 E3.88737
G1 X113.649 Y77.490 E3.89341
G1 X122.461 Y86.302 E4.07322
G1 X122.461 Y86.721 E4.07927
G1 X113.230 Y77.490 E4.26762
G1 X112.811 Y77.490 E4.27367
G1 X122.461 Y87.140 E4.47057
G1 X122.461 Y87.558 E4.47661
G1 X112.393 Y77.490 E4.68206
G1 X111.974 Y77.490 E4.68811
G1 X122.461 Y87.977 E4.90210
G1 X122.461 Y88.396 E4.90815
G1 X111.555 Y77.490 E5.13069
G1 X111.136 Y77.490 E5.13673
G1 X122.461 Y88.815 E5.36782
G1 X122.461 Y89.234 E5.37386
G1 X110.717 Y77.490 E5.61350
G1 X110.299 Y77.490 E5.61954
G1 X122.461 Y89.653 E5.86772
G1 X122.461 Y90.071 E5.87376
G1 X109.880 Y77.490 E6.13049
G1 X109.461 Y77.490 E6.13653
G1 X122.461 Y90.490 E6.40181
G1 X122.461 Y90.909 E6.40785
G1 X109.042 Y77.490 E6.68167
G1 X108.623 Y77.490 E6.68771
G1 X122.461 Y91.328 E6.97008
G1 X122.461 Y91.747 E6.97612
G1 X108.204 Y77.490 E7.26703
G1 X107.786 Y77.490 E7.27307
G1 X122.461 Y92.165 E7.57253
G1 X122.461 Y92.584 E7.57857
G1 X107.367 Y77.490 E7.88658
G1 X106.948 Y77.490 E7.89262
G1 X122.461 Y93.003 E8.20917
G1 X122.461 Y93.422 E8.21521
G1 X106.529 Y77.490 E8.54031
G1 X106.110 Y77.490 E8.54635
G1 X122.461 Y93.841 E8.87999
G1 X122.461 Y94.260 E8.88604
G1 X105.692 Y77.490 E9.22822
G1 X105.273 Y77.490 E9.23427
G1 X122.461 Y94.678 E9.58500
G1 X122.461 Y95.097 E9.59104
G1 X104.854 Y77.490 E9.95032
G1 X104.435 Y77.490 E9.95637
G1 X122.461 Y95.516 E10.32419
G1 X122.461 Y95.935 E10.33024
G1 X104.016 Y77.490 E10.70661
G1 X103.597 Y77.490 E10.71265
G1 X122.461 Y96.354 E11.09757
G1 X122.461 Y96.772 E11.10361
G1 X103.179 Y77.490 E11.49708
G1 X102.760 Y77.490 E11.50312
G1 X122.461 Y97.191 E11.90513
G1 X122.461 Y97.610 E11.91117
G1 X102.341 Y77.490 E12.32173
G1 X101.922 Y77.490 E12.32777
G1 X122.461 Y98.029 E12.74688
G1 X122.461 Y98.448 E12.75292
G1 X101.503 Y77.490 E13.18057
G1 X101.085 Y77.490 E13.18661
G1 X122.461 Y98.867 E13.62280
G1 X122.461 Y99.285 E13.62885
G1 X100.666 Y77.490 E14.07359
G1 X100.247 Y77.490 E14.07963
G1 X122.461 Y99.704 E14.53292
G1 X122.461 Y100.123 E14.53896
G1 X99.828 Y77.490 E15.00079
G1 X99.409 Y77.490 E15.00684
G1 X122.461 Y100.542 E15.47722
G1 X122.461 Y100.961 E15.48326
G1 X98.990 Y77.490 E15.96218
G1 X98.572 Y77.490 E15.96823
G1 X122.461 Y101.379 E16.45570
G1 X122.461 Y101.798 E16.46174
G1 X98.153 Y77.490 E16.95776
G1 X97.734 Y77.490 E16.96380
G1 X122.461 Y102.217 E17.46837
G1 X122.461 Y102.636 E17.47441
G1 X97.315 Y77.490 E17.98752
G1 X96.896 Y77.490 E17.99356
G1 X122.461 Y103.055 E18.51522
G1 X122.461 Y103.474 E18.52126
G1 X96.478 Y77.490 E19.05146
G1 X96.059 Y77.490 E19.05750
G1 X122.461 Y103.892 E19.59625
G1 X122.461 Y104.311 E19.60230
G1 X95.640 Y77.490 E20.14959
G1 X95.221 Y77.490 E20.15563
G1 X122.461 Y104.730 E20.71147
G1 X122.461 Y105.149 E20.71752
G1 X94.802 Y77.490 E21.28190
G1 X94.383 Y77.490 E21.28794
G1 X122.461 Y105.568 E21.86088
G1 X122.461 Y105.986 E21.86692
G1 X93.965 Y77.490 E22.44840
G1 X93.546 Y77.490 E22.45444
G1 X122.461 Y106.405 E23.04447
G1 X122.461 Y106.824 E23.05051
G1 X93.127 Y77.490 E23.64908
G1 X92.708 Y77.490 E23.65512
G1 X122.461 Y107.243 E24.26224
G1 X122.461 Y107.662 E24.26828
G1 X92.289 Y77.490 E24.88394
G1 X91.871 Y77.490 E24.88999
G1 X122.461 Y108.081 E25.51420
G1 X122.461 Y108.499 E25.52024
G1 X91.452 Y77.490 E26.15299
G1 X91.033 Y77.490 E26.15904
G1 X122.461 Y108.918 E26.80034
G1 X122.461 Y109.337 E26.80638
G1 X90.614 Y77.490 E27.45623
G1 X90.195 Y77.490 E27.46227
G1 X122.461 Y109.756 E28.12066
G1 X122.461 Y110.175 E28.12671
G1 X89.776 Y77.490 E28.79365
G1 X89.358 Y77.490 E28.79969
G1 X122.461 Y110.593 E29.47517
G1 X122.461 Y111.012 E29.48122
G1 X88.939 Y77.490 E30.16525
G1 X88.520 Y77.490 E30.17129
G1 X122.461 Y111.431 E30.86387
G1 X122.461 Y111.850 E30.86991
G1 X88.101 Y77.490 E31.57104
G1 X87.682 Y77.490 E31.57708
G1 X122.461 Y112.269 E32.28675
G1 X122.461 Y112.688 E32.29279
G1 X87.264 Y77.490 E33.01101
G1 X86.845 Y77.490 E33.01705
G1 X122.461 Y113.106 E33.74381
G1 X122.461 Y113.525 E33.74986
G1 X86.426 Y77.490 E34.48516
G1 X86.007 Y77.490 E34.49121
G1 X122.461 Y113.944 E35.23506
G1 X122.461 Y114.363 E35.24110
G1 X85.588 Y77.490 E35.99350
G1 X85.169 Y77.490 E35.99955
G1 X122.461 Y114.782 E36.76049
G1 X122.461 Y115.200 E36.76654
G1 X84.751 Y77.490 E37.53603
G1 X84.332 Y77.490 E37.54207
G1 X122.461 Y115.619 E38.32011
G1 X122.461 Y116.038 E38.32615
G1 X83.913 Y77.490 E39.11274
G1 X83.494 Y77.490 E39.11878
G1 X122.421 Y116.417 E39.91309
G1 X122.285 Y116.700 E39.91762
G1 X83.075 Y77.490 E40.71770
G1 X82.657 Y77.490 E40.72375
G1 X122.149 Y116.982 E41.52960
G1 X121.995 Y117.247 E41.53402
G1 X82.238 Y77.490 E42.34528
G1 X81.819 Y77.490 E42.35132
G1 X121.666 Y117.337 E43.16440
G1 X121.325 Y117.414 E43.16945
G1 X81.400 Y77.490 E43.98412
G1 X80.981 Y77.490 E43.99016
G1 X120.984 Y117.492 E44.80642
G1 X120.583 Y117.510 E44.81221
G1 X80.562 Y77.490 E45.62883
G1 X80.144 Y77.490 E45.63487
G1 X120.164 Y117.510 E46.45149
G1 X119.745 Y117.510 E46.45754
G1 X79.725 Y77.490 E47.27416
G1 X79.306 Y77.490 E47.28020
G1 X119.326 Y117.510 E48.09682
G1 X118.907 Y117.510 E48.10286
G1 X78.887 Y77.490 E48.91949
G1 X78.468 Y77.490 E48.92553
G1 X118.489 Y117.510 E49.74215
G1 X118.070 Y117.510 E49.74819
G1 X78.050 Y77.490 E50.56481
G1 X77.631 Y77.490 E50.57086
G1 X117.651 Y117.510 E51.38748
G1 X117.232 Y117.510 E51.39352
G1 X77.212 Y77.490 E52.21014
G1 X76.793 Y77.490 E52.21618
G1 X116.813 Y117.510 E53.03280
G1 X116.394 Y117.510 E53.03885
G1 X76.374 Y77.490 E53.85547
G1 X75.955 Y77.490 E53.86151
G1 X115.976 Y117.510 E54.67813
G1 X115.557 Y117.510 E54.68418
G1 X75.537 Y77.490 E55.50080
G1 X75.118 Y77.490 E55.50684
G1 X115.138 Y117.510 E56.32346
G1 X114.719 Y117.510 E56.32950
G1 X74.699 Y77.490 E57.14612
G1 X74.280 Y77.490 E57.15217
G1 X114.300 Y117.510 E57.96879
G1 X113.882 Y117.510 E57.97483
G1 X73.861 Y77.490 E58.79145
G1 X73.443 Y77.490 E58.79749
G1 X113.463 Y117.510 E59.61412
G1 X113.044 Y117.510 E59.62016
G1 X73.121 Y77.588 E60.43478
G1 X72.888 Y77.773 E60.43908
G1 X112.625 Y117.510 E61.24992
G1 X112.206 Y117.510 E61.25596
G1 X72.658 Y77.962 E62.06294
G1 X72.539 Y78.261 E62.06759
G1 X111.787 Y117.510 E62.86847
G1 X111.369 Y117.510 E62.87451
G1 X72.539 Y78.680 E63.66685
G1 X72.539 Y79.099 E63.67289
G1 X110.950 Y117.510 E64.45667
G1 X110.531 Y117.510 E64.46272
G1 X72.539 Y79.518 E65.23795
G1 X72.539 Y79.937 E65.24400
G1 X110.112 Y117.510 E66.01069
G1 X109.693 Y117.510 E66.01673
G1 X72.539 Y80.356 E66.77488
G1 X72.539 Y80.774 E66.78092
G1 X109.275 Y117.510 E67.53052
G1 X108.856 Y117.510 E67.53657
G1 X72.539 Y81.193 E68.27762
G1 X72.539 Y81.612 E68.28366
G1 X108.437 Y117.510 E69.01617
G1 X108.018 Y117.510 E69.02221
G1 X72.539 Y82.031 E69.74618
G1 X72.539 Y82.450 E69.75222
G1 X107.599 Y117.510 E70.46764
G1 X107.180 Y117.510 E70.47368
G1 X72.539 Y82.868 E71.18055
G1 X72.539 Y83.287 E71.18659
G1 X106.762 Y117.510 E71.88492
G1 X106.343 Y117.510 E71.89096
G1 X72.539 Y83.706 E72.58074
G1 X72.539 Y84.125 E72.58678
G1 X105.924 Y117.510 E73.26801
G1 X105.505 Y117.510 E73.27405
G1 X72.539 Y84.544 E73.94674
G1 X72.539 Y84.963 E73.95278
G1 X105.086 Y117.510 E74.61692
G1 X104.668 Y117.510 E74.62297
G1 X72.539 Y85.381 E75.27856
G1 X72.539 Y85.800 E75.28460
G1 X104.249 Y117.510 E75.93165
G1 X103.830 Y117.510 E75.93769
G1 X72.539 Y86.219 E76.57619
G1 X72.539 Y86.638 E76.58224
G1 X103.411 Y117.510 E77.21219
G1 X102.992 Y117.510 E77.21824
G1 X72.539 Y87.057 E77.83964
G1 X72.539 Y87.475 E77.84569
G1 X102.573 Y117.510 E78.45855
G1 X102.155 Y117.510 E78.46459
G1 X72.539 Y87.894 E79.06891
G1 X72.539 Y88.313 E79.07495
G1 X101.736 Y117.510 E79.67072
G1 X101.317 Y117.510 E79.67677
G1 X72.539 Y88.732 E80.26399
G1 X72.539 Y89.151 E80.27003
G1 X100.898 Y117.510 E80.84871
G1 X100.479 Y117.510 E80.85476
G1 X72.539 Y89.570 E81.42489
G1 X72.539 Y89.988 E81.43093
G1 X100.061 Y117.510 E81.99252
G1 X99.642 Y117.510 E81.99856
G1 X72.539 Y90.407 E82.55160
G1 X72.539 Y90.826 E82.55764
G1 X99.223 Y117.510 E83.10214
G1 X98.804 Y117.510 E83.10818
G1 X72.539 Y91.245 E83.64413
G1 X72.539 Y91.664 E83.65017
G1 X98.385 Y117.510 E84.17757
G1 X97.966 Y117.510 E84.18362
G1 X72.539 Y92.082 E84.70247
G1 X72.539 Y92.501 E84.70852
G1 X97.548 Y117.510 E85.21883
G1 X97.129 Y117.510 E85.22487
G1 X72.539 Y92.920 E85.72663
G1 X72.539 Y93.339 E85.73268
G1 X96.710 Y117.510 E86.22589
G1 X96.291 Y117.510 E86.23194
G1 X72.539 Y93.758 E86.71661
G1 X72.539 Y94.177 E86.72265
G1 X95.872 Y117.510 E87.19878
G1 X95.454 Y117.510 E87.20482
G1 X72.539 Y94.595 E87.67240
G1 X72.539 Y95.014 E87.67844
G1 X95.035 Y117.510 E88.13748
G1 X94.616 Y117.510 E88.14352
G1 X72.539 Y95.433 E88.59401
G1 X72.539 Y95.852 E88.60005
G1 X94.197 Y117.510 E89.04199
G1 X93.778 Y117.510 E89.04803
G1 X72.539 Y96.271 E89.48143
G1 X72.539 Y96.689 E89.48747
G1 X93.359 Y117.510 E89.91232
G1 X92.941 Y117.510 E89.91836
G1 X72.539 Y97.108 E90.33467
G1 X72.539 Y97.527 E90.34071
G1 X92.522 Y117.510 E90.74847
G1 X92.103 Y117.510 E90.75451
G1 X72.539 Y97.946 E91.15372
G1 X72.539 Y98.365 E91.15976
G1 X91.684 Y117.510 E91.55043
G1 X91.265 Y117.510 E91.55647
G1 X72.539 Y98.784 E91.93859
G1 X72.539 Y99.202 E91.94463
G1 X90.846 Y117.510 E92.31820
G1 X90.428 Y117.510 E92.32425
G1 X72.539 Y99.621 E92.68927
G1 X72.539 Y100.040 E92.69532
G1 X90.009 Y117.510 E93.05180
G1 X89.590 Y117.510 E93.05784
