; generated by Slic3r 1.2.9 on 2017-10-18 at 07:20:13

; external perimeters extrusion width = 0.50mm
; perimeters extrusion width = 0.72mm
; infill extrusion width = 0.72mm
; solid infill extrusion width = 0.72mm
; top infill extrusion width = 0.72mm

M190 S75 ; set bed temperature
M104 S260 ; set temperature
G28 ; home all axes
M109 S260 ; wait for temperature to be reached
G21 ; set units to millimeters
G90 ; use absolute coordinates
M82 ; use absolute distances for extrusion
G92 E0
G1 E-2.00000 F2400.00000
G92 E0
G1 Z0.300 F9000.000
G1 Z0.600 F9000.000
G1 X67.121 Y72.017 F9000.000
G1 Z0.300 F9000.000
G1 E2.00000 F2400.00000
G1 X68.478 Y70.935 E2.02500 F1800.000
G1 X70.567 Y69.777 E2.05940
G1 X72.956 Y69.368 E2.09431
G1 X120.956 Y69.368 E2.78565
G1 X122.554 Y69.548 E2.80881
G1 X124.246 Y69.934 E2.83381 F1800.000
G1 X126.454 Y70.845 E2.86821
G1 X128.241 Y72.430 E2.90262
G1 X129.119 Y73.820 E2.92629
G1 X129.872 Y75.384 E2.95129
G1 X130.583 Y78.500 E2.99733
G1 X130.583 Y116.500 E3.54463
G1 X129.872 Y119.616 E3.59067
G1 X129.119 Y121.180 E3.61567
G1 X127.739 Y123.130 E3.65007
G1 X125.796 Y124.519 E3.68448
G1 X124.246 Y125.066 E3.70815
G1 X122.554 Y125.452 E3.73315
G1 X120.956 Y125.632 E3.75631
G1 X72.956 Y125.632 E4.44765
G1 X70.600 Y125.235 E4.48205
G1 X68.478 Y124.065 E4.51696
G1 X67.121 Y122.983 E4.54196
G1 X65.527 Y121.204 E4.57636
G1 X64.605 Y119.001 E4.61077
G1 X64.417 Y117.368 E4.63444
G1 X64.417 Y77.632 E5.20675
G1 X64.814 Y75.277 E5.24115
G1 X65.961 Y73.182 E5.27556
G1 X67.068 Y72.070 E5.29815
G1 X67.274 Y72.278 F9000.000
G1 X68.662 Y71.166 E5.32376 F1800.000
G1 X70.712 Y70.039 E5.35745
G1 X72.956 Y69.663 E5.39022
G1 X120.956 Y69.663 E6.08156
G1 X122.488 Y69.836 E6.10377
G1 X124.180 Y70.222 E6.12877 F1800.000
G1 X126.339 Y71.122 E6.16245
G1 X128.072 Y72.693 E6.19614
G1 X128.853 Y73.948 E6.21743
G1 X129.606 Y75.512 E6.24243
G1 X130.288 Y78.500 E6.28657
G1 X130.288 Y116.500 E6.83388
G1 X129.606 Y119.488 E6.87802
G1 X128.853 Y121.052 E6.90302
G1 X127.495 Y122.956 E6.93670
G1 X125.578 Y124.296 E6.97039
G1 X124.180 Y124.778 E6.99169
G1 X122.488 Y125.164 E7.01668
G1 X120.956 Y125.337 E7.03889
G1 X72.956 Y125.337 E7.73023
G1 X70.651 Y124.940 E7.76392
G1 X68.662 Y123.834 E7.79669
G1 X67.305 Y122.752 E7.82169
G1 X65.751 Y121.005 E7.85537
G1 X64.871 Y118.838 E7.88906
G1 X64.712 Y117.368 E7.91035
G1 X64.712 Y77.632 E8.48266
G1 X65.109 Y75.327 E8.51634
G1 X66.255 Y73.289 E8.55003
G1 X67.221 Y72.331 E8.56962
G1 X67.426 Y72.541 F9000.000
G1 X68.846 Y71.397 E8.59589 F1800.000
G1 X70.855 Y70.303 E8.62884
G1 X72.956 Y69.959 E8.65949
G1 X120.956 Y69.959 E9.35083
G1 X122.423 Y70.124 E9.37209
G1 X124.115 Y70.510 E9.39709 F1800.000
G1 X126.223 Y71.399 E9.43003
G1 X127.900 Y72.954 E9.46298
G1 X128.587 Y74.077 E9.48193
G1 X129.340 Y75.640 E9.50693
G1 X129.992 Y78.500 E9.54918
G1 X129.992 Y116.500 E10.09648
G1 X129.340 Y119.360 E10.13873
G1 X128.587 Y120.923 E10.16373
G1 X127.251 Y122.781 E10.19667
G1 X125.362 Y124.070 E10.22962
G1 X124.115 Y124.490 E10.24857
G1 X122.423 Y124.876 E10.27357
G1 X120.956 Y125.041 E10.29483
G1 X72.956 Y125.041 E10.98617
G1 X70.703 Y124.644 E11.01911
G1 X68.846 Y123.603 E11.04977
G1 X67.489 Y122.521 E11.07477
G1 X65.976 Y120.806 E11.10772
G1 X65.139 Y118.677 E11.14066
G1 X65.008 Y117.368 E11.15961
G1 X65.008 Y77.632 E11.73192
G1 X65.405 Y75.379 E11.76487
G1 X66.548 Y73.398 E11.79781
G1 X67.372 Y72.593 E11.81440
G1 X67.575 Y72.805 F9000.000
G1 X69.031 Y71.628 E11.84136 F1800.000
G1 X70.998 Y70.567 E11.87356
G1 X72.956 Y70.255 E11.90211
G1 X120.956 Y70.255 E12.59345
G1 X122.357 Y70.412 E12.61375
G1 X124.049 Y70.799 E12.63875 F1800.000
G1 X126.105 Y71.675 E12.67094
G1 X127.726 Y73.215 E12.70314
G1 X128.320 Y74.205 E12.71977
G1 X129.073 Y75.769 E12.74477
G1 X129.697 Y78.500 E12.78512
G1 X129.697 Y116.500 E13.33243
G1 X129.073 Y119.231 E13.37278
G1 X128.320 Y120.795 E13.39778
G1 X127.008 Y122.605 E13.42998
G1 X125.147 Y123.842 E13.46217
G1 X124.049 Y124.201 E13.47881
G1 X122.357 Y124.588 E13.50380
G1 X120.956 Y124.745 E13.52411
G1 X72.956 Y124.745 E14.21544
G1 X70.756 Y124.349 E14.24764
G1 X69.031 Y123.372 E14.27620
G1 X67.674 Y122.290 E14.30119
G1 X66.201 Y120.608 E14.33339
G1 X65.409 Y118.518 E14.36558
G1 X65.303 Y117.368 E14.38222
G1 X65.303 Y77.632 E14.95452
G1 X65.700 Y75.432 E14.98672
G1 X66.841 Y73.510 E15.01891
G1 X67.521 Y72.857 E15.03250
G1 E13.03250 F2400.00000
G92 E0
G1 Z0.600 F9000.000
G1 X71.779 Y77.719 F9000.000
G1 Z0.300 F9000.000
G1 E2.00000 F2400.00000
G1 X73.019 Y76.730 E2.02284 F1800.000
G1 X120.936 Y76.730 E2.71298
G1 X121.001 Y76.745 E2.71394
G1 X122.523 Y77.093 E2.73643 F1800.000
G1 X123.221 Y78.541 E2.75959
G1 X123.221 Y116.459 E3.30572
G1 X122.523 Y117.907 E3.32887
G1 X120.936 Y118.270 E3.35233
G1 X73.019 Y118.270 E4.04247
G1 X71.779 Y117.281 E4.06531
G1 X71.779 Y77.794 E4.63404
G1 X72.278 Y77.756 F9000.000
G1 X72.075 Y77.861 F9000.000
G1 X73.122 Y77.026 E4.65334 F1800.000
G1 X120.935 Y77.033 E5.34197
G1 X122.319 Y77.349 E5.36242 F1800.000
G1 X122.925 Y78.609 E5.38255
G1 X122.925 Y116.391 E5.92673
G1 X122.319 Y117.651 E5.94687
G1 X120.902 Y117.974 E5.96779
G1 X73.122 Y117.974 E6.65596
G1 X72.075 Y117.139 E6.67526
G1 X72.075 Y77.936 E7.23989
G1 E5.23989 F2400.00000
G92 E0
G1 Z0.600 F9000.000
G1 X102.084 Y117.679 F9000.000
G1 Z0.300 F9000.000
G1 E2.00000 F2400.00000
G1 X73.226 Y117.679 E2.41564 F1800.000
G1 X72.370 Y116.996 E2.43140
G1 X72.370 Y78.004 E2.99301
G1 X73.226 Y77.321 E3.00877
G1 X120.869 Y77.321 E3.69497
G1 X122.114 Y77.606 E3.71336
G1 X122.630 Y78.676 E3.73048 F1800.000
G1 X122.630 Y116.324 E4.27271
G1 X122.114 Y117.394 E4.28983
G1 X120.869 Y117.679 E4.30822
G1 X102.159 Y117.679 E4.57770
G1 E2.57770 F2400.00000
G92 E0
G1 Z0.600 F9000.000
G1 X72.810 Y117.064 F9000.000
G1 Z0.300 F9000.000
G1 E2.00000 F2400.00000
G1 X72.539 Y116.793 E2.00553 F1800.000
G1 X72.539 Y116.374 E2.01157
G1 X73.675 Y117.510 E2.03476
G1 X74.094 Y117.510 E2.04080
G1 X72.539 Y115.955 E2.07253
G1 X72.539 Y115.536 E2.07857
G1 X74.513 Y117.510 E2.11885
G1 X74.931 Y117.510 E2.12489
G1 X72.539 Y115.118 E2.17371
G1 X72.539 Y114.699 E2.17975
G1 X75.350 Y117.510 E2.23712
G1 X75.769 Y117.510 E2.24316
G1 X72.539 Y114.280 E2.30908
G1 X72.539 Y113.861 E2.31512
G1 X76.188 Y117.510 E2.38958
G1 X76.607 Y117.510 E2.39562
G1 X72.539 Y113.442 E2.47863
G1 X72.539 Y113.023 E2.48467
G1 X77.025 Y117.510 E2.57622
G1 X77.444 Y117.510 E2.58226
G1 X72.539 Y112.605 E2.68236
G1 X72.539 Y112.186 E2.68840
G1 X77.863 Y117.510 E2.79705
G1 X78.282 Y117.510 E2.80309
G1 X72.539 Y111.767 E2.92028
G1 X72.539 Y111.348 E2.92632
G1 X78.701 Y117.510 E3.05206
G1 X79.120 Y117.510 E3.05810
G1 X72.539 Y110.929 E3.19238
G1 X72.539 Y110.511 E3.19843
G1 X79.538 Y117.510 E3.34126
G1 X79.957 Y117.510 E3.34730
G1 X72.539 Y110.092 E3.49867
G1 X72.539 Y109.673 E3.50472
G1 X80.376 Y117.510 E3.66464
G1 X80.795 Y117.510 E3.67068
G1 X72.539 Y109.254 E3.83914
G1 X72.539 Y108.835 E3.84519
G1 X81.214 Y117.510 E4.02220
G1 X81.632 Y117.510 E4.02824
G1 X72.539 Y108.416 E4.21380
G1 X72.539 Y107.998 E4.21984
G1 X82.051 Y117.510 E4.41395
G1 X82.470 Y117.510 E4.41999
G1 X72.539 Y107.579 E4.62264
G1 X72.539 Y107.160 E4.62869
G1 X82.889 Y117.510 E4.83988
G1 X83.308 Y117.510 E4.84593
G1 X72.539 Y106.741 E5.06567
G1 X72.539 Y106.322 E5.07171
G1 X83.727 Y117.510 E5.30000
G1 X84.145 Y117.510 E5.30604
G1 X72.539 Y105.904 E5.54288
G1 X72.539 Y105.485 E5.54892
G1 X84.564 Y117.510 E5.79430
G1 X84.983 Y117.510 E5.80034
G1 X72.539 Y105.066 E6.05427
G1 X72.539 Y104.647 E6.06031
G1 X85.402 Y117.510 E6.32279
G1 X85.821 Y117.510 E6.32883
G1 X72.539 Y104.228 E6.59985
G1 X72.539 Y103.809 E6.60589
G1 X86.239 Y117.510 E6.88546
G1 X86.658 Y117.510 E6.89150
G1 X72.539 Y103.391 E7.17961
G1 X72.539 Y102.972 E7.18566
G1 X87.077 Y117.510 E7.48231
G1 X87.496 Y117.510 E7.48836
G1 X72.539 Y102.553 E7.79356
G1 X72.539 Y102.134 E7.79960
G1 X87.915 Y117.510 E8.11335
G1 X88.334 Y117.510 E8.11940
G1 X72.539 Y101.715 E8.44169
G1 X72.539 Y101.296 E8.44774
G1 X88.752 Y117.510 E8.77858
G1 X89.171 Y117.510 E8.78462
G1 X72.539 Y100.878 E9.12401
G1 X72.539 Y100.459 E9.13005
G1 X89.590 Y117.510 E9.47799
G1 X90.009 Y117.510 E9.48403
G1 X72.539 Y100.040 E9.84051
G1 X72.539 Y99.621 E9.84655
G1 X90.428 Y117.510 E10.21158
G1 X90.846 Y117.510 E10.21762
G1 X72.539 Y99.202 E10.59119
G1 X72.539 Y98.784 E10.59724
G1 X91.265 Y117.510 E10.97935
G1 X91.684 Y117.510 E10.98540
G1 X72.539 Y98.365 E11.37606
G1 X72.539 Y97.946 E11.38211
G1 X92.103 Y117.510 E11.78132
G1 X92.522 Y117.510 E11.78736
G1 X72.539 Y97.527 E12.19512
G1 X72.539 Y97.108 E12.20116
G1 X92.941 Y117.510 E12.61746
G1 X93.359 Y117.510 E12.62350
G1 X72.539 Y96.689 E13.04835
G1 X72.539 Y96.271 E13.05440
G1 X93.778 Y117.510 E13.48779
G1 X94.197 Y117.510 E13.49383
G1 X72.539 Y95.852 E13.93578
G1 X72.539 Y95.433 E13.94182
G1 X94.616 Y117.510 E14.39231
G1 X95.035 Y117.510 E14.39835
G1 X72.539 Y95.014 E14.85738
G1 X72.539 Y94.595 E14.86343
G1 X95.454 Y117.510 E15.33101
G1 X95.872 Y117.510 E15.33705
G1 X72.539 Y94.177 E15.81317
G1 X72.539 Y93.758 E15.81922
G1 X96.291 Y117.510 E16.30389
G1 X96.710 Y117.510 E16.30993
G1 X72.539 Y93.339 E16.80315
G1 X72.539 Y92.920 E16.80919
G1 X97.129 Y117.510 E17.31096
G1 X97.548 Y117.510 E17.31700
G1 X72.539 Y92.501 E17.82731
G1 X72.539 Y92.082 E17.83335
G1 X97.966 Y117.510 E18.35221
G1 X98.385 Y117.510 E18.35825
G1 X72.539 Y91.664 E18.88565
G1 X72.539 Y91.245 E18.89170
G1 X98.804 Y117.510 E19.42764
G1 X99.223 Y117.510 E19.43369
G1 X72.539 Y90.826 E19.97818
G1 X72.539 Y90.407 E19.98422
G1 X99.642 Y117.510 E20.53726
G1 X100.061 Y117.510 E20.54331
G1 X72.539 Y89.988 E21.10489
G1 X72.539 Y89.570 E21.11094
G1 X100.479 Y117.510 E21.68107
G1 X100.898 Y117.510 E21.68711
G1 X72.539 Y89.151 E22.26579
G1 X72.539 Y88.732 E22.27183
G1 X101.317 Y117.510 E22.85906
G1 X101.736 Y117.510 E22.86510
G1 X72.539 Y88.313 E23.46087
G1 X72.539 Y87.894 E23.46692
G1 X102.155 Y117.510 E24.07123
G1 X102.573 Y117.510 E24.07728
G1 X72.539 Y87.475 E24.69014
G1 X72.539 Y87.057 E24.69618
G1 X102.992 Y117.510 E25.31759
G1 X103.411 Y117.510 E25.32363
G1 X72.539 Y86.638 E25.95359
G1 X72.539 Y86.219 E25.95963
G1 X103.830 Y117.510 E26.59813
G1 X104.249 Y117.510 E26.60418
G1 X72.539 Y85.800 E27.25122
G1 X72.539 Y85.381 E27.25727
G1 X104.668 Y117.510 E27.91286
G1 X105.086 Y117.510 E27.91890
G1 X72.539 Y84.963 E28.58304
G1 X72.539 Y84.544 E28.58909
G1 X105.505 Y117.510 E29.26177
G1 X105.924 Y117.510 E29.26781
G1 X72.539 Y84.125 E29.94905
G1 X72.539 Y83.706 E29.95509
G1 X106.343 Y117.510 E30.64487
G1 X106.762 Y117.510 E30.65091
G1 X72.539 Y83.287 E31.34923
G1 X72.539 Y82.868 E31.35528
G1 X107.180 Y117.510 E32.06215
G1 X107.599 Y117.510 E32.06819
G1 X72.539 Y82.450 E32.78361
G1 X72.539 Y82.031 E32.78965
G1 X108.018 Y117.510 E33.51361
G1 X108.437 Y117.510 E33.51965
G1 X72.539 Y81.612 E34.25216
G1 X72.539 Y81.193 E34.25821
G1 X108.856 Y117.510 E34.99926
G1 X109.275 Y117.510 E35.00530
G1 X72.539 Y80.774 E35.75490
G1 X72.539 Y80.356 E35.76095
G1 X109.693 Y117.510 E36.51909
G1 X110.112 Y117.510 E36.52514
G1 X72.539 Y79.937 E37.29183
G1 X72.539 Y79.518 E37.29787
G1 X110.531 Y117.510 E38.07311
G1 X110.950 Y117.510 E38.07915
G1 X72.539 Y79.099 E38.86294
G1 X72.539 Y78.680 E38.86898
G1 X111.369 Y117.510 E39.66131
G1 X111.787 Y117.510 E39.66735
G1 X72.539 Y78.261 E40.46823
G1 X72.658 Y77.962 E40.47288
G1 X112.206 Y117.510 E41.27986
G1 X112.625 Y117.510 E41.28591
G1 X72.888 Y77.773 E42.09674
G1 X73.121 Y77.588 E42.10104
G1 X113.044 Y117.510 E42.91567
G1 X113.463 Y117.510 E42.92171
G1 X73.443 Y77.490 E43.73833
G1 X73.861 Y77.490 E43.74437
G1 X113.882 Y117.510 E44.56100
G1 X114.300 Y117.510 E44.56704
G1 X74.280 Y77.490 E45.38366
G1 X74.699 Y77.490 E45.38970
G1 X114.719 Y117.510 E46.20632
G1 X115.138 Y117.510 E46.21237
G1 X75.118 Y77.490 E47.02899
G1 X75.537 Y77.490 E47.03503
G1 X115.557 Y117.510 E47.85165
G1 X115.976 Y117.510 E47.85769
G1 X75.955 Y77.490 E48.67431
G1 X76.374 Y77.490 E48.68036
G1 X116.394 Y117.510 E49.49698
G1 X116.813 Y117.510 E49.50302
G1 X76.793 Y77.490 E50.31964
G1 X77.212 Y77.490 E50.32568
G1 X117.232 Y117.510 E51.14231
G1 X117.651 Y117.510 E51.14835
G1 X77.631 Y77.490 E51.96497
G1 X78.050 Y77.490 E51.97101
G1 X118.070 Y117.510 E52.78763
G1 X118.489 Y117.510 E52.79368
G1 X78.468 Y77.490 E53.61030
G1 X78.887 Y77.490 E53.61634
G1 X118.907 Y117.510 E54.43296
G1 X119.326 Y117.510 E54.43900
G1 X79.306 Y77.490 E55.25562
G1 X79.725 Y77.490 E55.26167
G1 X119.745 Y117.510 E56.07829
G1 X120.164 Y117.510 E56.08433
G1 X80.144 Y77.490 E56.90095
G1 X80.562 Y77.490 E56.90700
G1 X120.583 Y117.510 E57.72362
G1 X120.984 Y117.492 E57.72941
G1 X80.981 Y77.490 E58.54567
G1 X81.400 Y77.490 E58.55171
G1 X121.325 Y117.414 E59.36638
G1 X121.666 Y117.337 E59.37143
G1 X81.819 Y77.490 E60.18451
G1 X82.238 Y77.490 E60.19055
G1 X121.995 Y117.247 E61.00181
G1 X122.149 Y116.982 E61.00623
G1 X82.657 Y77.490 E61.81208
G1 X83.075 Y77.490 E61.81812
G1 X122.285 Y116.700 E62.61820
G1 X122.421 Y116.417 E62.62273
G1 X83.494 Y77.490 E63.41705
G1 X83.913 Y77.490 E63.42309
G1 X122.461 Y116.038 E64.20967
G1 X122.461 Y115.619 E64.21572
G1 X84.332 Y77.490 E64.99375
G1 X84.751 Y77.490 E64.99980
G1 X122.461 Y115.200 E65.76929
G1 X122.461 Y114.782 E65.77533
G1 X85.169 Y77.490 E66.53628
G1 X85.588 Y77.490 E66.54232
G1 X122.461 Y114.363 E67.29472
G1 X122.461 Y113.944 E67.30077
G1 X86.007 Y77.490 E68.04462
G1 X86.426 Y77.490 E68.05066
G1 X122.461 Y113.525 E68.78597
G1 X122.461 Y113.106 E68.79201
G1 X86.845 Y77.490 E69.51878
G1 X87.264 Y77.490 E69.52482
G1 X122.461 Y112.688 E70.24303
G1 X122.461 Y112.269 E70.24908
G1 X87.682 Y77.490 E70.95875
G1 X88.101 Y77.490 E70.96479
G1 X122.461 Y111.850 E71.66591
G1 X122.461 Y111.431 E71.67196
G1 X88.520 Y77.490 E72.36453
G1 X88.939 Y77.490 E72.37058
G1 X122.461 Y111.012 E73.05461
G1 X122.461 Y110.593 E73.06065
G1 X89.358 Y77.490 E73.73614
G1 X89.776 Y77.490 E73.74218
G1 X122.461 Y110.175 E74.40912
G1 X122.461 Y109.756 E74.41516
G1 X90.195 Y77.490 E75.07355
G1 X90.614 Y77.490 E75.07960
G1 X122.461 Y109.337 E75.72944
G1 X122.461 Y108.918 E75.73549
G1 X91.033 Y77.490 E76.37679
G1 X91.452 Y77.490 E76.38283
G1 X122.461 Y108.499 E77.01559
G1 X122.461 Y108.081 E77.02163
G1 X91.871 Y77.490 E77.64584
G1 X92.289 Y77.490 E77.65188
G1 X122.461 Y107.662 E78.26754
G1 X122.461 Y107.243 E78.27359
G1 X92.708 Y77.490 E78.88070
G1 X93.127 Y77.490 E78.88675
G1 X122.461 Y106.824 E79.48532
G1 X122.461 Y106.405 E79.49136
G1 X93.546 Y77.490 E80.08138
G1 X93.965 Y77.490 E80.08743
G1 X122.461 Y105.986 E80.66891
G1 X122.461 Y105.568 E80.67495
G1 X94.383 Y77.490 E81.24788
G1 X94.802 Y77.490 E81.25392
G1 X122.461 Y105.149 E81.81831
G1 X122.461 Y104.730 E81.82435
G1 X95.221 Y77.490 E82.38019
G1 X95.640 Y77.490 E82.38624
G1 X122.461 Y104.311 E82.93353
G1 X122.461 Y103.892 E82.93957
G1 X96.059 Y77.490 E83.47832
G1 X96.478 Y77.490 E83.48436
G1 X122.461 Y103.474 E84.01457
G1 X122.461 Y103.055 E84.02061
G1 X96.896 Y77.490 E84.54226
G1 X97.315 Y77.490 E84.54831
G1 X122.461 Y102.636 E85.06142
G1 X122.461 Y102.217 E85.06746
G1 X97.734 Y77.490 E85.57202
G1 X98.153 Y77.490 E85.57807
G1 X122.461 Y101.798 E86.07408
G1 X122.461 Y101.379 E86.08013
G1 X98.572 Y77.490 E86.56760
G1 X98.990 Y77.490 E86.57364
G1 X122.461 Y100.961 E87.05257
G1 X122.461 Y100.542 E87.05861
G1 X99.409 Y77.490 E87.52899
G1 X99.828 Y77.490 E87.53503
G1 X122.461 Y100.123 E87.99686
G1 X122.461 Y99.704 E88.00291
G1 X100.247 Y77.490 E88.45619
G1 X100.666 Y77.490 E88.46224
G1 X122.461 Y99.285 E88.90698
G1 X122.461 Y98.867 E88.91302
G1 X101.085 Y77.490 E89.34922
G1 X101.503 Y77.490 E89.35526
G1 X122.461 Y98.448 E89.78291
G1 X122.461 Y98.029 E89.78895
G1 X101.922 Y77.490 E90.20805
G1 X102.341 Y77.490 E90.21410
G1 X122.461 Y97.610 E90.62465
G1 X122.461 Y97.191 E90.63070
G1 X102.760 Y77.490 E91.03271
G1 X103.179 Y77.490 E91.03875
G1 X122.461 Y96.772 E91.43221
G1 X122.461 Y96.354 E91.43826
G1 X103.597 Y77.490 E91.82317
G1 X104.016 Y77.490 E91.82922
G1 X122.461 Y95.935 E92.20559
G1 X122.461 Y95.516 E92.21163
G1 X104.435 Y77.490 E92.57946
G1 X104.854 Y77.490 E92.58550
G1 X122.461 Y95.097 E92.94478
G1 X122.461 Y94.678 E92.95082
