; generated by Slic3r 1.2.9 on 2017-10-18 at 07:19:51

; external perimeters extrusion width = 0.50mm
; perimeters extrusion width = 0.72mm
; infill extrusion width = 0.72mm
; solid infill extrusion width = 0.72mm
; top infill extrusion width = 0.72mm

M190 S30 ; set bed temperature
M104 S220 ; set temperature
G28 ; home all axes
M109 S220 ; wait for temperature to be reached
G21 ; set units to millimeters
G90 ; use absolute coordinates
M82 ; use absolute distances for extrusion
G92 E0
M106 S89.25
G1 E-2.00000 F2400.00000
G92 E0
G1 Z0.300 F9000.000
G1 Z0.600 F9000.000
G1 X67.121 Y72.017 F9000.000
G1 Z0.300 F9000.000
G1 E2.00000 F2400.00000
G1 X68.478 Y70.935 E2.02330 F1800.000
G1 X70.567 Y69.777 E2.05538
G1 X72.956 Y69.368 E2.08792
G1 X120.956 Y69.368 E2.73240
G1 X122.554 Y69.548 E2.75399
G1 X124.246 Y69.934 E2.77730 F1800.000
G1 X126.454 Y70.845 E2.80937
G1 X128.241 Y72.430 E2.84144
G1 X129.119 Y73.820 E2.86351
G1 X129.872 Y75.384 E2.88681
G1 X130.583 Y78.500 E2.92973
G1 X130.583 Y116.500 E3.43994
G1 X129.872 Y119.616 E3.48286
G1 X129.119 Y121.180 E3.50616
G1 X127.739 Y123.130 E3.53824
G1 X125.796 Y124.519 E3.57031
G1 X124.246 Y125.066 E3.59238
G1 X122.554 Y125.452 E3.61568
G1 X120.956 Y125.632 E3.63728
G1 X72.956 Y125.632 E4.28176
G1 X70.600 Y125.235 E4.31383
G1 X68.478 Y124.065 E4.34637
G1 X67.121 Y122.983 E4.36967
G1 X65.527 Y121.204 E4.40175
G1 X64.605 Y119.001 E4.43382
G1 X64.417 Y117.368 E4.45589
G1 X64.417 Y77.632 E4.98940
G1 X64.814 Y75.277 E5.02148
G1 X65.961 Y73.182 E5.05355
G1 X67.068 Y72.070 E5.07461
G1 X67.274 Y72.278 F9000.000
G1 X68.662 Y71.166 E5.09849 F1800.000
G1 X70.712 Y70.039 E5.12989
G1 X72.956 Y69.663 E5.16045
G1 X120.956 Y69.663 E5.80493
G1 X122.488 Y69.836 E5.82563
G1 X124.180 Y70.222 E5.84894 F1800.000
G1 X126.339 Y71.122 E5.88034
G1 X128.072 Y72.693 E5.91174
G1 X128.853 Y73.948 E5.93159
G1 X129.606 Y75.512 E5.95490
G1 X130.288 Y78.500 E5.99604
G1 X130.288 Y116.500 E6.50626
G1 X129.606 Y119.488 E6.54741
G1 X128.853 Y121.052 E6.57071
G1 X127.495 Y122.956 E6.60211
G1 X125.578 Y124.296 E6.63351
G1 X124.180 Y124.778 E6.65337
G1 X122.488 Y125.164 E6.67667
G1 X120.956 Y125.337 E6.69738
G1 X72.956 Y125.337 E7.34186
G1 X70.651 Y124.940 E7.37326
G1 X68.662 Y123.834 E7.40381
G1 X67.305 Y122.752 E7.42712
G1 X65.751 Y121.005 E7.45852
G1 X64.871 Y118.838 E7.48992
G1 X64.712 Y117.368 E7.50977
G1 X64.712 Y77.632 E8.04329
G1 X65.109 Y75.327 E8.07469
G1 X66.255 Y73.289 E8.10609
G1 X67.221 Y72.331 E8.12435
G1 X67.426 Y72.541 F9000.000
G1 X68.846 Y71.397 E8.14884 F1800.000
G1 X70.855 Y70.303 E8.17956
G1 X72.956 Y69.959 E8.20814
G1 X120.956 Y69.959 E8.85262
G1 X122.423 Y70.124 E8.87243
G1 X124.115 Y70.510 E8.89574 F1800.000
G1 X126.223 Y71.399 E8.92645
G1 X127.900 Y72.954 E8.95717
G1 X128.587 Y74.077 E8.97483
G1 X129.340 Y75.640 E8.99814
G1 X129.992 Y78.500 E9.03752
G1 X129.992 Y116.500 E9.54773
G1 X129.340 Y119.360 E9.58712
G1 X128.587 Y120.923 E9.61042
G1 X127.251 Y122.781 E9.64113
G1 X125.362 Y124.070 E9.67185
G1 X124.115 Y124.490 E9.68951
G1 X122.423 Y124.876 E9.71282
G1 X120.956 Y125.041 E9.73263
G1 X72.956 Y125.041 E10.37711
G1 X70.703 Y124.644 E10.40783
G1 X68.846 Y123.603 E10.43641
G1 X67.489 Y122.521 E10.45971
G1 X65.976 Y120.806 E10.49043
G1 X65.139 Y118.677 E10.52114
G1 X65.008 Y117.368 E10.53881
G1 X65.008 Y77.632 E11.07232
G1 X65.405 Y75.379 E11.10304
G1 X66.548 Y73.398 E11.13375
G1 X67.372 Y72.593 E11.14922
G1 X67.575 Y72.805 F9000.000
G1 X69.031 Y71.628 E11.17435 F1800.000
G1 X70.998 Y70.567 E11.20436
G1 X72.956 Y70.255 E11.23098
G1 X120.956 Y70.255 E11.87546
G1 X122.357 Y70.412 E11.89439
G1 X124.049 Y70.799 E11.91769 F1800.000
G1 X126.105 Y71.675 E11.94771
G1 X127.726 Y73.215 E11.97772
G1 X128.320 Y74.205 E11.99323
G1 X129.073 Y75.769 E12.01653
G1 X129.697 Y78.500 E12.05415
G1 X129.697 Y116.500 E12.56436
G1 X129.073 Y119.231 E12.60198
G1 X128.320 Y120.795 E12.62528
G1 X127.008 Y122.605 E12.65529
G1 X125.147 Y123.842 E12.68531
G1 X124.049 Y124.201 E12.70081
G1 X122.357 Y124.588 E12.72412
G1 X120.956 Y124.745 E12.74304
G1 X72.956 Y124.745 E13.38753
G1 X70.756 Y124.349 E13.41754
G1 X69.031 Y123.372 E13.44416
G1 X67.674 Y122.290 E13.46746
G1 X66.201 Y120.608 E13.49747
G1 X65.409 Y118.518 E13.52749
G1 X65.303 Y117.368 E13.54299
G1 X65.303 Y77.632 E14.07651
G1 X65.700 Y75.432 E14.10652
G1 X66.841 Y73.510 E14.13653
G1 X67.521 Y72.857 E14.14920
G1 E12.14920 F2400.00000
G92 E0
G1 Z0.600 F9000.000
G1 X71.779 Y77.719 F9000.000
G1 Z0.300 F9000.000
G1 E2.00000 F2400.00000
G1 X73.019 Y76.730 E2.02129 F1800.000
G1 X120.936 Y76.730 E2.66466
G1 X121.001 Y76.745 E2.66555
G1 X122.523 Y77.093 E2.68652 F1800.000
G1 X123.221 Y78.541 E2.70811
G1 X123.221 Y116.459 E3.21722
G1 X122.523 Y117.907 E3.23881
G1 X120.936 Y118.270 E3.26067
G1 X73.019 Y118.270 E3.90404
G1 X71.779 Y117.281 E3.92533
G1 X71.779 Y77.794 E4.45551
G1 X72.278 Y77.756 F9000.000
G1 X72.075 Y77.861 F9000.000
G1 X73.122 Y77.026 E4.47350 F1800.000
G1 X120.935 Y77.033 E5.11546
G1 X122.319 Y77.349 E5.13453 F1800.000
G1 X122.925 Y78.609 E5.15329
G1 X122.925 Y116.391 E5.66059
G1 X122.319 Y117.651 E5.67936
G1 X120.902 Y117.974 E5.69887
G1 X73.122 Y117.974 E6.34040
G1 X72.075 Y117.139 E6.35839
G1 X72.075 Y77.936 E6.88475
G1 E4.88475 F2400.00000
G92 E0
G1 Z0.600 F9000.000
G1 X72.370 Y96.743 F9000.000
G1 Z0.300 F9000.000
G1 E2.00000 F2400.00000
G1 X72.370 Y78.004 E2.25161 F1800.000
G1 X73.226 Y77.321 E2.26630
G1 X120.869 Y77.321 E2.90600
G1 X122.114 Y77.606 E2.92314
G1 X122.630 Y78.676 E2.93910 F1800.000
G1 X122.630 Y116.324 E3.44458
G1 X122.114 Y117.394 E3.46054
G1 X120.869 Y117.679 E3.47768
G1 X73.226 Y117.679 E4.11737
G1 X72.370 Y116.996 E4.13207
G1 X72.370 Y96.818 E4.40299
G1 E2.40299 F2400.00000
G92 E0
G1 Z0.600 F9000.000
G1 X72.810 Y117.064 F9000.000
G1 Z0.300 F9000.000
G1 E2.00000 F2400.00000
G1 X72.539 Y116.793 E2.00516 F1800.000
G1 X72.539 Y116.374 E2.01079
G1 X73.675 Y117.510 E2.03240
G1 X74.094 Y117.510 E2.03803
G1 X72.539 Y115.955 E2.06761
G1 X72.539 Y115.536 E2.07325
G1 X74.513 Y117.510 E2.11079
G1 X74.931 Y117.510 E2.11642
G1 X72.539 Y115.118 E2.16194
G1 X72.539 Y114.699 E2.16757
G1 X75.350 Y117.510 E2.22105
G1 X75.769 Y117.510 E2.22668
G1 X72.539 Y114.280 E2.28813
G1 X72.539 Y113.861 E2.29376
G1 X76.188 Y117.510 E2.36317
G1 X76.607 Y117.510 E2.36881
G1 X72.539 Y113.442 E2.44619
G1 X72.539 Y113.023 E2.45182
G1 X77.025 Y117.510 E2.53717
G1 X77.444 Y117.510 E2.54280
G1 X72.539 Y112.605 E2.63611
G1 X72.539 Y112.186 E2.64175
G1 X77.863 Y117.510 E2.74303
G1 X78.282 Y117.510 E2.74866
G1 X72.539 Y111.767 E2.85791
G1 X72.539 Y111.348 E2.86354
G1 X78.701 Y117.510 E2.98075
G1 X79.120 Y117.510 E2.98639
G1 X72.539 Y110.929 E3.11157
G1 X72.539 Y110.511 E3.11720
G1 X79.538 Y117.510 E3.25035
G1 X79.957 Y117.510 E3.25598
G1 X72.539 Y110.092 E3.39710
G1 X72.539 Y109.673 E3.40273
G1 X80.376 Y117.510 E3.55181
G1 X80.795 Y117.510 E3.55745
G1 X72.539 Y109.254 E3.71449
G1 X72.539 Y108.835 E3.72013
G1 X81.214 Y117.510 E3.88514
G1 X81.632 Y117.510 E3.89078
G1 X72.539 Y108.416 E4.06376
G1 X72.539 Y107.998 E4.06939
G1 X82.051 Y117.510 E4.25034
G1 X82.470 Y117.510 E4.25597
G1 X72.539 Y107.579 E4.44489
G1 X72.539 Y107.160 E4.45052
G1 X82.889 Y117.510 E4.64741
G1 X83.308 Y117.510 E4.65304
G1 X72.539 Y106.741 E4.85789
G1 X72.539 Y106.322 E4.86352
G1 X83.727 Y117.510 E5.07634
G1 X84.145 Y117.510 E5.08197
G1 X72.539 Y105.904 E5.30275
G1 X72.539 Y105.485 E5.30839
G1 X84.564 Y117.510 E5.53714
G1 X84.983 Y117.510 E5.54277
G1 X72.539 Y105.066 E5.77949
G1 X72.539 Y104.647 E5.78512
G1 X85.402 Y117.510 E6.02980
G1 X85.821 Y117.510 E6.03544
G1 X72.539 Y104.228 E6.28809
G1 X72.539 Y103.809 E6.29372
G1 X86.239 Y117.510 E6.55434
G1 X86.658 Y117.510 E6.55997
G1 X72.539 Y103.391 E6.82856
G1 X72.539 Y102.972 E6.83419
G1 X87.077 Y117.510 E7.11074
G1 X87.496 Y117.510 E7.11638
G1 X72.539 Y102.553 E7.40089
G1 X72.539 Y102.134 E7.40653
G1 X87.915 Y117.510 E7.69901
G1 X88.334 Y117.510 E7.70465
G1 X72.539 Y101.715 E8.00510
G1 X72.539 Y101.296 E8.01073
G1 X88.752 Y117.510 E8.31915
G1 X89.171 Y117.510 E8.32478
G1 X72.539 Y100.878 E8.64117
G1 X72.539 Y100.459 E8.64680
G1 X89.590 Y117.510 E8.97115
G1 X90.009 Y117.510 E8.97679
G1 X72.539 Y100.040 E9.30911
G1 X72.539 Y99.621 E9.31474
G1 X90.428 Y117.510 E9.65503
G1 X90.846 Y117.510 E9.66066
G1 X72.539 Y99.202 E10.00891
G1 X72.539 Y98.784 E10.01455
G1 X91.265 Y117.510 E10.37077
G1 X91.684 Y117.510 E10.37640
G1 X72.539 Y98.365 E10.74059
G1 X72.539 Y97.946 E10.74622
G1 X92.103 Y117.510 E11.11837
G1 X92.522 Y117.510 E11.12401
G1 X72.539 Y97.527 E11.50413
G1 X72.539 Y97.108 E11.50976
G1 X92.941 Y117.510 E11.89785
G1 X93.359 Y117.510 E11.90348
G1 X72.539 Y96.689 E12.29954
G1 X72.539 Y96.271 E12.30517
G1 X93.778 Y117.510 E12.70919
G1 X94.197 Y117.510 E12.71482
G1 X72.539 Y95.852 E13.12681
G1 X72.539 Y95.433 E13.13244
G1 X94.616 Y117.510 E13.55240
G1 X95.035 Y117.510 E13.55803
G1 X72.539 Y95.014 E13.98595
G1 X72.539 Y94.595 E13.99159
G1 X95.454 Y117.510 E14.42748
G1 X95.872 Y117.510 E14.43311
G1 X72.539 Y94.177 E14.87697
G1 X72.539 Y93.758 E14.88260
G1 X96.291 Y117.510 E15.33442
G1 X96.710 Y117.510 E15.34005
G1 X72.539 Y93.339 E15.79984
G1 X72.539 Y92.920 E15.80548
G1 X97.129 Y117.510 E16.27323
G1 X97.548 Y117.510 E16.27887
G1 X72.539 Y92.501 E16.75459
G1 X72.539 Y92.082 E16.76022
G1 X97.966 Y117.510 E17.24391
G1 X98.385 Y117.510 E17.24955
G1 X72.539 Y91.664 E17.74120
G1 X72.539 Y91.245 E17.74684
G1 X98.804 Y117.510 E18.24646
G1 X99.223 Y117.510 E18.25209
G1 X72.539 Y90.826 E18.75968
G1 X72.539 Y90.407 E18.76532
G1 X99.642 Y117.510 E19.28087
G1 X100.061 Y117.510 E19.28651
G1 X72.539 Y89.988 E19.81003
G1 X72.539 Y89.570 E19.81567
G1 X100.479 Y117.510 E20.34716
G1 X100.898 Y117.510 E20.35279
G1 X72.539 Y89.151 E20.89225
G1 X72.539 Y88.732 E20.89788
G1 X101.317 Y117.510 E21.44531
G1 X101.736 Y117.510 E21.45094
G1 X72.539 Y88.313 E22.00633
G1 X72.539 Y87.894 E22.01196
G1 X102.155 Y117.510 E22.57532
G1 X102.573 Y117.510 E22.58096
G1 X72.539 Y87.475 E23.15228
G1 X72.539 Y87.057 E23.15791
G1 X102.992 Y117.510 E23.73721
G1 X103.411 Y117.510 E23.74284
G1 X72.539 Y86.638 E24.33010
G1 X72.539 Y86.219 E24.33573
G1 X103.830 Y117.510 E24.93096
G1 X104.249 Y117.510 E24.93659
G1 X72.539 Y85.800 E25.53978
G1 X72.539 Y85.381 E25.54542
G1 X104.668 Y117.510 E26.15658
G1 X105.086 Y117.510 E26.16221
G1 X72.539 Y84.963 E26.78134
G1 X72.539 Y84.544 E26.78697
G1 X105.505 Y117.510 E27.41406
G1 X105.924 Y117.510 E27.41970
G1 X72.539 Y84.125 E28.05476
G1 X72.539 Y83.706 E28.06039
G1 X106.343 Y117.510 E28.70342
G1 X106.762 Y117.510 E28.70905
G1 X72.539 Y83.287 E29.36005
G1 X72.539 Y82.868 E29.36568
G1 X107.180 Y117.510 E30.02464
G1 X107.599 Y117.510 E30.03027
G1 X72.539 Y82.450 E30.69720
G1 X72.539 Y82.031 E30.70284
G1 X108.018 Y117.510 E31.37773
G1 X108.437 Y117.510 E31.38336
G1 X72.539 Y81.612 E32.06622
G1 X72.539 Y81.193 E32.07186
G1 X108.856 Y117.510 E32.76269
G1 X109.275 Y117.510 E32.76832
G1 X72.539 Y80.774 E33.46712
G1 X72.539 Y80.356 E33.47275
G1 X109.693 Y117.510 E34.17951
G1 X110.112 Y117.510 E34.18514
G1 X72.539 Y79.937 E34.89987
G1 X72.539 Y79.518 E34.90551
G1 X110.531 Y117.510 E35.62820
G1 X110.950 Y117.510 E35.63384
G1 X72.539 Y79.099 E36.36450
G1 X72.539 Y78.680 E36.37013
G1 X111.369 Y117.510 E37.10876
G1 X111.787 Y117.510 E37.11439
G1 X72.539 Y78.261 E37.86099
G1 X72.658 Y77.962 E37.86533
G1 X112.206 Y117.510 E38.61761
G1 X112.625 Y117.510 E38.62325
G1 X72.888 Y77.773 E39.37913
G1 X73.121 Y77.588 E39.38313
G1 X113.044 Y117.510 E40.14255
G1 X113.463 Y117.510 E40.14818
G1 X73.443 Y77.490 E40.90945
G1 X73.861 Y77.490 E40.91509
G1 X113.882 Y117.510 E41.67636
G1 X114.300 Y117.510 E41.68200
G1 X74.280 Y77.490 E42.44327
G1 X74.699 Y77.490 E42.44890
G1 X114.719 Y117.510 E43.21017
G1 X115.138 Y117.510 E43.21581
G1 X75.118 Y77.490 E43.97708
G1 X75.537 Y77.490 E43.98271
G1 X115.557 Y117.510 E44.74399
G1 X115.976 Y117.510 E44.74962
G1 X75.955 Y77.490 E45.51089
G1 X76.374 Y77.490 E45.51653
G1 X116.394 Y117.510 E46.27780
G1 X116.813 Y117.510 E46.28343
G1 X76.793 Y77.490 E47.04471
G1 X77.212 Y77.490 E47.05034
G1 X117.232 Y117.510 E47.81161
G1 X117.651 Y117.510 E47.81725
G1 X77.631 Y77.490 E48.57852
G1 X78.050 Y77.490 E48.58415
G1 X118.070 Y117.510 E49.34543
G1 X118.489 Y117.510 E49.35106
G1 X78.468 Y77.490 E50.11233
G1 X78.887 Y77.490 E50.11797
G1 X118.907 Y117.510 E50.87924
G1 X119.326 Y117.510 E50.88487
G1 X79.306 Y77.490 E51.64615
G1 X79.725 Y77.490 E51.65178
G1 X119.745 Y117.510 E52.41305
G1 X120.164 Y117.510 E52.41869
G1 X80.144 Y77.490 E53.17996
G1 X80.562 Y77.490 E53.18559
G1 X120.583 Y117.510 E53.94687
G1 X120.984 Y117.492 E53.95227
G1 X80.981 Y77.490 E54.71320
G1 X81.400 Y77.490 E54.71883
G1 X121.325 Y117.414 E55.47829
G1 X121.666 Y117.337 E55.48299
G1 X81.819 Y77.490 E56.24097
G1 X82.238 Y77.490 E56.24660
G1 X121.995 Y117.247 E57.00287
G1 X122.149 Y116.982 E57.00699
G1 X82.657 Y77.490 E57.75823
G1 X83.075 Y77.490 E57.76386
G1 X122.285 Y116.700 E58.50972
G1 X122.421 Y116.417 E58.51394
G1 X83.494 Y77.490 E59.25442
G1 X83.913 Y77.490 E59.26005
G1 X122.461 Y116.038 E59.99332
G1 X122.461 Y115.619 E59.99896
G1 X84.332 Y77.490 E60.72426
G1 X84.751 Y77.490 E60.72989
G1 X122.461 Y115.200 E61.44723
G1 X122.461 Y114.782 E61.45287
G1 X85.169 Y77.490 E62.16224
G1 X85.588 Y77.490 E62.16787
G1 X122.461 Y114.363 E62.86928
G1 X122.461 Y113.944 E62.87491
G1 X86.007 Y77.490 E63.56835
G1 X86.426 Y77.490 E63.57398
G1 X122.461 Y113.525 E64.25945
G1 X122.461 Y113.106 E64.26509
G1 X86.845 Y77.490 E64.94259
G1 X87.264 Y77.490 E64.94823
G1 X122.461 Y112.688 E65.61776
G1 X122.461 Y112.269 E65.62340
G1 X87.682 Y77.490 E66.28497
G1 X88.101 Y77.490 E66.29060
G1 X122.461 Y111.850 E66.94420
G1 X122.461 Y111.431 E66.94984
G1 X88.520 Y77.490 E67.59547
G1 X88.939 Y77.490 E67.60111
G1 X122.461 Y111.012 E68.23878
G1 X122.461 Y110.593 E68.24441
G1 X89.358 Y77.490 E68.87412
G1 X89.776 Y77.490 E68.87975
G1 X122.461 Y110.175 E69.50149
G1 X122.461 Y109.756 E69.50712
G1 X90.195 Y77.490 E70.12089
G1 X90.614 Y77.490 E70.12652
G1 X122.461 Y109.337 E70.73232
G1 X122.461 Y108.918 E70.73796
G1 X91.033 Y77.490 E71.33579
G1 X91.452 Y77.490 E71.34143
G1 X122.461 Y108.499 E71.93130
G1 X122.461 Y108.081 E71.93693
G1 X91.871 Y77.490 E72.51883
G1 X92.289 Y77.490 E72.52446
G1 X122.461 Y107.662 E73.09840
G1 X122.461 Y107.243 E73.10403
G1 X92.708 Y77.490 E73.67000
G1 X93.127 Y77.490 E73.67564
G1 X122.461 Y106.824 E74.23364
G1 X122.461 Y106.405 E74.23927
G1 X93.546 Y77.490 E74.78930
G1 X93.965 Y77.490 E74.79494
G1 X122.461 Y105.986 E75.33701
G1 X122.461 Y105.568 E75.34264
G1 X94.383 Y77.490 E75.87674
G1 X94.802 Y77.490 E75.88237
G1 X122.461 Y105.149 E76.40851
G1 X122.461 Y104.730 E76.41414
G1 X95.221 Y77.490 E76.93231
G1 X95.640 Y77.490 E76.93794
G1 X122.461 Y104.311 E77.44814
G1 X122.461 Y103.892 E77.45378
G1 X96.059 Y77.490 E77.95601
G1 X96.478 Y77.490 E77.96164
G1 X122.461 Y103.474 E78.45591
G1 X122.461 Y103.055 E78.46154
G1 X96.896 Y77.490 E78.94784
G1 X97.315 Y77.490 E78.95348
G1 X122.461 Y102.636 E79.43181
G1 X122.461 Y102.217 E79.43744
G1 X97.734 Y77.490 E79.90781
G1 X98.153 Y77.490 E79.91344
G1 X122.461 Y101.798 E80.37584
G1 X122.461 Y101.379 E80.38147
G1 X98.572 Y77.490 E80.83591
G1 X98.990 Y77.490 E80.84154
G1 X122.461 Y100.961 E81.28800
G1 X122.461 Y100.542 E81.29364
G1 X99.409 Y77.490 E81.73214
G1 X99.828 Y77.490 E81.73777
G1 X122.461 Y100.123 E82.16830
G1 X122.461 Y99.704 E82.17393
G1 X100.247 Y77.490 E82.59650
G1 X100.666 Y77.490 E82.60213
G1 X122.461 Y99.285 E83.01673
G1 X122.461 Y98.867 E83.02236
G1 X101.085 Y77.490 E83.42900
G1 X101.503 Y77.490 E83.43463
G1 X122.461 Y98.448 E83.83329
G1 X122.461 Y98.029 E83.83893
G1 X101.922 Y77.490 E84.22962
G1 X102.341 Y77.490 E84.23526
G1 X122.461 Y97.610 E84.61799
G1 X122.461 Y97.191 E84.62362
G1 X102.760 Y77.490 E84.99838
G1 X103.179 Y77.490 E85.00402
G1 X122.461 Y96.772 E85.37081
G1 X122.461 Y96.354 E85.37645
G1 X103.597 Y77.490 E85.73528
G1 X104.016 Y77.490 E85.74091
G1 X122.461 Y95.935 E86.09177
G1 X122.461 Y95.516 E86.09741
G1 X104.435 Y77.490 E86.44030
G1 X104.854 Y77.490 E86.44594
G1 X122.461 Y95.097 E86.78087
G1 X122.461 Y94.678 E86.78650
