; generated by Slic3r 1.2.9 on 2017-10-18 at 07:01:41

; external perimeters extrusion width = 0.50mm
; perimeters extrusion width = 0.72mm
; infill extrusion width = 0.72mm
; solid infill extrusion width = 0.72mm
; top infill extrusion width = 0.72mm

M190 S30 ; set bed temperature
M104 S220 ; set temperature
G28 ; home all axes
M109 S220 ; wait for temperature to be reached
G21 ; set units to millimeters
G90 ; use absolute coordinates
M82 ; use absolute distances for extrusion
G92 E0
M106 S89.25
G1 E-2.00000 F2400.00000
G92 E0
G1 Z0.300 F9000.000
G1 Z0.600 F9000.000
G1 X67.121 Y72.017 F9000.000
G1 Z0.300 F9000.000
G1 E2.00000 F2400.00000
G1 X68.478 Y70.935 E2.02330 F1800.000
G1 X70.567 Y69.777 E2.05538
G1 X72.956 Y69.368 E2.08792
G1 X120.956 Y69.368 E2.73240
G1 X122.554 Y69.548 E2.75399
G1 X124.246 Y69.934 E2.77730 F1800.000
G1 X126.454 Y70.845 E2.80937
G1 X128.241 Y72.430 E2.84144
G1 X129.119 Y73.820 E2.86351
G1 X129.872 Y75.384 E2.88681
G1 X130.583 Y78.500 E2.92973
G1 X130.583 Y116.500 E3.43994
G1 X129.872 Y119.616 E3.48286
G1 X129.119 Y121.180 E3.50616
G1 X127.739 Y123.130 E3.53824
G1 X125.796 Y124.519 E3.57031
G1 X124.246 Y125.066 E3.59238
G1 X122.554 Y125.452 E3.61568
G1 X120.956 Y125.632 E3.63728
G1 X72.956 Y125.632 E4.28176
G1 X70.600 Y125.235 E4.31383
G1 X68.478 Y124.065 E4.34637
G1 X67.121 Y122.983 E4.36967
G1 X65.527 Y121.204 E4.40175
G1 X64.605 Y119.001 E4.43382
G1 X64.417 Y117.368 E4.45589
G1 X64.417 Y77.632 E4.98940
G1 X64.814 Y75.277 E5.02148
G1 X65.961 Y73.182 E5.05355
G1 X67.068 Y72.070 E5.07461
G1 X67.274 Y72.278 F9000.000
G1 X68.662 Y71.166 E5.09849 F1800.000
G1 X70.712 Y70.039 E5.12989
G1 X72.956 Y69.663 E5.16045
G1 X120.956 Y69.663 E5.80493
G1 X122.488 Y69.836 E5.82563
G1 X124.180 Y70.222 E5.84894 F1800.000
G1 X126.339 Y71.122 E5.88034
G1 X128.072 Y72.693 E5.91174
G1 X128.853 Y73.948 E5.93159
G1 X129.606 Y75.512 E5.95490
G1 X130.288 Y78.500 E5.99604
G1 X130.288 Y116.500 E6.50626
G1 X129.606 Y119.488 E6.54741
G1 X128.853 Y121.052 E6.57071
G1 X127.495 Y122.956 E6.60211
G1 X125.578 Y124.296 E6.63351
G1 X124.180 Y124.778 E6.65337
G1 X122.488 Y125.164 E6.67667
G1 X120.956 Y125.337 E6.69738
G1 X72.956 Y125.337 E7.34186
G1 X70.651 Y124.940 E7.37326
G1 X68.662 Y123.834 E7.40381
G1 X67.305 Y122.752 E7.42712
G1 X65.751 Y121.005 E7.45852
G1 X64.871 Y118.838 E7.48992
G1 X64.712 Y117.368 E7.50977
G1 X64.712 Y77.632 E8.04329
G1 X65.109 Y75.327 E8.07469
G1 X66.255 Y73.289 E8.10609
G1 X67.221 Y72.331 E8.12435
G1 X67.426 Y72.541 F9000.000
G1 X68.846 Y71.397 E8.14884 F1800.000
G1 X70.855 Y70.303 E8.17956
G1 X72.956 Y69.959 E8.20814
G1 X120.956 Y69.959 E8.85262
G1 X122.423 Y70.124 E8.87243
G1 X124.115 Y70.510 E8.89574 F1800.000
G1 X126.223 Y71.399 E8.92645
G1 X127.900 Y72.954 E8.95717
G1 X128.587 Y74.077 E8.97483
G1 X129.340 Y75.640 E8.99814
G1 X129.992 Y78.500 E9.03752
G1 X129.992 Y116.500 E9.54773
G1 X129.340 Y119.360 E9.58712
G1 X128.587 Y120.923 E9.61042
G1 X127.251 Y122.781 E9.64113
G1 X125.362 Y124.070 E9.67185
G1 X124.115 Y124.490 E9.68951
G1 X122.423 Y124.876 E9.71282
G1 X120.956 Y125.041 E9.73263
G1 X72.956 Y125.041 E10.37711
G1 X70.703 Y124.644 E10.40783
G1 X68.846 Y123.603 E10.43641
G1 X67.489 Y122.521 E10.45971
G1 X65.976 Y120.806 E10.49043
G1 X65.139 Y118.677 E10.52114
G1 X65.008 Y117.368 E10.53881
G1 X65.008 Y77.632 E11.07232
G1 X65.405 Y75.379 E11.10304
G1 X66.548 Y73.398 E11.13375
G1 X67.372 Y72.593 E11.14922
G1 X67.575 Y72.805 F9000.000
G1 X69.031 Y71.628 E11.17435 F1800.000
G1 X70.998 Y70.567 E11.20436
G1 X72.956 Y70.255 E11.23098
G1 X120.956 Y70.255 E11.87546
G1 X122.357 Y70.412 E11.89439
G1 X124.049 Y70.799 E11.91769 F1800.000
G1 X126.105 Y71.675 E11.94771
G1 X127.726 Y73.215 E11.97772
G1 X128.320 Y74.205 E11.99323
G1 X129.073 Y75.769 E12.01653
G1 X129.697 Y78.500 E12.05415
G1 X129.697 Y116.500 E12.56436
G1 X129.073 Y119.231 E12.60198
G1 X128.320 Y120.795 E12.62528
G1 X127.008 Y122.605 E12.65529
G1 X125.147 Y123.842 E12.68531
G1 X124.049 Y124.201 E12.70081
G1 X122.357 Y124.588 E12.72412
G1 X120.956 Y124.745 E12.74304
G1 X72.956 Y124.745 E13.38753
G1 X70.756 Y124.349 E13.41754
G1 X69.031 Y123.372 E13.44416
G1 X67.674 Y122.290 E13.46746
G1 X66.201 Y120.608 E13.49747
G1 X65.409 Y118.518 E13.52749
G1 X65.303 Y117.368 E13.54299
G1 X65.303 Y77.632 E14.07651
G1 X65.700 Y75.432 E14.10652
G1 X66.841 Y73.510 E14.13653
G1 X67.521 Y72.857 E14.14920
G1 E12.14920 F2400.00000
G92 E0
G1 Z0.600 F9000.000
G1 X71.779 Y77.719 F9000.000
G1 Z0.300 F9000.000
G1 E2.00000 F2400.00000
G1 X73.019 Y76.730 E2.02129 F1800.000
G1 X120.936 Y76.730 E2.66466
G1 X121.001 Y76.745 E2.66555
G1 X122.523 Y77.093 E2.68652 F1800.000
G1 X123.221 Y78.541 E2.70811
G1 X123.221 Y116.459 E3.21722
G1 X122.523 Y117.907 E3.23881
G1 X120.936 Y118.270 E3.26067
G1 X73.019 Y118.270 E3.90404
G1 X71.779 Y117.281 E3.92533
G1 X71.779 Y77.794 E4.45551
G1 X72.278 Y77.756 F9000.000
G1 X72.075 Y77.861 F9000.000
G1 X73.122 Y77.026 E4.47350 F1800.000
G1 X120.935 Y77.033 E5.11546
G1 X122.319 Y77.349 E5.13453 F1800.000
G1 X122.925 Y78.609 E5.15329
G1 X122.925 Y116.391 E5.66059
G1 X122.319 Y117.651 E5.67936
G1 X120.902 Y117.974 E5.69887
G1 X73.122 Y117.974 E6.34040
G1 X72.075 Y117.139 E6.35839
G1 X72.075 Y77.936 E6.88475
G1 E4.88475 F2400.00000
G92 E0
G1 Z0.600 F9000.000
G1 X111.059 Y77.321 F9000.000
G1 Z0.300 F9000.000
G1 E2.00000 F2400.00000
G1 X120.869 Y77.321 E2.13172 F1800.000
G1 X122.114 Y77.606 E2.14887
G1 X122.630 Y78.676 E2.16482 F1800.000
G1 X122.630 Y116.324 E2.67031
G1 X122.114 Y117.394 E2.68626
G1 X120.869 Y117.679 E2.70341
G1 X73.226 Y117.679 E3.34310
G1 X72.370 Y116.996 E3.35779
G1 X72.370 Y78.004 E3.88133
G1 X73.226 Y77.321 E3.89603
G1 X110.984 Y77.321 E4.40299
G1 E2.40299 F2400.00000
G92 E0
G1 Z0.600 F9000.000
G1 X122.046 Y77.929 F9000.000
G1 Z0.300 F9000.000
G1 E2.00000 F2400.00000
G1 X121.851 Y77.734 E2.00371 F1800.000
G1 X121.308 Y77.610 E2.01119
G1 X122.435 Y78.737 E2.03262
G1 X122.461 Y79.182 E2.03862
G1 X120.769 Y77.490 E2.07081
G1 X120.350 Y77.490 E2.07644
G1 X122.461 Y79.601 E2.11660
G1 X122.461 Y80.020 E2.12223
G1 X119.931 Y77.490 E2.17035
G1 X119.513 Y77.490 E2.17598
G1 X122.461 Y80.439 E2.23207
G1 X122.461 Y80.857 E2.23771
G1 X119.094 Y77.490 E2.30176
G1 X118.675 Y77.490 E2.30740
G1 X122.461 Y81.276 E2.37942
G1 X122.461 Y81.695 E2.38505
G1 X118.256 Y77.490 E2.46504
G1 X117.837 Y77.490 E2.47068
G1 X122.461 Y82.114 E2.55863
G1 X122.461 Y82.533 E2.56426
G1 X117.418 Y77.490 E2.66019
G1 X117.000 Y77.490 E2.66582
G1 X122.461 Y82.951 E2.76971
G1 X122.461 Y83.370 E2.77534
G1 X116.581 Y77.490 E2.88720
G1 X116.162 Y77.490 E2.89284
G1 X122.461 Y83.789 E3.01266
G1 X122.461 Y84.208 E3.01829
G1 X115.743 Y77.490 E3.14608
G1 X115.324 Y77.490 E3.15172
G1 X122.461 Y84.627 E3.28747
G1 X122.461 Y85.046 E3.29311
G1 X114.906 Y77.490 E3.43683
G1 X114.487 Y77.490 E3.44247
G1 X122.461 Y85.464 E3.59416
G1 X122.461 Y85.883 E3.59979
G1 X114.068 Y77.490 E3.75945
G1 X113.649 Y77.490 E3.76508
G1 X122.461 Y86.302 E3.93271
G1 X122.461 Y86.721 E3.93834
G1 X113.230 Y77.490 E4.11393
G1 X112.811 Y77.490 E4.11957
G1 X122.461 Y87.140 E4.30312
G1 X122.461 Y87.558 E4.30876
G1 X112.393 Y77.490 E4.50028
G1 X111.974 Y77.490 E4.50592
G1 X122.461 Y87.977 E4.70541
G1 X122.461 Y88.396 E4.71104
G1 X111.555 Y77.490 E4.91850
G1 X111.136 Y77.490 E4.92413
G1 X122.461 Y88.815 E5.13956
G1 X122.461 Y89.234 E5.14519
G1 X110.717 Y77.490 E5.36859
G1 X110.299 Y77.490 E5.37422
G1 X122.461 Y89.653 E5.60558
G1 X122.461 Y90.071 E5.61121
G1 X109.880 Y77.490 E5.85054
G1 X109.461 Y77.490 E5.85617
G1 X122.461 Y90.490 E6.10347
G1 X122.461 Y90.909 E6.10910
G1 X109.042 Y77.490 E6.36436
G1 X108.623 Y77.490 E6.37000
G1 X122.461 Y91.328 E6.63322
G1 X122.461 Y91.747 E6.63886
G1 X108.204 Y77.490 E6.91005
G1 X107.786 Y77.490 E6.91568
G1 X122.461 Y92.165 E7.19485
G1 X122.461 Y92.584 E7.20048
G1 X107.367 Y77.490 E7.48761
G1 X106.948 Y77.490 E7.49324
G1 X122.461 Y93.003 E7.78833
G1 X122.461 Y93.422 E7.79397
G1 X106.529 Y77.490 E8.09703
G1 X106.110 Y77.490 E8.10266
G1 X122.461 Y93.841 E8.41369
G1 X122.461 Y94.260 E8.41933
G1 X105.692 Y77.490 E8.73832
G1 X105.273 Y77.490 E8.74395
G1 X122.461 Y94.678 E9.07092
G1 X122.461 Y95.097 E9.07655
G1 X104.854 Y77.490 E9.41148
G1 X104.435 Y77.490 E9.41711
G1 X122.461 Y95.516 E9.76001
G1 X122.461 Y95.935 E9.76564
G1 X104.016 Y77.490 E10.11651
G1 X103.597 Y77.490 E10.12214
G1 X122.461 Y96.354 E10.48097
G1 X122.461 Y96.772 E10.48660
G1 X103.179 Y77.490 E10.85340
G1 X102.760 Y77.490 E10.85903
G1 X122.461 Y97.191 E11.23380
G1 X122.461 Y97.610 E11.23943
G1 X102.341 Y77.490 E11.62216
G1 X101.922 Y77.490 E11.62779
G1 X122.461 Y98.029 E12.01849
G1 X122.461 Y98.448 E12.02412
G1 X101.503 Y77.490 E12.42279
G1 X101.085 Y77.490 E12.42842
G1 X122.461 Y98.867 E12.83505
G1 X122.461 Y99.285 E12.84069
G1 X100.666 Y77.490 E13.25528
G1 X100.247 Y77.490 E13.26092
G1 X122.461 Y99.704 E13.68348
G1 X122.461 Y100.123 E13.68912
G1 X99.828 Y77.490 E14.11965
G1 X99.409 Y77.490 E14.12528
G1 X122.461 Y100.542 E14.56378
G1 X122.461 Y100.961 E14.56941
G1 X98.990 Y77.490 E15.01588
G1 X98.572 Y77.490 E15.02151
G1 X122.461 Y101.379 E15.47594
G1 X122.461 Y101.798 E15.48158
G1 X98.153 Y77.490 E15.94398
G1 X97.734 Y77.490 E15.94961
G1 X122.461 Y102.217 E16.41997
G1 X122.461 Y102.636 E16.42561
G1 X97.315 Y77.490 E16.90394
G1 X96.896 Y77.490 E16.90957
G1 X122.461 Y103.055 E17.39587
G1 X122.461 Y103.474 E17.40151
G1 X96.478 Y77.490 E17.89577
G1 X96.059 Y77.490 E17.90141
G1 X122.461 Y103.892 E18.40364
G1 X122.461 Y104.311 E18.40927
G1 X95.640 Y77.490 E18.91947
G1 X95.221 Y77.490 E18.92511
G1 X122.461 Y104.730 E19.44328
G1 X122.461 Y105.149 E19.44891
G1 X94.802 Y77.490 E19.97504
G1 X94.383 Y77.490 E19.98068
G1 X122.461 Y105.568 E20.51478
G1 X122.461 Y105.986 E20.52041
G1 X93.965 Y77.490 E21.06248
G1 X93.546 Y77.490 E21.06811
G1 X122.461 Y106.405 E21.61815
G1 X122.461 Y106.824 E21.62378
G1 X93.127 Y77.490 E22.18178
G1 X92.708 Y77.490 E22.18741
G1 X122.461 Y107.243 E22.75338
G1 X122.461 Y107.662 E22.75902
G1 X92.289 Y77.490 E23.33295
G1 X91.871 Y77.490 E23.33859
G1 X122.461 Y108.081 E23.92049
G1 X122.461 Y108.499 E23.92612
G1 X91.452 Y77.490 E24.51599
G1 X91.033 Y77.490 E24.52162
G1 X122.461 Y108.918 E25.11946
G1 X122.461 Y109.337 E25.12509
G1 X90.614 Y77.490 E25.73089
G1 X90.195 Y77.490 E25.73653
G1 X122.461 Y109.756 E26.35030
G1 X122.461 Y110.175 E26.35593
G1 X89.776 Y77.490 E26.97767
G1 X89.358 Y77.490 E26.98330
G1 X122.461 Y110.593 E27.61300
G1 X122.461 Y111.012 E27.61864
G1 X88.939 Y77.490 E28.25631
G1 X88.520 Y77.490 E28.26194
G1 X122.461 Y111.431 E28.90758
G1 X122.461 Y111.850 E28.91321
G1 X88.101 Y77.490 E29.56682
G1 X87.682 Y77.490 E29.57245
G1 X122.461 Y112.269 E30.23402
G1 X122.461 Y112.688 E30.23965
G1 X87.264 Y77.490 E30.90919
G1 X86.845 Y77.490 E30.91482
G1 X122.461 Y113.106 E31.59233
G1 X122.461 Y113.525 E31.59796
G1 X86.426 Y77.490 E32.28343
G1 X86.007 Y77.490 E32.28907
G1 X122.461 Y113.944 E32.98251
G1 X122.461 Y114.363 E32.98814
G1 X85.588 Y77.490 E33.68954
G1 X85.169 Y77.490 E33.69518
G1 X122.461 Y114.782 E34.40455
G1 X122.461 Y115.200 E34.41018
G1 X84.751 Y77.490 E35.12752
G1 X84.332 Y77.490 E35.13316
G1 X122.461 Y115.619 E35.85846
G1 X122.461 Y116.038 E35.86409
G1 X83.913 Y77.490 E36.59737
G1 X83.494 Y77.490 E36.60300
G1 X122.421 Y116.417 E37.34348
G1 X122.285 Y116.700 E37.34770
G1 X83.075 Y77.490 E38.09356
G1 X82.657 Y77.490 E38.09919
G1 X122.149 Y116.982 E38.85042
G1 X121.995 Y117.247 E38.85454
G1 X82.238 Y77.490 E39.61082
G1 X81.819 Y77.490 E39.61645
G1 X121.666 Y117.337 E40.37442
G1 X121.325 Y117.414 E40.37913
G1 X81.400 Y77.490 E41.13858
G1 X80.981 Y77.490 E41.14422
G1 X120.984 Y117.492 E41.90515
G1 X120.583 Y117.510 E41.91055
G1 X80.562 Y77.490 E42.67182
G1 X80.144 Y77.490 E42.67746
G1 X120.164 Y117.510 E43.43873
G1 X119.745 Y117.510 E43.44436
G1 X79.725 Y77.490 E44.20564
G1 X79.306 Y77.490 E44.21127
G1 X119.326 Y117.510 E44.97254
G1 X118.907 Y117.510 E44.97818
G1 X78.887 Y77.490 E45.73945
G1 X78.468 Y77.490 E45.74508
G1 X118.489 Y117.510 E46.50636
G1 X118.070 Y117.510 E46.51199
G1 X78.050 Y77.490 E47.27326
G1 X77.631 Y77.490 E47.27890
G1 X117.651 Y117.510 E48.04017
G1 X117.232 Y117.510 E48.04580
G1 X77.212 Y77.490 E48.80708
G1 X76.793 Y77.490 E48.81271
G1 X116.813 Y117.510 E49.57398
G1 X116.394 Y117.510 E49.57962
G1 X76.374 Y77.490 E50.34089
G1 X75.955 Y77.490 E50.34652
G1 X115.976 Y117.510 E51.10780
G1 X115.557 Y117.510 E51.11343
G1 X75.537 Y77.490 E51.87470
G1 X75.118 Y77.490 E51.88034
G1 X115.138 Y117.510 E52.64161
G1 X114.719 Y117.510 E52.64724
G1 X74.699 Y77.490 E53.40851
G1 X74.280 Y77.490 E53.41415
G1 X114.300 Y117.510 E54.17542
G1 X113.882 Y117.510 E54.18105
G1 X73.861 Y77.490 E54.94233
G1 X73.443 Y77.490 E54.94796
G1 X113.463 Y117.510 E55.70923
G1 X113.044 Y117.510 E55.71487
G1 X73.121 Y77.588 E56.47428
G1 X72.888 Y77.773 E56.47829
G1 X112.625 Y117.510 E57.23417
G1 X112.206 Y117.510 E57.23980
G1 X72.658 Y77.962 E57.99209
G1 X72.539 Y78.261 E57.99643
G1 X111.787 Y117.510 E58.74302
G1 X111.369 Y117.510 E58.74866
G1 X72.539 Y78.680 E59.48728
G1 X72.539 Y79.099 E59.49292
G1 X110.950 Y117.510 E60.22358
G1 X110.531 Y117.510 E60.22921
G1 X72.539 Y79.518 E60.95191
G1 X72.539 Y79.937 E60.95754
G1 X110.112 Y117.510 E61.67227
G1 X109.693 Y117.510 E61.67791
G1 X72.539 Y80.356 E62.38467
G1 X72.539 Y80.774 E62.39030
G1 X109.275 Y117.510 E63.08910
G1 X108.856 Y117.510 E63.09473
G1 X72.539 Y81.193 E63.78556
G1 X72.539 Y81.612 E63.79119
G1 X108.437 Y117.510 E64.47405
G1 X108.018 Y117.510 E64.47969
G1 X72.539 Y82.031 E65.15458
G1 X72.539 Y82.450 E65.16021
G1 X107.599 Y117.510 E65.82714
G1 X107.180 Y117.510 E65.83278
G1 X72.539 Y82.868 E66.49174
G1 X72.539 Y83.287 E66.49737
G1 X106.762 Y117.510 E67.14836
G1 X106.343 Y117.510 E67.15400
G1 X72.539 Y83.706 E67.79702
G1 X72.539 Y84.125 E67.80266
G1 X105.924 Y117.510 E68.43772
G1 X105.505 Y117.510 E68.44335
G1 X72.539 Y84.544 E69.07045
G1 X72.539 Y84.963 E69.07608
G1 X105.086 Y117.510 E69.69521
G1 X104.668 Y117.510 E69.70084
G1 X72.539 Y85.381 E70.31200
G1 X72.539 Y85.800 E70.31763
G1 X104.249 Y117.510 E70.92082
G1 X103.830 Y117.510 E70.92646
G1 X72.539 Y86.219 E71.52168
G1 X72.539 Y86.638 E71.52732
G1 X103.411 Y117.510 E72.11458
G1 X102.992 Y117.510 E72.12021
G1 X72.539 Y87.057 E72.69950
G1 X72.539 Y87.475 E72.70514
G1 X102.573 Y117.510 E73.27646
G1 X102.155 Y117.510 E73.28209
G1 X72.539 Y87.894 E73.84545
G1 X72.539 Y88.313 E73.85109
G1 X101.736 Y117.510 E74.40648
G1 X101.317 Y117.510 E74.41211
G1 X72.539 Y88.732 E74.95954
G1 X72.539 Y89.151 E74.96517
G1 X100.898 Y117.510 E75.50463
G1 X100.479 Y117.510 E75.51026
G1 X72.539 Y89.570 E76.04175
G1 X72.539 Y89.988 E76.04738
G1 X100.061 Y117.510 E76.57091
G1 X99.642 Y117.510 E76.57654
G1 X72.539 Y90.407 E77.09210
G1 X72.539 Y90.826 E77.09773
G1 X99.223 Y117.510 E77.60532
G1 X98.804 Y117.510 E77.61096
G1 X72.539 Y91.245 E78.11058
G1 X72.539 Y91.664 E78.11621
G1 X98.385 Y117.510 E78.60787
G1 X97.966 Y117.510 E78.61350
G1 X72.539 Y92.082 E79.09719
G1 X72.539 Y92.501 E79.10283
G1 X97.548 Y117.510 E79.57855
G1 X97.129 Y117.510 E79.58418
G1 X72.539 Y92.920 E80.05194
G1 X72.539 Y93.339 E80.05757
G1 X96.710 Y117.510 E80.51736
G1 X96.291 Y117.510 E80.52300
G1 X72.539 Y93.758 E80.97482
G1 X72.539 Y94.177 E80.98045
G1 X95.872 Y117.510 E81.42431
G1 X95.454 Y117.510 E81.42994
G1 X72.539 Y94.595 E81.86583
G1 X72.539 Y95.014 E81.87146
G1 X95.035 Y117.510 E82.29938
G1 X94.616 Y117.510 E82.30502
G1 X72.539 Y95.433 E82.72497
G1 X72.539 Y95.852 E82.73060
G1 X94.197 Y117.510 E83.14259
G1 X93.778 Y117.510 E83.14823
G1 X72.539 Y96.271 E83.55225
G1 X72.539 Y96.689 E83.55788
G1 X93.359 Y117.510 E83.95394
G1 X92.941 Y117.510 E83.95957
G1 X72.539 Y97.108 E84.34766
G1 X72.539 Y97.527 E84.35329
G1 X92.522 Y117.510 E84.73341
G1 X92.103 Y117.510 E84.73904
G1 X72.539 Y97.946 E85.11120
G1 X72.539 Y98.365 E85.11683
G1 X91.684 Y117.510 E85.48102
G1 X91.265 Y117.510 E85.48665
G1 X72.539 Y98.784 E85.84287
G1 X72.539 Y99.202 E85.84850
G1 X90.846 Y117.510 E86.19676
G1 X90.428 Y117.510 E86.20239
G1 X72.539 Y99.621 E86.54268
G1 X72.539 Y100.040 E86.54831
G1 X90.009 Y117.510 E86.88063
G1 X89.590 Y117.510 E86.88626
