; generated by Slic3r 1.2.6 on 2015-02-15 at 21:04:33

; external perimeters extrusion width = 0.40mm
; perimeters extrusion width = 0.48mm
; infill extrusion width = 0.48mm
; solid infill extrusion width = 0.48mm
; top infill extrusion width = 0.48mm

M190 S65 ; set bed temperature
M104 S190 ; set temperature
G28 ; home all axes
M109 S190 ; wait for temperature to be reached
G21 ; set units to millimeters
G90 ; use absolute coordinates
M82 ; use absolute distances for extrusion
G92 E0
M106 S89.25
G1 E-3.00000 F2400.00000
G92 E0
G1 Z0.140 F9000.000
G1 Z0.440 F9000.000
G1 X6.789 Y4.779 F9000.000
G1 Z0.140 F9000.000
G1 E3.00000 F2400.00000
G1 X8.536 Y3.336 E3.02602 F2400.000
G1 X11.721 Y2.497 E3.06383
G1 X54.721 Y2.497 E3.55745
G1 X56.952 Y2.894 E3.58347
G1 X58.910 Y4.036 E3.60949 F2400.000
G1 X60.354 Y5.783 E3.63551
G1 X61.192 Y8.969 E3.67332
G1 X61.192 Y98.969 E4.70648
G1 X60.795 Y101.200 E4.73250
G1 X59.653 Y103.158 E4.75852
G1 X57.906 Y104.602 E4.78453
G1 X54.721 Y105.440 E4.82234
G1 X11.721 Y105.440 E5.31597
G1 X9.489 Y105.043 E5.34198
G1 X7.532 Y103.901 E5.36800
G1 X6.088 Y102.154 E5.39402
G1 X5.250 Y98.969 E5.43183
G1 X5.250 Y8.969 E6.46499
G1 X5.647 Y6.737 E6.49101
G1 X6.758 Y4.831 E6.51634
G1 X6.970 Y4.957 F9000.000
G1 X7.022 Y4.869 E6.51752 F2400.000
G1 X8.760 Y3.481 E6.54305
G1 X11.721 Y2.733 E6.57811
G1 X54.721 Y2.733 E7.07173
G1 X56.910 Y3.130 E7.09727
G1 X58.820 Y4.270 E7.12281 F2400.000
G1 X60.209 Y6.008 E7.14834
G1 X60.957 Y8.969 E7.18340
G1 X60.957 Y98.969 E8.21657
G1 X60.560 Y101.157 E8.24210
G1 X59.420 Y103.068 E8.26764
G1 X57.682 Y104.456 E8.29318
G1 X54.721 Y105.204 E8.32824
G1 X11.721 Y105.204 E8.82186
G1 X9.532 Y104.807 E8.84739
G1 X7.622 Y103.668 E8.87293
G1 X6.233 Y101.930 E8.89847
G1 X5.485 Y98.969 E8.93353
G1 X5.485 Y8.969 E9.96669
G1 X5.882 Y6.780 E9.99223
G1 X6.939 Y5.009 E10.01590
G1 E7.01590 F2400.00000
G92 E0
G1 Z0.440 F9000.000
G1 X11.871 Y9.119 F9000.000
G1 Z0.140 F9000.000
G1 E3.00000 F2400.00000
G1 X54.571 Y9.119 E3.49018 F2400.000
G1 X54.571 Y98.819 E4.51990
G1 X11.871 Y98.819 E5.01008 F2400.000
G1 X11.871 Y9.179 E6.03911
G1 X12.217 Y9.319 F9000.000
G1 X12.107 Y9.354 F9000.000
G1 X54.335 Y9.354 E6.52388 F2400.000
G1 X54.335 Y98.583 E7.54819
G1 X12.107 Y98.583 E8.03295 F2400.000
G1 X12.107 Y9.414 E9.05658
G1 X12.342 Y9.590 F9000.000
G1 X54.100 Y9.590 E9.53594 F2400.000
G1 X54.100 Y98.347 E10.55484
G1 X12.342 Y98.347 E11.03419 F2400.000
G1 X12.342 Y9.650 E12.05241
G1 E9.05241 F2400.00000
G92 E0
G1 Z0.440 F9000.000
G1 X53.864 Y55.341 F9000.000
G1 Z0.140 F9000.000
G1 E3.00000 F2400.00000
G1 X53.864 Y98.112 E3.49099 F2400.000
G1 X12.578 Y98.112 E3.96494 F2400.000
G1 X12.578 Y9.825 E4.97843
G1 X53.864 Y9.825 E5.45238
G1 X53.864 Y55.281 E5.97419
G1 E2.97419 F2400.00000
G92 E0
G1 Z0.440 F9000.000
G1 X36.304 Y58.967 F9000.000
G1 Z0.140 F9000.000
G1 E3.00000 F2400.00000
G1 X36.463 Y59.969 E3.01164 F2400.000
G1 X36.304 Y60.970 E3.02329
G1 X35.844 Y61.874 E3.03493
G1 X35.127 Y62.591 E3.04657
G1 X34.223 Y63.052 E3.05822
G1 X33.221 Y63.210 E3.06986
G1 X32.219 Y63.052 E3.08151
G1 X31.315 Y62.591 E3.09315
G1 X30.598 Y61.874 E3.10479
G1 X30.138 Y60.970 E3.11644
G1 X29.979 Y59.969 E3.12808
G1 X30.138 Y58.967 E3.13972
G1 X30.598 Y58.063 E3.15137
G1 X31.315 Y57.346 E3.16301
G1 X32.219 Y56.885 E3.17466
G1 X33.142 Y56.739 E3.18538
G1 X33.221 Y56.727 E3.18630 F2400.000
G1 X34.223 Y56.885 E3.19794
G1 X35.127 Y57.346 E3.20959
G1 X35.844 Y58.063 E3.22123
G1 X36.277 Y58.913 E3.23218
G1 X36.691 Y59.070 F9000.000
G1 X36.487 Y58.806 F9000.000
G1 X36.531 Y58.893 E3.23330 F2400.000
G1 X36.701 Y59.969 E3.24580
G1 X36.531 Y61.044 E3.25830
G1 X36.037 Y62.014 E3.27080
G1 X35.267 Y62.784 E3.28330
G1 X34.296 Y63.279 E3.29580
G1 X33.221 Y63.449 E3.30830
G1 X32.145 Y63.279 E3.32081
G1 X31.175 Y62.784 E3.33331
G1 X30.488 Y62.098 E3.34445
G1 X30.405 Y62.014 E3.34581
G1 X29.911 Y61.044 E3.35831
G1 X29.741 Y59.969 E3.37081
G1 X29.911 Y58.893 E3.38331
G1 X30.405 Y57.923 E3.39581
G1 X31.175 Y57.153 E3.40831
G1 X32.145 Y56.659 E3.42081 F2400.000
G1 X33.221 Y56.488 E3.43331
G1 X34.296 Y56.659 E3.44581
G1 X35.267 Y57.153 E3.45831
G1 X36.037 Y57.923 E3.47081
G1 X36.460 Y58.753 E3.48151
G1 X36.670 Y58.646 F9000.000
G1 X36.758 Y58.819 E3.48374 F2400.000
G1 X36.940 Y59.969 E3.49710
G1 X36.758 Y61.118 E3.51045
G1 X36.230 Y62.155 E3.52381
G1 X35.407 Y62.977 E3.53717
G1 X34.370 Y63.506 E3.55053
G1 X33.221 Y63.688 E3.56388
G1 X32.072 Y63.506 E3.57724
G1 X31.035 Y62.977 E3.59060
G1 X30.212 Y62.155 E3.60396
G1 X29.684 Y61.118 E3.61731
G1 X29.502 Y59.969 E3.63067
G1 X29.684 Y58.819 E3.64403
G1 X30.212 Y57.783 E3.65738
G1 X31.035 Y56.960 E3.67074
G1 X32.072 Y56.432 E3.68410
G1 X33.068 Y56.274 E3.69568
G1 X33.221 Y56.250 E3.69746 F2400.000
G1 X34.370 Y56.432 E3.71081
G1 X35.407 Y56.960 E3.72417
G1 X36.230 Y57.783 E3.73753
G1 X36.642 Y58.592 E3.74796
G1 X36.852 Y58.486 F9000.000
G1 X36.985 Y58.746 E3.75131 F2400.000
G1 X37.178 Y59.969 E3.76553
G1 X36.985 Y61.192 E3.77974
G1 X36.423 Y62.295 E3.79396
G1 X35.547 Y63.170 E3.80817
G1 X34.444 Y63.733 E3.82238
G1 X33.221 Y63.926 E3.83660
G1 X31.998 Y63.733 E3.85081
G1 X30.895 Y63.170 E3.86503
G1 X30.019 Y62.295 E3.87924
G1 X29.457 Y61.192 E3.89345
G1 X29.263 Y59.969 E3.90767
G1 X29.457 Y58.746 E3.92188
G1 X30.019 Y57.642 E3.93610
G1 X30.895 Y56.767 E3.95031
G1 X31.998 Y56.205 E3.96452
G1 X33.031 Y56.041 E3.97653
G1 X33.221 Y56.011 E3.97874 F2400.000
G1 X34.444 Y56.205 E3.99295
G1 X35.547 Y56.767 E4.00717
G1 X36.423 Y57.642 E4.02138
G1 X36.825 Y58.432 E4.03155
G1 E1.03155 F2400.00000
G92 E0
G1 Z0.440 F9000.000
G1 X34.489 Y56.067 F9000.000
G1 X29.352 Y39.640 F9000.000
G1 X31.938 Y56.021 F9000.000
G1 Z0.140 F9000.000
G1 E3.00000 F2400.00000
G1 X33.221 Y55.818 E3.01496 F2400.000
G1 X34.504 Y56.021 E3.02992
G1 X35.661 Y56.611 E3.04488
G1 X36.579 Y57.529 E3.05984
G1 X37.168 Y58.686 E3.07480
G1 X37.371 Y59.969 E3.08976
G1 X37.168 Y61.251 E3.10472
G1 X36.579 Y62.408 E3.11968
G1 X35.661 Y63.326 E3.13463
G1 X34.504 Y63.916 E3.14959
G1 X33.221 Y64.119 E3.16455
G1 X31.938 Y63.916 E3.17951
G1 X30.781 Y63.326 E3.19447
G1 X29.863 Y62.408 E3.20943
G1 X29.274 Y61.251 E3.22439
G1 X29.070 Y59.969 E3.23935
G1 X29.274 Y58.686 E3.25431
G1 X29.863 Y57.529 E3.26927
G1 X30.781 Y56.611 E3.28423
G1 X31.885 Y56.048 E3.29850
G1 X31.811 Y55.821 F9000.000
G1 X30.641 Y56.417 E3.31363 F2400.000
G1 X29.669 Y57.388 E3.32945
G1 X29.046 Y58.612 E3.34527
G1 X28.831 Y59.969 E3.36110
G1 X29.046 Y61.325 E3.37692
G1 X29.669 Y62.549 E3.39274
G1 X30.641 Y63.520 E3.40856
G1 X31.864 Y64.144 E3.42439
G1 X33.221 Y64.359 E3.44021
G1 X34.578 Y64.144 E3.45603
G1 X35.801 Y63.520 E3.47185
G1 X36.773 Y62.549 E3.48767
G1 X37.396 Y61.325 E3.50350
G1 X37.611 Y59.969 E3.51932
G1 X37.396 Y58.612 E3.53514
G1 X36.773 Y57.388 E3.55096
G1 X35.801 Y56.417 E3.56679
G1 X34.578 Y55.794 E3.58261
G1 X33.221 Y55.579 E3.59843
G1 X31.864 Y55.794 E3.61425
G1 X31.737 Y55.593 F9000.000
G1 X30.500 Y56.223 E3.63025 F2400.000
G1 X29.476 Y57.248 E3.64693
G1 X28.818 Y58.538 E3.66362
G1 X28.592 Y59.969 E3.68030
G1 X28.818 Y61.399 E3.69699
G1 X29.476 Y62.690 E3.71367
G1 X30.500 Y63.714 E3.73036
G1 X31.790 Y64.371 E3.74704
G1 X33.221 Y64.598 E3.76373
G1 X34.651 Y64.371 E3.78041
G1 X35.942 Y63.714 E3.79710
G1 X36.966 Y62.690 E3.81378
G1 X37.624 Y61.399 E3.83047
G1 X37.850 Y59.969 E3.84715
G1 X37.624 Y58.538 E3.86384
G1 X36.966 Y57.248 E3.88052
G1 X35.942 Y56.223 E3.89721
G1 X34.651 Y55.566 E3.91389
G1 X33.221 Y55.339 E3.93058
G1 X31.790 Y55.566 E3.94726
G1 X31.663 Y55.365 F9000.000
G1 X30.359 Y56.030 E3.96412 F2400.000
G1 X29.282 Y57.107 E3.98167
G1 X28.590 Y58.464 E3.99922
G1 X28.352 Y59.969 E4.01676
G1 X28.590 Y61.473 E4.03431
G1 X29.282 Y62.830 E4.05186
G1 X30.359 Y63.908 E4.06941
G1 X31.716 Y64.599 E4.08696
G1 X33.221 Y64.837 E4.10450
G1 X34.725 Y64.599 E4.12205
G1 X36.083 Y63.908 E4.13960
G1 X37.160 Y62.830 E4.15715
G1 X37.851 Y61.473 E4.17470
G1 X38.090 Y59.969 E4.19224
G1 X37.851 Y58.464 E4.20979
G1 X37.160 Y57.107 E4.22734
G1 X36.083 Y56.030 E4.24489
G1 X34.725 Y55.338 E4.26244
G1 X33.221 Y55.100 E4.27998
G1 X31.716 Y55.338 E4.29753
G1 X31.589 Y55.138 F9000.000
G1 X30.218 Y55.836 E4.31525 F2400.000
G1 X29.088 Y56.966 E4.33366
G1 X28.363 Y58.390 E4.35207
G1 X28.113 Y59.969 E4.37048
G1 X28.363 Y61.547 E4.38889
G1 X29.088 Y62.971 E4.40730
G1 X30.218 Y64.101 E4.42571
G1 X31.642 Y64.827 E4.44413
G1 X33.221 Y65.077 E4.46254
G1 X34.799 Y64.827 E4.48095
G1 X36.223 Y64.101 E4.49936
G1 X37.354 Y62.971 E4.51777
G1 X38.079 Y61.547 E4.53618
G1 X38.329 Y59.969 E4.55459
G1 X38.079 Y58.390 E4.57300
G1 X37.354 Y56.966 E4.59141
G1 X36.223 Y55.836 E4.60982
G1 X34.799 Y55.110 E4.62823
G1 X33.221 Y54.861 E4.64664
G1 X31.642 Y55.110 E4.66505
G1 X31.515 Y54.910 F9000.000
G1 X30.078 Y55.642 E4.68364 F2400.000
G1 X28.895 Y56.825 E4.70291
G1 X28.135 Y58.316 E4.72218
G1 X27.873 Y59.969 E4.74146
G1 X28.135 Y61.621 E4.76073
G1 X28.895 Y63.112 E4.78000
G1 X30.078 Y64.295 E4.79928
G1 X31.569 Y65.054 E4.81855
G1 X33.221 Y65.316 E4.83783
G1 X34.873 Y65.054 E4.85710
G1 X36.364 Y64.295 E4.87637
G1 X37.547 Y63.112 E4.89565
G1 X38.307 Y61.621 E4.91492
G1 X38.568 Y59.969 E4.93419
G1 X38.307 Y58.316 E4.95347
G1 X37.547 Y56.825 E4.97274
G1 X36.364 Y55.642 E4.99201
G1 X34.873 Y54.883 E5.01129
G1 X33.221 Y54.621 E5.03056
G1 X31.569 Y54.883 E5.04983
G1 X31.441 Y54.682 F9000.000
G1 X29.937 Y55.449 E5.06928 F2400.000
G1 X28.701 Y56.685 E5.08942
G1 X27.907 Y58.242 E5.10955
G1 X27.634 Y59.969 E5.12969
G1 X27.907 Y61.695 E5.14983
G1 X28.701 Y63.253 E5.16996
G1 X29.937 Y64.489 E5.19010
G1 X31.495 Y65.282 E5.21024
G1 X33.221 Y65.555 E5.23037
G1 X34.947 Y65.282 E5.25051
G1 X36.505 Y64.489 E5.27064
G1 X37.741 Y63.253 E5.29078
G1 X38.534 Y61.695 E5.31092
G1 X38.808 Y59.969 E5.33105
G1 X38.534 Y58.242 E5.35119
G1 X37.741 Y56.685 E5.37133
G1 X36.505 Y55.449 E5.39146
G1 X34.947 Y54.655 E5.41160
G1 X33.221 Y54.382 E5.43174
G1 X31.495 Y54.655 E5.45187
G1 X31.367 Y54.455 F9000.000
G1 X29.796 Y55.255 E5.47218 F2400.000
G1 X28.507 Y56.544 E5.49318
G1 X27.680 Y58.168 E5.51418
G1 X27.395 Y59.969 E5.53518
G1 X27.680 Y61.769 E5.55618
G1 X28.507 Y63.393 E5.57718
G1 X29.796 Y64.682 E5.59818
G1 X31.421 Y65.510 E5.61918
G1 X33.221 Y65.795 E5.64017
G1 X35.021 Y65.510 E5.66117
G1 X36.646 Y64.682 E5.68217
G1 X37.935 Y63.393 E5.70317
G1 X38.762 Y61.769 E5.72417
G1 X39.047 Y59.969 E5.74517
G1 X38.762 Y58.168 E5.76617
G1 X37.935 Y56.544 E5.78717
G1 X36.646 Y55.255 E5.80817
G1 X35.021 Y54.427 E5.82917
G1 X33.221 Y54.142 E5.85017
G1 X31.421 Y54.427 E5.87116
G1 X31.293 Y54.227 F9000.000
G1 X29.656 Y55.061 E5.89234 F2400.000
G1 X28.314 Y56.403 E5.91420
G1 X27.452 Y58.094 E5.93606
G1 X27.155 Y59.969 E5.95792
G1 X27.452 Y61.843 E5.97978
G1 X28.314 Y63.534 E6.00165
G1 X29.656 Y64.876 E6.02351
G1 X31.347 Y65.737 E6.04537
G1 X33.221 Y66.034 E6.06723
G1 X35.095 Y65.737 E6.08909
G1 X36.786 Y64.876 E6.11096
G1 X38.128 Y63.534 E6.13282
G1 X38.990 Y61.843 E6.15468
G1 X39.287 Y59.969 E6.17654
G1 X38.990 Y58.094 E6.19840
G1 X38.128 Y56.403 E6.22027
G1 X36.786 Y55.061 E6.24213
G1 X35.095 Y54.200 E6.26399
G1 X33.221 Y53.903 E6.28585
G1 X31.347 Y54.200 E6.30771
G1 X31.219 Y53.999 F9000.000
G1 X29.515 Y54.868 E6.32975 F2400.000
G1 X28.120 Y56.263 E6.35247
G1 X27.224 Y58.020 E6.37520
G1 X26.916 Y59.969 E6.39792
G1 X27.224 Y61.917 E6.42065
G1 X28.120 Y63.675 E6.44337
G1 X29.515 Y65.070 E6.46610
G1 X31.273 Y65.965 E6.48882
G1 X33.221 Y66.274 E6.51155
G1 X35.169 Y65.965 E6.53427
G1 X36.927 Y65.070 E6.55700
G1 X38.322 Y63.675 E6.57972
G1 X39.217 Y61.917 E6.60245
G1 X39.526 Y59.969 E6.62517
G1 X39.217 Y58.020 E6.64790
G1 X38.322 Y56.263 E6.67062
G1 X36.927 Y54.868 E6.69335
G1 X35.169 Y53.972 E6.71607
G1 X33.221 Y53.664 E6.73880
G1 X31.273 Y53.972 E6.76152
G1 X31.145 Y53.772 F9000.000
G1 X29.374 Y54.674 E6.78442 F2400.000
G1 X27.926 Y56.122 E6.80801
G1 X26.997 Y57.946 E6.83159
G1 X26.677 Y59.969 E6.85518
G1 X26.997 Y61.991 E6.87877
G1 X27.926 Y63.815 E6.90236
G1 X29.374 Y65.263 E6.92594
G1 X31.199 Y66.193 E6.94953
G1 X33.221 Y66.513 E6.97312
G1 X35.243 Y66.193 E6.99671
G1 X37.068 Y65.263 E7.02029
G1 X38.516 Y63.815 E7.04388
G1 X39.445 Y61.991 E7.06747
G1 X39.765 Y59.969 E7.09106
G1 X39.445 Y57.946 E7.11464
G1 X38.516 Y56.122 E7.13823
G1 X37.068 Y54.674 E7.16182
G1 X35.243 Y53.744 E7.18541
G1 X33.221 Y53.424 E7.20900
G1 X31.199 Y53.744 E7.23258
G1 X31.071 Y53.544 F9000.000
G1 X29.233 Y54.480 E7.25634 F2400.000
G1 X27.733 Y55.981 E7.28079
G1 X26.769 Y57.872 E7.30525
G1 X26.437 Y59.969 E7.32970
G1 X26.769 Y62.065 E7.35414
G1 X27.733 Y63.956 E7.37860
G1 X29.233 Y65.457 E7.40305
G1 X31.125 Y66.421 E7.42750
G1 X33.221 Y66.752 E7.45195
G1 X35.317 Y66.421 E7.47640
G1 X37.208 Y65.457 E7.50085
G1 X38.709 Y63.956 E7.52530
G1 X39.673 Y62.065 E7.54975
G1 X40.005 Y59.969 E7.57420
G1 X39.673 Y57.872 E7.59865
G1 X38.709 Y55.981 E7.62310
G1 X37.208 Y54.480 E7.64755
G1 X35.317 Y53.517 E7.67200
G1 X33.221 Y53.185 E7.69645
G1 X31.125 Y53.517 E7.72090
G1 X30.997 Y53.316 F9000.000
G1 X29.093 Y54.287 E7.74553 F2400.000
G1 X27.539 Y55.840 E7.77084
G1 X26.541 Y57.798 E7.79615
G1 X26.198 Y59.969 E7.82147
G1 X26.541 Y62.139 E7.84678
G1 X27.539 Y64.097 E7.87209
G1 X29.093 Y65.651 E7.89741
G1 X31.051 Y66.648 E7.92272
G1 X33.221 Y66.992 E7.94803
G1 X35.391 Y66.648 E7.97334
G1 X37.349 Y65.651 E7.99866
G1 X38.903 Y64.097 E8.02397
G1 X39.901 Y62.139 E8.04929
G1 X40.244 Y59.969 E8.07460
G1 X39.901 Y57.798 E8.09991
G1 X38.903 Y55.840 E8.12523
G1 X37.349 Y54.287 E8.15054
G1 X35.391 Y53.289 E8.17585
G1 X33.221 Y52.945 E8.20117
G1 X31.051 Y53.289 E8.22648
G1 X30.923 Y53.089 F9000.000
G1 X28.952 Y54.093 E8.25196 F2400.000
G1 X27.345 Y55.700 E8.27814
G1 X26.314 Y57.724 E8.30432
G1 X25.958 Y59.969 E8.33049
G1 X26.314 Y62.213 E8.35667
G1 X27.345 Y64.237 E8.38284
G1 X28.952 Y65.844 E8.40902
G1 X30.977 Y66.876 E8.43520
G1 X33.221 Y67.231 E8.46137
G1 X35.465 Y66.876 E8.48755
G1 X37.490 Y65.844 E8.51373
G1 X39.097 Y64.237 E8.53990
G1 X40.128 Y62.213 E8.56608
G1 X40.484 Y59.969 E8.59225
G1 X40.128 Y57.724 E8.61843
G1 X39.097 Y55.700 E8.64461
G1 X37.490 Y54.093 E8.67078
G1 X35.465 Y53.061 E8.69696
G1 X33.221 Y52.706 E8.72313
G1 X30.977 Y53.061 E8.74931
G1 X30.849 Y52.861 F9000.000
G1 X28.811 Y53.899 E8.77566 F2400.000
G1 X27.152 Y55.559 E8.80270
G1 X26.086 Y57.650 E8.82974
G1 X25.719 Y59.969 E8.85678
G1 X26.086 Y62.287 E8.88381
G1 X27.152 Y64.378 E8.91085
G1 X28.811 Y66.038 E8.93789
G1 X30.903 Y67.104 E8.96493
G1 X33.221 Y67.471 E8.99197
G1 X35.539 Y67.104 E9.01901
G1 X37.631 Y66.038 E9.04605
G1 X39.290 Y64.378 E9.07309
G1 X40.356 Y62.287 E9.10013
G1 X40.723 Y59.969 E9.12717
G1 X40.356 Y57.650 E9.15420
G1 X39.290 Y55.559 E9.18124
G1 X37.631 Y53.899 E9.20828
G1 X35.539 Y52.834 E9.23532
G1 X33.221 Y52.467 E9.26236
G1 X30.903 Y52.834 E9.28940
G1 X30.775 Y52.633 F9000.000
G1 X28.671 Y53.706 E9.31661 F2400.000
G1 X26.958 Y55.418 E9.34451
G1 X25.858 Y57.576 E9.37242
G1 X25.480 Y59.969 E9.40032
G1 X25.858 Y62.361 E9.42822
G1 X26.958 Y64.519 E9.45612
G1 X28.671 Y66.232 E9.48402
G1 X30.829 Y67.331 E9.51192
G1 X33.221 Y67.710 E9.53983
G1 X35.613 Y67.331 E9.56773
G1 X37.771 Y66.232 E9.59563
G1 X39.484 Y64.519 E9.62353
G1 X40.584 Y62.361 E9.65143
G1 X40.962 Y59.969 E9.67933
G1 X40.584 Y57.576 E9.70723
G1 X39.484 Y55.418 E9.73514
G1 X37.771 Y53.706 E9.76304
G1 X35.613 Y52.606 E9.79094
G1 X33.221 Y52.227 E9.81884
G1 X30.829 Y52.606 E9.84674
G1 X30.701 Y52.406 F9000.000
G1 X28.530 Y53.512 E9.87482 F2400.000
G1 X26.764 Y55.278 E9.90358
G1 X25.631 Y57.502 E9.93235
G1 X25.240 Y59.969 E9.96111
G1 X25.631 Y62.435 E9.98988
G1 X26.764 Y64.660 E10.01864
G1 X28.530 Y66.425 E10.04741
G1 X30.755 Y67.559 E10.07617
G1 X33.221 Y67.949 E10.10494
G1 X35.687 Y67.559 E10.13370
G1 X37.912 Y66.425 E10.16246
G1 X39.678 Y64.660 E10.19123
G1 X40.811 Y62.435 E10.22000
G1 X41.202 Y59.969 E10.24876
G1 X40.811 Y57.502 E10.27752
G1 X39.678 Y55.278 E10.30629
G1 X37.912 Y53.512 E10.33505
G1 X35.687 Y52.378 E10.36382
G1 X33.221 Y51.988 E10.39258
G1 X30.755 Y52.378 E10.42135
G1 X30.627 Y52.178 F9000.000
G1 X28.389 Y53.318 E10.45028 F2400.000
G1 X26.571 Y55.137 E10.47991
G1 X25.403 Y57.429 E10.50954
G1 X25.001 Y59.969 E10.53917
