; generated by Slic3r 1.2.0 on 2014-10-23 at 10:23:10

; external perimeters extrusion width = 0.50mm
; perimeters extrusion width = 0.72mm
; infill extrusion width = 0.72mm
; solid infill extrusion width = 0.72mm
; top infill extrusion width = 0.72mm

G21 ; set units to millimeters
M190 S65 ; wait for bed temperature to be reached
M104 S180 ; set temperature
G28 ; home all axes
M109 S180 ; wait for temperature to be reached
G90 ; use absolute coordinates
G92 E0
M82 ; use absolute distances for extrusion
M106 S89
G1 F2400.000 E-2.00000
G1 Z0.600 F9000.000
G92 E0
G1 X81.453 Y68.518 F9000.000
G1 Z0.300 F9000.000
G1 E2.00000 F2400.000
G1 X83.003 Y66.847 E2.02355 F2400.000
G1 X84.495 Y65.657 E2.04327
G1 X86.645 Y64.451 E2.06874
G1 X89.363 Y63.989 E2.09722
G1 X95.763 Y64.072 E2.16335
G1 X98.191 Y64.500 E2.18882 F2400.000
G1 X99.489 Y65.096 E2.20358
G1 X100.279 Y65.552 E2.21301
G1 X102.062 Y66.974 E2.23656
G1 X103.360 Y68.372 E2.25627
G1 X104.644 Y70.256 E2.27983
G1 X105.472 Y71.975 E2.29954
G1 X106.144 Y74.154 E2.32310
G1 X106.514 Y77.180 E2.35460
G1 X106.428 Y123.120 E2.82924
G1 X106.144 Y125.007 E2.84895
G1 X105.472 Y127.186 E2.87250
G1 X104.644 Y128.904 E2.89221
G1 X103.360 Y130.788 E2.91577
G1 X102.062 Y132.187 E2.93548
G1 X100.279 Y133.608 E2.95904
G1 X98.627 Y134.562 E2.97875
G1 X96.505 Y135.395 E3.00231
G1 X94.645 Y135.820 E3.02202
G1 X92.371 Y135.990 E3.04557
G1 X90.468 Y135.848 E3.06529
G1 X88.246 Y135.340 E3.08884
G1 X86.470 Y134.644 E3.10855
G1 X84.495 Y133.503 E3.13211
G1 X83.003 Y132.314 E3.15182
G1 X81.453 Y130.643 E3.17538
G1 X80.378 Y129.066 E3.19509
G1 X79.389 Y127.012 E3.21864
G1 X78.826 Y125.189 E3.23836
G1 X78.486 Y122.934 E3.26191
G1 X78.486 Y76.226 E3.74448
G1 X78.826 Y73.972 E3.76804
G1 X79.389 Y72.149 E3.78775
G1 X80.378 Y70.094 E3.81131
G1 X81.410 Y68.580 E3.83024
G1 X81.605 Y68.713 F9000.000
G1 X83.150 Y67.031 E3.85384 F2400.000
G1 X84.642 Y65.841 E3.87355
G1 X86.762 Y64.659 E3.89863
G1 X89.360 Y64.225 E3.92584
G1 X95.760 Y64.307 E3.99197
G1 X98.149 Y64.735 E4.01705 F2400.000
G1 X99.371 Y65.300 E4.03096
G1 X100.161 Y65.756 E4.04039
G1 X101.889 Y67.134 E4.06322
G1 X103.187 Y68.533 E4.08293
G1 X104.432 Y70.358 E4.10576
G1 X105.259 Y72.077 E4.12547
G1 X105.911 Y74.189 E4.14830
G1 X106.278 Y77.180 E4.17944
G1 X106.195 Y123.085 E4.65371
G1 X105.911 Y124.972 E4.67342
G1 X105.259 Y127.083 E4.69626
G1 X104.432 Y128.802 E4.71597
G1 X103.187 Y130.628 E4.73880
G1 X101.889 Y132.027 E4.75851
G1 X100.162 Y133.404 E4.78134
G1 X98.509 Y134.358 E4.80105
G1 X96.452 Y135.166 E4.82388
G1 X94.592 Y135.590 E4.84359
G1 X92.389 Y135.755 E4.86642
G1 X90.486 Y135.613 E4.88614
G1 X88.332 Y135.121 E4.90896
G1 X86.556 Y134.424 E4.92867
G1 X84.642 Y133.319 E4.95151
G1 X83.150 Y132.130 E4.97122
G1 X81.647 Y130.510 E4.99405
G1 X80.573 Y128.934 E5.01376
G1 X79.614 Y126.942 E5.03659
G1 X79.051 Y125.119 E5.05630
G1 X78.722 Y122.934 E5.07913
G1 X78.722 Y76.226 E5.56170
G1 X79.051 Y74.041 E5.58453
G1 X79.614 Y72.218 E5.60424
G1 X80.573 Y70.227 E5.62708
G1 X81.563 Y68.775 E5.64524
G1 X81.757 Y68.907 F9000.000
G1 X81.842 Y68.783 E5.64679 F2400.000
G1 X83.297 Y67.215 E5.66889
G1 X84.789 Y66.026 E5.68860
G1 X86.877 Y64.868 E5.71327
G1 X89.357 Y64.460 E5.73924
G1 X95.757 Y64.543 E5.80536
G1 X98.106 Y64.970 E5.83004 F2400.000
G1 X99.253 Y65.504 E5.84311
G1 X100.044 Y65.960 E5.85253
G1 X101.717 Y67.294 E5.87464
G1 X103.014 Y68.693 E5.89435
G1 X104.219 Y70.461 E5.91646
G1 X105.047 Y72.179 E5.93617
G1 X105.678 Y74.224 E5.95827
G1 X106.042 Y77.180 E5.98905
G1 X105.962 Y123.050 E6.46296
G1 X105.678 Y124.937 E6.48267
G1 X105.047 Y126.981 E6.50477
G1 X104.219 Y128.700 E6.52448
G1 X103.014 Y130.468 E6.54659
G1 X101.717 Y131.866 E6.56630
G1 X100.044 Y133.200 E6.58841
G1 X98.392 Y134.154 E6.60812
G1 X96.400 Y134.936 E6.63022
G1 X94.540 Y135.360 E6.64993
G1 X92.406 Y135.520 E6.67204
G1 X90.504 Y135.378 E6.69175
G1 X88.418 Y134.902 E6.71385
G1 X86.642 Y134.205 E6.73356
G1 X84.789 Y133.135 E6.75567
G1 X83.297 Y131.945 E6.77538
G1 X81.842 Y130.377 E6.79749
G1 X80.767 Y128.801 E6.81720
G1 X79.839 Y126.873 E6.83931
G1 X79.277 Y125.050 E6.85902
G1 X78.958 Y122.934 E6.88112
G1 X78.958 Y76.226 E7.36369
G1 X79.276 Y74.111 E7.38579
G1 X79.839 Y72.288 E7.40551
G1 X80.767 Y70.360 E7.42761
G1 X81.715 Y68.969 E7.44500
G1 X81.910 Y69.102 F9000.000
G1 X82.037 Y68.916 E7.44732 F2400.000
G1 X83.444 Y67.399 E7.46870
G1 X84.936 Y66.210 E7.48841
G1 X86.993 Y65.077 E7.51267
G1 X89.354 Y64.696 E7.53739
G1 X95.754 Y64.778 E7.60351
G1 X98.063 Y65.205 E7.62777 F2400.000
G1 X99.136 Y65.708 E7.64001
G1 X99.926 Y66.164 E7.64944
G1 X101.544 Y67.455 E7.67082
G1 X102.841 Y68.853 E7.69053
G1 X104.007 Y70.563 E7.71191
G1 X104.835 Y72.282 E7.73162
G1 X105.445 Y74.259 E7.75300
G1 X105.807 Y77.180 E7.78341
G1 X105.729 Y123.015 E8.25696
G1 X105.445 Y124.901 E8.27667
G1 X104.835 Y126.879 E8.29805
G1 X104.007 Y128.598 E8.31776
G1 X102.841 Y130.307 E8.33914
G1 X101.544 Y131.706 E8.35885
G1 X99.926 Y132.996 E8.38023
G1 X98.274 Y133.950 E8.39994
G1 X96.347 Y134.706 E8.42132
G1 X94.487 Y135.131 E8.44104
G1 X92.424 Y135.285 E8.46242
G1 X90.521 Y135.143 E8.48213
G1 X88.504 Y134.682 E8.50350
G1 X86.728 Y133.986 E8.52321
G1 X84.936 Y132.951 E8.54460
G1 X83.444 Y131.761 E8.56431
G1 X82.037 Y130.244 E8.58569
G1 X80.962 Y128.668 E8.60540
G1 X80.064 Y126.804 E8.62678
G1 X79.502 Y124.980 E8.64649
G1 X79.193 Y122.934 E8.66787
G1 X79.193 Y76.226 E9.15044
G1 X79.502 Y74.180 E9.17182
G1 X80.064 Y72.357 E9.19153
G1 X80.962 Y70.492 E9.21291
G1 X81.868 Y69.164 E9.22952
G1 X82.062 Y69.297 F9000.000
G1 X82.231 Y69.049 E9.23262 F2400.000
G1 X83.591 Y67.584 E9.25327
G1 X85.083 Y66.394 E9.27298
G1 X87.107 Y65.287 E9.29683
G1 X89.351 Y64.931 E9.32029
G1 X95.751 Y65.014 E9.38642
G1 X99.018 Y65.912 E9.42143 F2400.000
G1 X99.808 Y66.368 E9.43085
G1 X101.371 Y67.615 E9.45151
G1 X102.669 Y69.013 E9.47122
G1 X103.795 Y70.665 E9.49187
G1 X104.623 Y72.384 E9.51158
G1 X105.212 Y74.294 E9.53224
G1 X105.571 Y77.180 E9.56229
G1 X105.496 Y122.980 E10.03547
G1 X105.212 Y124.866 E10.05518
G1 X104.623 Y126.777 E10.07584
G1 X103.795 Y128.495 E10.09555
G1 X102.669 Y130.147 E10.11620
G1 X101.371 Y131.546 E10.13591
G1 X99.808 Y132.792 E10.15657
G1 X98.156 Y133.746 E10.17628
G1 X96.295 Y134.477 E10.19693
G1 X94.435 Y134.901 E10.21664
G1 X92.441 Y135.050 E10.23730
G1 X90.539 Y134.908 E10.25701
G1 X88.590 Y134.463 E10.27766
G1 X86.814 Y133.766 E10.29737
G1 X85.083 Y132.766 E10.31803
G1 X83.591 Y131.577 E10.33774
G1 X82.231 Y130.112 E10.35839
G1 X81.157 Y128.535 E10.37810
G1 X80.289 Y126.734 E10.39876
G1 X79.727 Y124.911 E10.41847
G1 X79.429 Y122.934 E10.43912
G1 X79.429 Y76.226 E10.92169
G1 X79.727 Y74.250 E10.94235
G1 X80.289 Y72.426 E10.96206
G1 X81.157 Y70.625 E10.98271
G1 X82.020 Y69.359 E10.99855
G1 X82.215 Y69.492 F9000.000
G1 X82.426 Y69.182 E11.00242 F2400.000
G1 X83.738 Y67.768 E11.02235
G1 X85.229 Y66.578 E11.04206
G1 X87.222 Y65.497 E11.06548
G1 X89.348 Y65.167 E11.08771
G1 X95.748 Y65.250 E11.15384
G1 X98.900 Y66.116 E11.18761 F2400.000
G1 X99.690 Y66.572 E11.19704
G1 X101.198 Y67.775 E11.21697
G1 X102.496 Y69.174 E11.23668
G1 X103.583 Y70.767 E11.25661
G1 X104.410 Y72.486 E11.27632
G1 X104.979 Y74.329 E11.29625
G1 X105.335 Y77.180 E11.32593
G1 X105.263 Y122.945 E11.79875
G1 X104.979 Y124.831 E11.81846
G1 X104.410 Y126.674 E11.83839
G1 X103.583 Y128.393 E11.85810
G1 X102.496 Y129.987 E11.87803
G1 X101.198 Y131.385 E11.89774
G1 X99.690 Y132.588 E11.91767
G1 X98.038 Y133.542 E11.93738
G1 X96.243 Y134.247 E11.95731
G1 X94.382 Y134.671 E11.97702
G1 X92.459 Y134.815 E11.99695
G1 X90.556 Y134.673 E12.01666
G1 X88.676 Y134.244 E12.03659
G1 X86.900 Y133.547 E12.05630
G1 X85.229 Y132.582 E12.07623
G1 X83.738 Y131.393 E12.09594
G1 X82.426 Y129.979 E12.11587
G1 X81.351 Y128.403 E12.13558
G1 X80.514 Y126.665 E12.15551
G1 X79.952 Y124.842 E12.17522
G1 X79.665 Y122.934 E12.19515
G1 X79.665 Y76.226 E12.67772
G1 X79.952 Y74.319 E12.69765
G1 X80.514 Y72.496 E12.71736
G1 X81.351 Y70.758 E12.73729
G1 X82.172 Y69.553 E12.75235
G1 X82.367 Y69.686 F9000.000
G1 X82.621 Y69.314 E12.75700 F2400.000
G1 X83.885 Y67.952 E12.77620
G1 X85.376 Y66.762 E12.79591
G1 X87.335 Y65.708 E12.81889
G1 X89.345 Y65.403 E12.83990
G1 X95.745 Y65.485 E12.90602
G1 X98.782 Y66.320 E12.93857 F2400.000
G1 X99.572 Y66.776 E12.94800
G1 X101.026 Y67.935 E12.96720
G1 X102.323 Y69.334 E12.98691
G1 X103.370 Y70.869 E13.00611
G1 X104.198 Y72.588 E13.02582
G1 X104.746 Y74.364 E13.04503
G1 X105.100 Y77.180 E13.07435
G1 X105.030 Y122.910 E13.54681
G1 X104.746 Y124.796 E13.56652
G1 X104.198 Y126.572 E13.58572
G1 X103.370 Y128.291 E13.60543
G1 X102.323 Y129.827 E13.62464
G1 X101.026 Y131.225 E13.64435
G1 X99.572 Y132.384 E13.66355
G1 X97.920 Y133.338 E13.68326
G1 X96.190 Y134.017 E13.70246
G1 X94.330 Y134.442 E13.72217
G1 X92.477 Y134.581 E13.74138
G1 X90.574 Y134.438 E13.76109
G1 X88.762 Y134.024 E13.78029
G1 X86.986 Y133.328 E13.80000
G1 X85.376 Y132.398 E13.81921
G1 X83.885 Y131.208 E13.83892
G1 X82.621 Y129.846 E13.85812
G1 X81.546 Y128.270 E13.87783
G1 X80.739 Y126.595 E13.89703
G1 X80.177 Y124.772 E13.91674
G1 X79.900 Y122.934 E13.93595
G1 X79.900 Y76.226 E14.41851
G1 X80.177 Y74.389 E14.43772
G1 X80.739 Y72.565 E14.45743
G1 X81.546 Y70.891 E14.47663
G1 X82.325 Y69.748 E14.49092
G1 F2400.000 E12.49092
G1 Z0.600 F9000.000
G92 E0
G1 X87.601 Y73.345 F9000.000
G1 Z0.300 F9000.000
G1 E2.00000 F2400.000
G1 X87.884 Y72.930 E2.00519 F2400.000
G1 X89.114 Y71.949 E2.02145
G1 X89.114 Y77.425 E2.07803
G1 X89.076 Y77.492 E2.07882 F2400.000
G1 X89.114 Y77.514 E2.07928
G1 X89.114 Y77.559 E2.07974
G1 X89.191 Y77.559 E2.08054
G1 X92.387 Y79.404 E2.11867
G1 X92.426 Y79.471 E2.11946
G1 X92.464 Y79.449 E2.11992
G1 X92.503 Y79.471 E2.12038
G1 X92.541 Y79.404 E2.12118
G1 X95.737 Y77.559 E2.15931
G1 X95.814 Y77.559 E2.16010
G1 X95.814 Y77.514 E2.16056
G1 X95.853 Y77.492 E2.16102
G1 X95.814 Y77.425 E2.16182
G1 X95.814 Y71.980 E2.21808
G1 X96.360 Y72.295 E2.22459
G1 X97.627 Y73.661 E2.24383
G1 X98.435 Y75.339 E2.26307
G1 X98.713 Y77.180 E2.28232
G1 X98.435 Y79.022 E2.30156
G1 X97.627 Y80.700 E2.32080
G1 X96.360 Y82.065 E2.34005
G1 X95.514 Y82.554 E2.35014
G1 X95.514 Y116.607 E2.70196
G1 X96.360 Y117.095 E2.71205
G1 X97.627 Y118.461 E2.73129
G1 X98.435 Y120.139 E2.75054
G1 X98.713 Y121.980 E2.76978
G1 X98.435 Y123.822 E2.78902
G1 X97.627 Y125.500 E2.80826
G1 X96.360 Y126.865 E2.82751
G1 X94.713 Y127.804 E2.84709
G1 X92.931 Y128.211 E2.86598
G1 X91.074 Y128.072 E2.88522
G1 X89.340 Y127.391 E2.90446
G1 X87.884 Y126.230 E2.92371
G1 X86.835 Y124.691 E2.94295
G1 X86.286 Y122.912 E2.96219
G1 X86.286 Y121.049 E2.98144
G1 X86.835 Y119.269 E3.00068
G1 X87.884 Y117.730 E3.01992
G1 X89.414 Y116.510 E3.04014
G1 X89.414 Y82.651 E3.38997
G1 X87.884 Y81.430 E3.41019
G1 X86.835 Y79.891 E3.42943
G1 X86.286 Y78.112 E3.44867
G1 X86.286 Y76.249 E3.46792
G1 X86.835 Y74.469 E3.48716
G1 X87.559 Y73.407 E3.50044
G1 F2400.000 E1.50044
G1 Z0.600 F9000.000
G92 E0
G1 X89.043 Y77.455 F9000.000
G1 X88.879 Y77.362 F9000.000
G1 Z0.300 F9000.000
G1 E2.00000 F2400.000
G1 X88.754 Y77.578 E2.00258 F2400.000
G1 X88.879 Y77.650 E2.00407
G1 X88.879 Y77.794 E2.00556
G1 X89.128 Y77.794 E2.00813
G1 X92.215 Y79.576 E2.04495
G1 X92.339 Y79.793 E2.04753
G1 X92.464 Y79.721 E2.04903
G1 X92.589 Y79.793 E2.05052
G1 X92.714 Y79.576 E2.05310
G1 X95.800 Y77.794 E2.08992
G1 X96.050 Y77.794 E2.09250
G1 X96.050 Y77.650 E2.09399
G1 X96.175 Y77.578 E2.09548
G1 X96.050 Y77.362 E2.09805
G1 X96.050 Y72.388 E2.14945 F2400.000
G1 X96.211 Y72.481 E2.15137
G1 X97.430 Y73.795 E2.16988
G1 X98.207 Y75.409 E2.18839
G1 X98.474 Y77.180 E2.20690
G1 X98.207 Y78.952 E2.22541
G1 X97.430 Y80.566 E2.24392
G1 X96.211 Y81.879 E2.26243
G1 X95.279 Y82.418 E2.27356
G1 X95.279 Y116.743 E2.62819
G1 X96.211 Y117.281 E2.63932
G1 X97.430 Y118.595 E2.65783
G1 X98.207 Y120.209 E2.67634
G1 X98.474 Y121.980 E2.69485
G1 X98.207 Y123.752 E2.71336
G1 X97.430 Y125.366 E2.73186
G1 X96.211 Y126.679 E2.75037
G1 X94.660 Y127.575 E2.76888
G1 X92.913 Y127.973 E2.78739
G1 X91.127 Y127.840 E2.80590
G1 X89.459 Y127.185 E2.82441
G1 X88.059 Y126.068 E2.84292
G1 X87.049 Y124.588 E2.86143
G1 X86.521 Y122.876 E2.87994
G1 X86.521 Y121.084 E2.89845
G1 X87.049 Y119.373 E2.91696
G1 X88.059 Y117.892 E2.93546
G1 X89.650 Y116.623 E2.95649
G1 X89.650 Y82.537 E3.30866
G1 X88.059 Y81.268 E3.32969
G1 X87.049 Y79.788 E3.34820
G1 X86.521 Y78.076 E3.36671
G1 X86.521 Y76.284 E3.38522
G1 X87.049 Y74.573 E3.40372
G1 X88.059 Y73.092 E3.42223
G1 X88.879 Y72.438 E3.43307
G1 X88.879 Y77.287 E3.48317
G1 F2400.000 E1.48317
G1 Z0.600 F9000.000
G92 E0
G1 X88.264 Y77.198 F9000.000
G1 X88.264 Y73.881 F9000.000
G1 X87.609 Y74.842 F9000.000
G1 X87.136 Y76.377 F9000.000
G1 X87.136 Y77.983 F9000.000
G1 X87.609 Y79.518 F9000.000
G1 X88.514 Y80.846 F9000.000
G1 X90.264 Y82.241 F9000.000
G1 X90.264 Y116.919 F9000.000
G1 X89.885 Y100.928 F9000.000
G1 Z0.300 F9000.000
G1 E2.00000 F2400.000
G1 X89.885 Y82.424 E2.19118 F2400.000
G1 X88.233 Y81.106 E2.21302
G1 X87.264 Y79.685 E2.23079
G1 X86.757 Y78.041 E2.24857
G1 X86.757 Y76.320 E2.26634
G1 X87.264 Y74.676 E2.28412
G1 X88.233 Y73.254 E2.30189
G1 X88.643 Y72.928 E2.30731
G1 X88.643 Y77.299 E2.35247
G1 X88.432 Y77.665 E2.35683
G1 X88.643 Y77.786 E2.35935
G1 X88.643 Y78.030 E2.36187
G1 X89.065 Y78.030 E2.36623
G1 X92.042 Y79.749 E2.40174
G1 X92.253 Y80.115 E2.40611
G1 X92.464 Y79.993 E2.40863
G1 X92.676 Y80.115 E2.41115
G1 X92.887 Y79.749 E2.41552
G1 X95.863 Y78.030 E2.45103
G1 X96.285 Y78.030 E2.45539
G1 X96.285 Y77.786 E2.45791
G1 X96.497 Y77.665 E2.46043
G1 X96.285 Y77.299 E2.46479
G1 X96.285 Y72.908 E2.51016
G1 X97.233 Y73.929 E2.52455
G1 X97.980 Y75.479 E2.54233 F2400.000
G1 X98.236 Y77.180 E2.56010
G1 X97.980 Y78.881 E2.57788
G1 X97.233 Y80.432 E2.59565
G1 X96.063 Y81.693 E2.61343
G1 X95.043 Y82.282 E2.62560
G1 X95.043 Y116.879 E2.98304
G1 X96.063 Y117.468 E2.99521
G1 X97.233 Y118.729 E3.01299
G1 X97.980 Y120.279 E3.03076
G1 X98.236 Y121.980 E3.04854
G1 X97.980 Y123.681 E3.06631
G1 X97.233 Y125.232 E3.08409
G1 X96.063 Y126.493 E3.10186
G1 X94.573 Y127.353 E3.11964
G1 X92.896 Y127.736 E3.13741
G1 X91.180 Y127.607 E3.15519
G1 X89.578 Y126.979 E3.17296
G1 X88.233 Y125.906 E3.19074
G1 X87.264 Y124.485 E3.20851
G1 X86.757 Y122.841 E3.22629
G1 X86.757 Y121.120 E3.24406
G1 X87.264 Y119.476 E3.26184
G1 X88.233 Y118.054 E3.27961
G1 X89.885 Y116.737 E3.30145
G1 X89.885 Y101.003 E3.46400
G1 F2400.000 E1.46400
G1 Z0.600 F9000.000
G92 E0
G1 X92.425 Y118.090 F9000.000
G1 Z0.300 F9000.000
G1 E2.00000 F2400.000
G1 X92.464 Y118.112 E2.00046 F2400.000
G1 X92.503 Y118.090 E2.00092 F2400.000
G1 X92.541 Y118.156 E2.00172
G1 X95.737 Y120.002 E2.03985
G1 X95.814 Y120.002 E2.04064
G1 X95.814 Y120.046 E2.04110
G1 X95.853 Y120.068 E2.04156
G1 X95.814 Y120.135 E2.04236
G1 X95.814 Y123.825 E2.08048
G1 X95.853 Y123.892 E2.08128
G1 X95.814 Y123.914 E2.08174
G1 X95.814 Y123.959 E2.08220
G1 X95.737 Y123.959 E2.08300
G1 X92.541 Y125.804 E2.12112
G1 X92.503 Y125.871 E2.12192
G1 X92.464 Y125.849 E2.12238
G1 X92.426 Y125.871 E2.12284
G1 X92.387 Y125.804 E2.12364
G1 X89.191 Y123.959 E2.16176
G1 X89.114 Y123.959 E2.16256
G1 X89.114 Y123.914 E2.16302
G1 X89.076 Y123.892 E2.16348
G1 X89.114 Y123.825 E2.16427
G1 X89.114 Y120.135 E2.20240
G1 X89.076 Y120.068 E2.20320
G1 X89.114 Y120.046 E2.20366
G1 X89.114 Y120.002 E2.20412
G1 X89.191 Y120.002 E2.20491
G1 X92.388 Y118.155 E2.24306
G1 X92.464 Y118.067 F9000.000
G1 X92.464 Y117.840 F9000.000
G1 X92.589 Y117.768 E2.24455 F2400.000
G1 X92.714 Y117.984 E2.24713
G1 X95.800 Y119.766 E2.28395
G1 X96.050 Y119.766 E2.28653
G1 X96.050 Y119.910 E2.28802
G1 X96.175 Y119.982 E2.28951
G1 X96.050 Y120.198 E2.29208
G1 X96.050 Y123.762 E2.32891
G1 X96.175 Y123.978 E2.33149
G1 X96.050 Y124.050 E2.33297
G1 X96.050 Y124.194 E2.33446
G1 X95.800 Y124.194 E2.33704
G1 X92.714 Y125.976 E2.37386
G1 X92.589 Y126.193 E2.37644
G1 X92.464 Y126.121 E2.37793
G1 X92.339 Y126.193 E2.37943
G1 X92.215 Y125.976 E2.38201
G1 X89.128 Y124.194 E2.41883
G1 X88.879 Y124.194 E2.42140
G1 X88.879 Y124.050 E2.42289
G1 X88.754 Y123.978 E2.42438
G1 X88.879 Y123.762 E2.42696
G1 X88.879 Y120.198 E2.46378
