; generated by Slic3r 1.2.0 on 2014-10-23 at 13:15:20

; external perimeters extrusion width = 0.50mm
; perimeters extrusion width = 0.85mm
; infill extrusion width = 1.02mm
; solid infill extrusion width = 0.85mm
; top infill extrusion width = 0.85mm

G21 ; set units to millimeters
M107
M190 S65 ; wait for bed temperature to be reached
M104 S180 ; set temperature
G28 ; home all axes
M109 S180 ; wait for temperature to be reached
G90 ; use absolute coordinates
G92 E0
M82 ; use absolute distances for extrusion
G1 F2400.000 E-2.00000
G1 Z0.500 F9000.000
G92 E0
G1 X36.204 Y81.313 F9000.000
G1 Z0.200 F9000.000
G1 E2.00000 F2400.000
G1 X37.069 Y80.928 E2.00587 F1800.000
G1 X39.733 Y80.062 E2.02323
G1 X41.202 Y79.750 E2.03253
G1 X43.919 Y79.464 E2.04945
G1 X44.739 Y79.418 E2.05454
G1 X139.290 Y79.457 E2.64036
G1 X142.076 Y79.750 E2.65772 F1800.000
G1 X143.545 Y80.062 E2.66702
G1 X146.209 Y80.928 E2.68438
G1 X147.581 Y81.538 E2.69368
G1 X150.007 Y82.939 E2.71104
G1 X151.221 Y83.822 E2.72034
G1 X153.303 Y85.696 E2.73770
G1 X154.308 Y86.812 E2.74700
G1 X155.954 Y89.078 E2.76436
G1 X156.705 Y90.378 E2.77366
G1 X157.845 Y92.938 E2.79102
G1 X158.309 Y94.366 E2.80032
G1 X158.891 Y97.106 E2.81768
G1 X159.048 Y98.599 E2.82698
G1 X159.048 Y101.401 E2.84434
G1 X158.891 Y102.894 E2.85364
G1 X158.309 Y105.634 E2.87100
G1 X157.845 Y107.062 E2.88030
G1 X156.705 Y109.622 E2.89766
G1 X155.954 Y110.922 E2.90696
G1 X154.308 Y113.188 E2.92432
G1 X153.303 Y114.304 E2.93362
G1 X151.221 Y116.178 E2.95098
G1 X150.007 Y117.061 E2.96028
G1 X147.581 Y118.462 E2.97764
G1 X146.209 Y119.072 E2.98694
G1 X143.545 Y119.938 E3.00430
G1 X142.076 Y120.250 E3.01360
G1 X138.539 Y120.582 E3.03561
G1 X43.988 Y120.543 E3.62143
G1 X41.202 Y120.250 E3.63878
G1 X39.733 Y119.938 E3.64809
G1 X37.069 Y119.072 E3.66544
G1 X35.697 Y118.462 E3.67475
G1 X33.271 Y117.061 E3.69210
G1 X32.057 Y116.178 E3.70141
G1 X29.975 Y114.304 E3.71876
G1 X28.970 Y113.188 E3.72807
G1 X27.324 Y110.922 E3.74542
G1 X26.260 Y108.783 E3.76022
G1 X25.952 Y106.700 E3.77327
G1 X25.952 Y93.300 E3.85629
G1 X26.349 Y90.945 E3.87109
G1 X27.324 Y89.078 E3.88414
G1 X28.970 Y86.812 E3.90149
G1 X29.975 Y85.696 E3.91080
G1 X32.057 Y83.822 E3.92815
G1 X33.271 Y82.939 E3.93745
G1 X35.697 Y81.538 E3.95481
G1 X36.135 Y81.343 E3.95778
G1 X36.215 Y81.522 F9000.000
G1 X37.130 Y81.115 E3.96399 F1800.000
G1 X39.794 Y80.249 E3.98134
G1 X41.223 Y79.946 E3.99039
G1 X43.939 Y79.660 E4.00732
G1 X44.739 Y79.615 E4.01228
G1 X139.269 Y79.653 E4.59797
G1 X142.055 Y79.946 E4.61532 F1800.000
G1 X143.484 Y80.249 E4.62437
G1 X146.148 Y81.115 E4.64173
G1 X147.482 Y81.709 E4.65078
G1 X149.908 Y83.110 E4.66814
G1 X151.089 Y83.968 E4.67718
G1 X153.171 Y85.842 E4.69454
G1 X154.148 Y86.928 E4.70358
G1 X155.795 Y89.194 E4.72094
G1 X156.525 Y90.459 E4.72999
G1 X157.665 Y93.018 E4.74735
G1 X158.116 Y94.407 E4.75640
G1 X158.698 Y97.147 E4.77375
G1 X158.851 Y98.599 E4.78280
G1 X158.851 Y101.401 E4.80016
G1 X158.698 Y102.853 E4.80920
G1 X158.116 Y105.593 E4.82656
G1 X157.665 Y106.982 E4.83561
G1 X156.525 Y109.541 E4.85297
G1 X155.795 Y110.806 E4.86201
G1 X154.148 Y113.072 E4.87937
G1 X153.171 Y114.158 E4.88842
G1 X151.089 Y116.032 E4.90578
G1 X149.908 Y116.890 E4.91482
G1 X147.482 Y118.291 E4.93218
G1 X146.148 Y118.885 E4.94123
G1 X143.484 Y119.751 E4.95858
G1 X142.055 Y120.054 E4.96763
G1 X138.539 Y120.385 E4.98951
G1 X44.009 Y120.347 E5.57520
G1 X41.223 Y120.054 E5.59256
G1 X39.794 Y119.751 E5.60161
G1 X37.130 Y118.885 E5.61897
G1 X35.796 Y118.291 E5.62801
G1 X33.370 Y116.890 E5.64537
G1 X32.189 Y116.032 E5.65442
G1 X30.107 Y114.158 E5.67177
G1 X29.130 Y113.072 E5.68082
G1 X27.483 Y110.806 E5.69818
G1 X26.440 Y108.694 E5.71277
G1 X26.149 Y106.700 E5.72526
G1 X26.149 Y93.300 E5.80828
G1 X26.546 Y90.978 E5.82288
G1 X27.483 Y89.194 E5.83536
G1 X29.130 Y86.928 E5.85272
G1 X30.107 Y85.842 E5.86177
G1 X32.189 Y83.968 E5.87912
G1 X33.370 Y83.110 E5.88817
G1 X35.796 Y81.709 E5.90553
G1 X36.147 Y81.553 E5.90791
G1 X36.226 Y81.732 F9000.000
G1 X37.191 Y81.302 E5.91445 F1800.000
G1 X39.855 Y80.437 E5.93181
G1 X41.244 Y80.142 E5.94060
G1 X43.960 Y79.856 E5.95752
G1 X44.739 Y79.812 E5.96236
G1 X139.249 Y79.849 E6.54792
G1 X142.035 Y80.142 E6.56527 F1800.000
G1 X143.423 Y80.437 E6.57407
G1 X146.087 Y81.302 E6.59143
G1 X147.384 Y81.880 E6.60022
G1 X149.810 Y83.280 E6.61758
G1 X150.958 Y84.114 E6.62637
G1 X153.039 Y85.989 E6.64372
G1 X153.989 Y87.043 E6.65251
G1 X155.636 Y89.310 E6.66987
G1 X156.345 Y90.539 E6.67866
G1 X157.485 Y93.098 E6.69602
G1 X157.923 Y94.448 E6.70482
G1 X158.506 Y97.188 E6.72217
G1 X158.654 Y98.599 E6.73096
G1 X158.654 Y101.401 E6.74832
G1 X158.506 Y102.812 E6.75711
G1 X157.923 Y105.552 E6.77447
G1 X157.485 Y106.902 E6.78326
G1 X156.345 Y109.461 E6.80062
G1 X155.636 Y110.690 E6.80941
G1 X153.989 Y112.956 E6.82677
G1 X153.039 Y114.011 E6.83556
G1 X150.958 Y115.886 E6.85292
G1 X149.810 Y116.720 E6.86171
G1 X147.384 Y118.120 E6.87907
G1 X146.087 Y118.698 E6.88786
G1 X143.423 Y119.563 E6.90522
G1 X142.035 Y119.858 E6.91401
G1 X138.539 Y120.188 E6.93576
G1 X44.030 Y120.151 E7.52133
G1 X41.244 Y119.858 E7.53868
G1 X39.855 Y119.563 E7.54748
G1 X37.191 Y118.698 E7.56483
G1 X35.895 Y118.120 E7.57363
G1 X33.469 Y116.720 E7.59098
G1 X32.320 Y115.886 E7.59977
G1 X30.239 Y114.011 E7.61713
G1 X29.289 Y112.956 E7.62592
G1 X27.642 Y110.690 E7.64328
G1 X26.619 Y108.606 E7.65767
G1 X26.346 Y106.700 E7.66960
G1 X26.346 Y93.300 E7.75262
G1 X26.743 Y91.012 E7.76700
G1 X27.642 Y89.310 E7.77893
G1 X29.289 Y87.044 E7.79629
G1 X30.239 Y85.989 E7.80508
G1 X32.320 Y84.114 E7.82244
G1 X33.469 Y83.280 E7.83123
G1 X35.895 Y81.880 E7.84859
G1 X36.158 Y81.762 E7.85037
G1 X36.237 Y81.942 F9000.000
G1 X37.252 Y81.490 E7.85725 F1800.000
G1 X39.916 Y80.624 E7.87461
G1 X41.264 Y80.338 E7.88315
G1 X43.980 Y80.052 E7.90007
G1 X44.739 Y80.009 E7.90478
G1 X139.228 Y80.045 E8.49021
G1 X142.014 Y80.338 E8.50757 F1800.000
G1 X143.362 Y80.624 E8.51611
G1 X146.026 Y81.490 E8.53346
G1 X147.285 Y82.050 E8.54200
G1 X149.711 Y83.451 E8.55936
G1 X150.826 Y84.261 E8.56790
G1 X152.908 Y86.135 E8.58525
G1 X153.829 Y87.159 E8.59379
G1 X155.476 Y89.426 E8.61115
G1 X156.165 Y90.619 E8.61968
G1 X157.305 Y93.178 E8.63704
G1 X157.730 Y94.489 E8.64558
G1 X158.313 Y97.229 E8.66293
G1 X158.457 Y98.599 E8.67147
G1 X158.457 Y101.401 E8.68883
G1 X158.313 Y102.771 E8.69737
G1 X157.730 Y105.511 E8.71472
G1 X157.305 Y106.822 E8.72326
G1 X156.165 Y109.381 E8.74062
G1 X155.476 Y110.574 E8.74915
G1 X153.830 Y112.841 E8.76651
G1 X152.908 Y113.865 E8.77505
G1 X150.826 Y115.739 E8.79241
G1 X149.711 Y116.549 E8.80094
G1 X147.285 Y117.950 E8.81830
G1 X146.026 Y118.510 E8.82684
G1 X143.362 Y119.376 E8.84419
G1 X142.014 Y119.662 E8.85273
G1 X138.539 Y119.991 E8.87436
G1 X44.050 Y119.955 E9.45979
G1 X41.264 Y119.662 E9.47715
G1 X39.916 Y119.376 E9.48569
G1 X37.252 Y118.510 E9.50304
G1 X35.993 Y117.950 E9.51158
G1 X33.567 Y116.549 E9.52894
G1 X32.452 Y115.739 E9.53747
G1 X30.371 Y113.865 E9.55483
G1 X29.449 Y112.841 E9.56337
G1 X27.802 Y110.574 E9.58072
G1 X26.799 Y108.518 E9.59490
G1 X26.543 Y106.700 E9.60627
G1 X26.543 Y93.300 E9.68930
G1 X26.940 Y91.047 E9.70347
G1 X27.802 Y89.426 E9.71485
G1 X29.449 Y87.159 E9.73221
G1 X30.371 Y86.135 E9.74074
G1 X32.452 Y84.261 E9.75810
G1 X33.567 Y83.451 E9.76664
G1 X35.993 Y82.050 E9.78399
G1 X36.169 Y81.972 E9.78518
G1 X36.249 Y82.151 F9000.000
G1 X37.313 Y81.677 E9.79240 F1800.000
G1 X39.977 Y80.812 E9.80976
G1 X41.285 Y80.534 E9.81804
G1 X44.001 Y80.248 E9.83496
G1 X44.739 Y80.206 E9.83954
G1 X139.207 Y80.241 E10.42485
G1 X141.993 Y80.534 E10.44221 F1800.000
G1 X143.301 Y80.812 E10.45049
G1 X145.965 Y81.677 E10.46785
G1 X147.186 Y82.221 E10.47613
G1 X149.613 Y83.622 E10.49349
G1 X150.694 Y84.407 E10.50177
G1 X152.776 Y86.282 E10.51912
G1 X153.670 Y87.275 E10.52740
G1 X155.317 Y89.542 E10.54476
G1 X155.985 Y90.699 E10.55304
G1 X157.125 Y93.258 E10.57040
G1 X157.538 Y94.530 E10.57868
G1 X158.120 Y97.270 E10.59604
G1 X158.260 Y98.599 E10.60432
G1 X158.260 Y101.401 E10.62168
G1 X158.120 Y102.730 E10.62996
G1 X157.538 Y105.470 E10.64732
G1 X157.125 Y106.742 E10.65560
G1 X155.985 Y109.301 E10.67296
G1 X155.317 Y110.458 E10.68124
G1 X153.670 Y112.725 E10.69860
G1 X152.776 Y113.718 E10.70688
G1 X150.694 Y115.593 E10.72423
G1 X149.613 Y116.378 E10.73252
G1 X147.186 Y117.779 E10.74987
G1 X145.965 Y118.323 E10.75816
G1 X143.301 Y119.188 E10.77551
G1 X141.993 Y119.466 E10.78379
G1 X138.539 Y119.794 E10.80529
G1 X44.071 Y119.759 E11.39060
G1 X41.285 Y119.466 E11.40796
G1 X39.977 Y119.188 E11.41624
G1 X37.313 Y118.323 E11.43360
G1 X36.092 Y117.779 E11.44188
G1 X33.666 Y116.378 E11.45923
G1 X32.584 Y115.593 E11.46752
G1 X30.502 Y113.718 E11.48487
G1 X29.608 Y112.725 E11.49316
G1 X27.961 Y110.458 E11.51051
G1 X26.979 Y108.431 E11.52447
G1 X26.740 Y106.700 E11.53530
G1 X26.740 Y93.300 E11.61832
G1 X27.137 Y91.082 E11.63228
G1 X27.961 Y89.542 E11.64310
G1 X29.608 Y87.275 E11.66046
G1 X30.502 Y86.282 E11.66874
G1 X32.584 Y84.407 E11.68610
G1 X33.666 Y83.622 E11.69438
G1 X36.180 Y82.182 E11.71234
G1 X36.260 Y82.361 F9000.000
G1 X37.374 Y81.865 E11.71989 F1800.000
G1 X40.038 Y80.999 E11.73725
G1 X41.305 Y80.730 E11.74527
G1 X44.022 Y80.444 E11.76220
G1 X44.739 Y80.403 E11.76665
G1 X139.187 Y80.437 E12.35183
G1 X141.973 Y80.730 E12.36918 F1800.000
G1 X143.240 Y80.999 E12.37721
G1 X145.904 Y81.865 E12.39457
G1 X147.088 Y82.392 E12.40260
G1 X149.514 Y83.792 E12.41995
G1 X150.562 Y84.554 E12.42798
G1 X152.644 Y86.428 E12.44534
G1 X153.511 Y87.391 E12.45336
G1 X155.157 Y89.657 E12.47072
G1 X155.805 Y90.779 E12.47874
G1 X156.944 Y93.338 E12.49610
G1 X157.345 Y94.571 E12.50413
G1 X157.927 Y97.311 E12.52149
G1 X158.063 Y98.599 E12.52951
G1 X158.063 Y101.401 E12.54687
G1 X157.927 Y102.689 E12.55490
G1 X157.345 Y105.429 E12.57225
G1 X156.944 Y106.662 E12.58028
G1 X155.805 Y109.221 E12.59764
G1 X155.157 Y110.343 E12.60566
G1 X153.511 Y112.609 E12.62302
G1 X152.644 Y113.572 E12.63105
G1 X150.562 Y115.446 E12.64840
G1 X149.514 Y116.208 E12.65643
G1 X147.088 Y117.608 E12.67379
G1 X145.904 Y118.135 E12.68181
G1 X143.240 Y119.001 E12.69917
G1 X141.973 Y119.270 E12.70720
G1 X138.539 Y119.597 E12.72857
G1 X44.091 Y119.563 E13.31375
G1 X41.305 Y119.270 E13.33110
G1 X40.038 Y119.001 E13.33913
G1 X37.374 Y118.135 E13.35649
G1 X36.190 Y117.608 E13.36452
G1 X33.764 Y116.208 E13.38187
G1 X32.716 Y115.446 E13.38990
G1 X30.634 Y113.572 E13.40726
G1 X29.767 Y112.609 E13.41528
G1 X28.121 Y110.343 E13.43264
G1 X27.159 Y108.344 E13.44638
G1 X26.937 Y106.700 E13.45666
G1 X26.937 Y93.300 E13.53968
G1 X27.334 Y91.118 E13.55342
G1 X28.121 Y89.657 E13.56370
G1 X29.767 Y87.391 E13.58106
G1 X30.634 Y86.428 E13.58909
G1 X32.716 Y84.554 E13.60644
G1 X33.764 Y83.792 E13.61447
G1 X36.191 Y82.391 E13.63183
G1 F2400.000 E11.63183
G1 Z0.500 F9000.000
G92 E0
G1 X39.338 Y87.869 F9000.000
G1 Z0.200 F9000.000
G1 E2.00000 F2400.000
G1 X41.978 Y87.011 E2.01720 F1800.000
G1 X44.739 Y86.721 E2.03440
G1 X47.500 Y87.011 E2.05160
G1 X50.140 Y87.869 E2.06880
G1 X52.544 Y89.257 E2.08600
G1 X54.607 Y91.114 E2.10320
G1 X56.283 Y93.420 E2.12086
G1 X126.995 Y93.420 E2.55898
G1 X128.671 Y91.114 E2.57664
G1 X130.734 Y89.257 E2.59384
G1 X133.138 Y87.869 E2.61104
G1 X135.778 Y87.011 E2.62824
G1 X138.539 Y86.721 E2.64544
G1 X141.243 Y87.005 E2.66229
G1 X143.940 Y87.869 E2.67983 F1800.000
G1 X146.344 Y89.257 E2.69703
G1 X148.407 Y91.114 E2.71423
G1 X150.039 Y93.360 E2.73143
G1 X151.168 Y95.896 E2.74864
G1 X151.746 Y98.612 E2.76584
G1 X151.746 Y101.388 E2.78304
G1 X151.168 Y104.104 E2.80024
G1 X150.039 Y106.640 E2.81744
G1 X148.407 Y108.886 E2.83464
G1 X146.344 Y110.743 E2.85184
G1 X143.940 Y112.131 E2.86904
G1 X141.300 Y112.989 E2.88624
G1 X138.539 Y113.279 E2.90344
G1 X135.724 Y112.971 E2.92099
G1 X133.138 Y112.131 E2.93783
G1 X130.734 Y110.743 E2.95503
G1 X128.671 Y108.886 E2.97223
G1 X126.995 Y106.580 E2.98989
G1 X56.283 Y106.580 E3.42801
G1 X54.607 Y108.886 E3.44567
G1 X52.544 Y110.743 E3.46287
G1 X50.140 Y112.131 E3.48007
G1 X47.500 Y112.989 E3.49727
G1 X44.739 Y113.279 E3.51447
G1 X41.978 Y112.989 E3.53167
G1 X39.338 Y112.131 E3.54887
G1 X36.934 Y110.743 E3.56607
G1 X34.871 Y108.886 E3.58327
G1 X33.370 Y106.820 E3.59909
G1 X45.321 Y106.830 E3.67314
G1 X49.270 Y99.990 E3.72207
G1 X45.321 Y93.170 E3.77089
G1 X33.370 Y93.180 E3.84494
G1 X34.871 Y91.114 E3.86076
G1 X36.934 Y89.257 E3.87796
G1 X39.273 Y87.906 E3.89470
G1 F2400.000 E1.89470
G1 Z0.500 F9000.000
G92 E0
G1 X141.402 Y87.479 F9000.000
G1 X141.469 Y87.273 F9000.000
G1 Z0.200 F9000.000
G1 E2.00000 F2400.000
G1 X143.860 Y88.050 E2.01557 F1800.000
G1 X146.228 Y89.417 E2.03252
G1 X148.260 Y91.247 E2.04946
G1 X149.868 Y93.459 E2.06641
G1 X150.980 Y95.958 E2.08335
G1 X151.549 Y98.633 E2.10029
G1 X151.549 Y101.367 E2.11724
G1 X150.980 Y104.042 E2.13418
G1 X149.868 Y106.541 E2.15112
G1 X148.260 Y108.753 E2.16807
G1 X146.228 Y110.583 E2.18501
G1 X143.860 Y111.950 E2.20195
G1 X141.259 Y112.795 E2.21890
G1 X138.539 Y113.081 E2.23584
G1 X135.819 Y112.795 E2.25279
G1 X133.218 Y111.950 E2.26973
G1 X130.850 Y110.583 E2.28667
G1 X128.818 Y108.753 E2.30362
G1 X127.096 Y106.383 E2.32177
G1 X56.182 Y106.383 E2.76113
G1 X54.460 Y108.753 E2.77929
G1 X52.428 Y110.583 E2.79623
G1 X50.060 Y111.950 E2.81317
G1 X47.459 Y112.795 E2.83012
G1 X44.739 Y113.081 E2.84706
G1 X42.019 Y112.795 E2.86400
G1 X39.418 Y111.950 E2.88095
G1 X37.050 Y110.583 E2.89789
G1 X35.018 Y108.753 E2.91483
G1 X33.757 Y107.017 E2.92813
G1 X45.252 Y107.017 E2.99935
G1 X45.393 Y107.099 E3.00036
G1 X45.440 Y107.017 E3.00095
G1 X45.535 Y107.017 E3.00153
G1 X45.535 Y106.854 E3.00254
G1 X49.397 Y100.164 E3.05041
G1 X49.539 Y100.082 E3.05142
G1 X49.492 Y100.000 E3.05201
G1 X49.539 Y99.918 E3.05259
G1 X49.397 Y99.836 E3.05361
G1 X45.535 Y93.146 E3.10147
G1 X45.535 Y92.983 E3.10248
G1 X45.440 Y92.983 E3.10307
G1 X45.393 Y92.901 E3.10365
G1 X45.252 Y92.983 E3.10466
G1 X33.757 Y92.983 E3.17588
G1 X35.018 Y91.247 E3.18918
G1 X37.050 Y89.417 E3.20612
G1 X39.418 Y88.050 E3.22307
G1 X42.019 Y87.205 E3.24001
G1 X44.739 Y86.919 E3.25695
G1 X47.459 Y87.205 E3.27390
G1 X50.060 Y88.050 E3.29084
G1 X52.428 Y89.417 E3.30778
G1 X54.460 Y91.247 E3.32473
G1 X56.182 Y93.617 E3.34288
G1 X127.096 Y93.617 E3.78225
G1 X128.818 Y91.247 E3.80040
G1 X130.850 Y89.417 E3.81734
G1 X133.218 Y88.050 E3.83428
G1 X135.819 Y87.205 E3.85123
G1 X138.503 Y86.923 E3.86794
G1 X141.259 Y87.205 E3.88511 F1800.000
G1 X141.398 Y87.250 E3.88601
G1 F2400.000 E1.88601
G1 Z0.500 F9000.000
G92 E0
G1 X143.876 Y88.287 F9000.000
G1 Z0.200 F9000.000
G1 E2.00000 F2400.000
G1 X146.111 Y89.577 E2.01600 F1800.000
G1 X148.113 Y91.380 E2.03268
G1 X149.696 Y93.558 E2.04937
G1 X150.792 Y96.019 E2.06606
G1 X151.351 Y98.653 E2.08274
G1 X151.351 Y101.347 E2.09943
G1 X150.792 Y103.981 E2.11612
G1 X149.696 Y106.441 E2.13281
G1 X148.113 Y108.620 E2.14949
G1 X146.111 Y110.423 E2.16618
G1 X143.779 Y111.769 E2.18287
G1 X141.218 Y112.602 E2.19955
G1 X138.539 Y112.883 E2.21624
G1 X135.861 Y112.602 E2.23293
G1 X133.299 Y111.769 E2.24961
G1 X130.967 Y110.423 E2.26630
G1 X128.965 Y108.620 E2.28299
G1 X127.196 Y106.186 E2.30163
G1 X56.082 Y106.186 E2.74224
G1 X54.313 Y108.620 E2.76089
G1 X52.311 Y110.423 E2.77758
G1 X49.979 Y111.769 E2.79426
G1 X47.418 Y112.602 E2.81095
G1 X44.739 Y112.883 E2.82764
G1 X42.061 Y112.602 E2.84432
G1 X39.499 Y111.769 E2.86101
G1 X37.167 Y110.423 E2.87770
G1 X35.165 Y108.620 E2.89438
G1 X34.143 Y107.214 E2.90515
G1 X45.199 Y107.214 E2.97365
G1 X45.465 Y107.368 E2.97556
G1 X45.554 Y107.214 E2.97666
G1 X45.732 Y107.214 E2.97776
G1 X45.732 Y106.906 E2.97967
G1 X49.542 Y100.308 E3.02687
G1 X49.808 Y100.154 E3.02878
G1 X49.719 Y100.000 E3.02988
G1 X49.808 Y99.846 E3.03099
G1 X49.542 Y99.692 E3.03289
G1 X45.732 Y93.094 E3.08010
G1 X45.732 Y92.786 E3.08201
G1 X45.554 Y92.786 E3.08311
G1 X45.465 Y92.632 E3.08421
G1 X45.199 Y92.786 E3.08612
G1 X34.143 Y92.786 E3.15461
G1 X35.165 Y91.380 E3.16538
G1 X37.167 Y89.577 E3.18207
G1 X39.499 Y88.231 E3.19876
G1 X42.061 Y87.398 E3.21544
G1 X44.739 Y87.117 E3.23213
G1 X47.418 Y87.398 E3.24882
G1 X49.979 Y88.231 E3.26551
