; generated by Slic3r 1.2.0 on 2014-10-23 at 10:48:47

; external perimeters extrusion width = 0.50mm
; perimeters extrusion width = 0.72mm
; infill extrusion width = 0.72mm
; solid infill extrusion width = 0.72mm
; top infill extrusion width = 0.72mm

G21 ; set units to millimeters
M190 S65 ; wait for bed temperature to be reached
M104 S180 ; set temperature
G28 ; home all axes
M109 S180 ; wait for temperature to be reached
G90 ; use absolute coordinates
G92 E0
M82 ; use absolute distances for extrusion
M106 S89
G1 F2400.000 E-2.00000
G1 Z0.600 F9000.000
G92 E0
G1 X74.441 Y42.980 F9000.000
G1 Z0.300 F9000.000
G1 E2.00000 F2400.000
G1 X75.647 Y40.891 E2.02171 F2400.000
G1 X76.500 Y39.717 E2.03477
G1 X78.374 Y37.636 E2.05998
G1 X79.453 Y36.664 E2.07304
G1 X81.719 Y35.018 E2.09825
G1 X83.825 Y33.979 E2.11939
G1 X85.800 Y33.692 E2.13735
G1 X99.200 Y33.692 E2.25795
G1 X101.514 Y34.089 E2.27908
G1 X103.281 Y35.018 E2.29704 F2400.000
G1 X105.547 Y36.664 E2.32225
G1 X106.626 Y37.636 E2.33532
G1 X108.500 Y39.717 E2.36053
G1 X109.353 Y40.891 E2.37359
G1 X110.754 Y43.317 E2.39880
G1 X111.344 Y44.643 E2.41187
G1 X112.210 Y47.308 E2.43708
G1 X112.512 Y48.727 E2.45014
G1 X112.842 Y52.239 E2.48189
G1 X112.804 Y146.765 E3.33262
G1 X112.512 Y149.551 E3.35783
G1 X112.210 Y150.970 E3.37089
G1 X111.344 Y153.635 E3.39610
G1 X110.754 Y154.961 E3.40917
G1 X109.353 Y157.387 E3.43438
G1 X108.500 Y158.561 E3.44744
G1 X106.696 Y160.565 E3.47171
G1 X105.547 Y161.614 E3.48571
G1 X103.281 Y163.260 E3.51092
G1 X102.024 Y163.986 E3.52398
G1 X99.465 Y165.125 E3.54920
G1 X98.084 Y165.574 E3.56226
G1 X95.344 Y166.156 E3.58747
G1 X93.901 Y166.308 E3.60053
G1 X91.099 Y166.308 E3.62575
G1 X89.656 Y166.156 E3.63881
G1 X86.916 Y165.574 E3.66402
G1 X85.535 Y165.126 E3.67708
G1 X82.976 Y163.986 E3.70230
G1 X81.719 Y163.260 E3.71536
G1 X79.453 Y161.614 E3.74057
G1 X78.374 Y160.643 E3.75363
G1 X76.500 Y158.561 E3.77885
G1 X75.647 Y157.387 E3.79191
G1 X74.246 Y154.961 E3.81712
G1 X73.656 Y153.635 E3.83018
G1 X72.790 Y150.970 E3.85539
G1 X72.488 Y149.551 E3.86846
G1 X72.158 Y146.039 E3.90020
G1 X72.196 Y51.513 E4.75093
G1 X72.488 Y48.727 E4.77615
G1 X72.790 Y47.308 E4.78921
G1 X73.656 Y44.643 E4.81442
G1 X74.246 Y43.317 E4.82748
G1 X74.403 Y43.045 E4.83032
G1 X74.608 Y43.163 F9000.000
G1 X75.851 Y41.009 E4.85270 F2400.000
G1 X76.675 Y39.875 E4.86531
G1 X78.549 Y37.793 E4.89053
G1 X79.591 Y36.855 E4.90315
G1 X81.858 Y35.208 E4.92836
G1 X83.930 Y34.193 E4.94913
G1 X85.800 Y33.927 E4.96612
G1 X99.200 Y33.927 E5.08672
G1 X101.473 Y34.325 E5.10749
G1 X103.142 Y35.208 E5.12449 F2400.000
G1 X105.409 Y36.855 E5.14970
G1 X106.451 Y37.793 E5.16232
G1 X108.325 Y39.875 E5.18753
G1 X109.149 Y41.009 E5.20015
G1 X110.550 Y43.435 E5.22536
G1 X111.120 Y44.716 E5.23798
G1 X111.986 Y47.380 E5.26319
G1 X112.277 Y48.752 E5.27581
G1 X112.607 Y52.239 E5.30734
G1 X112.570 Y146.740 E6.15785
G1 X112.277 Y149.526 E6.18306
G1 X111.986 Y150.898 E6.19568
G1 X111.120 Y153.562 E6.22089
G1 X110.550 Y154.843 E6.23351
G1 X109.149 Y157.269 E6.25872
G1 X108.325 Y158.403 E6.27134
G1 X106.521 Y160.407 E6.29561
G1 X105.409 Y161.423 E6.30917
G1 X103.142 Y163.070 E6.33438
G1 X101.928 Y163.771 E6.34700
G1 X99.369 Y164.910 E6.37221
G1 X98.035 Y165.344 E6.38483
G1 X95.295 Y165.926 E6.41004
G1 X93.901 Y166.073 E6.42266
G1 X91.099 Y166.073 E6.44787
G1 X89.705 Y165.926 E6.46049
G1 X86.965 Y165.344 E6.48570
G1 X85.631 Y164.910 E6.49832
G1 X83.072 Y163.771 E6.52354
G1 X81.858 Y163.070 E6.53615
G1 X79.591 Y161.423 E6.56137
G1 X78.550 Y160.485 E6.57399
G1 X76.675 Y158.403 E6.59920
G1 X75.851 Y157.269 E6.61182
G1 X74.450 Y154.843 E6.63703
G1 X73.880 Y153.562 E6.64965
G1 X73.014 Y150.898 E6.67486
G1 X72.723 Y149.526 E6.68748
G1 X72.393 Y146.039 E6.71900
G1 X72.430 Y51.538 E7.56951
G1 X72.723 Y48.752 E7.59473
G1 X73.014 Y47.381 E7.60734
G1 X73.880 Y44.716 E7.63256
G1 X74.450 Y43.435 E7.64518
G1 X74.570 Y43.228 E7.64733
G1 X74.774 Y43.346 F9000.000
G1 X76.055 Y41.127 E7.67039 F2400.000
G1 X76.850 Y40.033 E7.68256
G1 X78.725 Y37.951 E7.70778
G1 X79.730 Y37.046 E7.71995
G1 X81.996 Y35.399 E7.74516
G1 X84.035 Y34.408 E7.76556
G1 X85.800 Y34.163 E7.78160
G1 X99.200 Y34.163 E7.90220
G1 X101.431 Y34.560 E7.92260
G1 X103.004 Y35.399 E7.93864 F2400.000
G1 X105.270 Y37.046 E7.96385
G1 X106.275 Y37.951 E7.97603
G1 X108.150 Y40.033 E8.00124
G1 X108.945 Y41.127 E8.01341
G1 X110.346 Y43.553 E8.03863
G1 X110.896 Y44.789 E8.05080
G1 X111.762 Y47.453 E8.07601
G1 X112.043 Y48.777 E8.08819
G1 X112.371 Y52.239 E8.11949
G1 X112.336 Y146.715 E8.96978
G1 X112.043 Y149.501 E8.99499
G1 X111.762 Y150.825 E9.00717
G1 X110.896 Y153.489 E9.03238
G1 X110.346 Y154.725 E9.04456
G1 X108.945 Y157.151 E9.06977
G1 X108.150 Y158.245 E9.08194
G1 X106.346 Y160.249 E9.10621
G1 X105.270 Y161.232 E9.11933
G1 X103.004 Y162.879 E9.14454
G1 X101.832 Y163.555 E9.15671
G1 X99.273 Y164.695 E9.18193
G1 X97.986 Y165.113 E9.19410
G1 X95.246 Y165.695 E9.21932
G1 X93.901 Y165.837 E9.23149
G1 X91.099 Y165.837 E9.25670
G1 X89.754 Y165.695 E9.26888
G1 X87.014 Y165.113 E9.29409
G1 X85.727 Y164.695 E9.30627
G1 X83.168 Y163.555 E9.33148
G1 X81.996 Y162.879 E9.34365
G1 X79.730 Y161.232 E9.36887
G1 X78.725 Y160.327 E9.38104
G1 X76.850 Y158.245 E9.40626
G1 X76.055 Y157.151 E9.41843
G1 X74.654 Y154.725 E9.44364
G1 X74.104 Y153.489 E9.45582
G1 X73.238 Y150.825 E9.48103
G1 X72.957 Y149.502 E9.49321
G1 X72.629 Y146.039 E9.52451
G1 X72.664 Y51.563 E10.37480
G1 X72.957 Y48.777 E10.40001
G1 X73.238 Y47.453 E10.41218
G1 X74.104 Y44.789 E10.43740
G1 X74.654 Y43.553 E10.44957
G1 X74.737 Y43.411 E10.45105
G1 X74.941 Y43.528 F9000.000
G1 X76.259 Y41.245 E10.47479 F2400.000
G1 X77.025 Y40.190 E10.48652
G1 X78.900 Y38.109 E10.51173
G1 X79.868 Y37.236 E10.52346
G1 X82.135 Y35.590 E10.54867
G1 X84.139 Y34.624 E10.56869
G1 X85.800 Y34.399 E10.58378
G1 X99.200 Y34.399 E10.70438
G1 X101.389 Y34.796 E10.72440
G1 X102.865 Y35.590 E10.73949 F2400.000
G1 X105.132 Y37.236 E10.76470
G1 X106.100 Y38.109 E10.77643
G1 X107.975 Y40.190 E10.80165
G1 X108.741 Y41.245 E10.81338
G1 X110.142 Y43.671 E10.83859
G1 X110.672 Y44.862 E10.85032
G1 X111.538 Y47.526 E10.87554
G1 X111.809 Y48.801 E10.88727
G1 X112.136 Y52.239 E10.91835
G1 X112.101 Y146.691 E11.76841
G1 X111.809 Y149.477 E11.79363
G1 X111.538 Y150.752 E11.80536
G1 X110.672 Y153.416 E11.83057
G1 X110.142 Y154.607 E11.84230
G1 X108.741 Y157.033 E11.86752
G1 X107.975 Y158.088 E11.87925
G1 X106.171 Y160.092 E11.90352
G1 X105.132 Y161.042 E11.91619
G1 X102.865 Y162.688 E11.94140
G1 X101.736 Y163.340 E11.95313
G1 X99.177 Y164.480 E11.97834
G1 X97.937 Y164.883 E11.99008
G1 X95.197 Y165.465 E12.01529
G1 X93.901 Y165.601 E12.02702
G1 X91.099 Y165.601 E12.05223
G1 X89.803 Y165.465 E12.06397
G1 X87.063 Y164.883 E12.08918
G1 X85.823 Y164.480 E12.10091
G1 X83.264 Y163.340 E12.12613
G1 X82.135 Y162.689 E12.13786
G1 X79.868 Y161.042 E12.16307
G1 X78.900 Y160.170 E12.17480
G1 X77.025 Y158.088 E12.20001
G1 X76.259 Y157.033 E12.21174
G1 X74.858 Y154.607 E12.23696
G1 X74.328 Y153.416 E12.24869
G1 X73.462 Y150.752 E12.27390
G1 X73.191 Y149.477 E12.28563
G1 X72.864 Y146.039 E12.31671
G1 X72.899 Y51.587 E13.16678
G1 X73.191 Y48.801 E13.19199
G1 X73.462 Y47.526 E13.20373
G1 X74.328 Y44.862 E13.22894
G1 X74.903 Y43.593 E13.24147
G1 F2400.000 E11.24147
G1 Z0.600 F9000.000
G92 E0
G1 X80.433 Y46.786 F9000.000
G1 Z0.300 F9000.000
G1 E2.00000 F2400.000
G1 X81.781 Y44.451 E2.02426 F2400.000
G1 X83.635 Y42.393 E2.04919
G1 X85.650 Y40.929 E2.07161
G1 X85.650 Y52.796 E2.17842
G1 X85.629 Y52.832 E2.17879 F2400.000
G1 X85.650 Y52.868 E2.17916
G1 X85.691 Y52.868 E2.17953
G1 X92.459 Y56.775 E2.24986
G1 X92.479 Y56.811 E2.25023
G1 X92.521 Y56.811 E2.25061
G1 X92.541 Y56.775 E2.25098
G1 X99.309 Y52.868 E2.32131
G1 X99.350 Y52.868 E2.32168
G1 X99.371 Y52.832 E2.32205
G1 X99.350 Y52.796 E2.32242
G1 X99.350 Y40.929 E2.42923
G1 X101.365 Y42.393 E2.45165
G1 X103.219 Y44.451 E2.47658
G1 X104.604 Y46.850 E2.50151
G1 X105.460 Y49.484 E2.52643
G1 X105.749 Y52.239 E2.55136
G1 X105.460 Y54.994 E2.57629
G1 X104.604 Y57.628 E2.60122
G1 X103.219 Y60.027 E2.62615
G1 X101.365 Y62.085 E2.65108
G1 X99.050 Y63.767 E2.67683
G1 X99.050 Y134.511 E3.31353
G1 X101.365 Y136.193 E3.33928
G1 X103.219 Y138.251 E3.36421
G1 X104.604 Y140.650 E3.38914
G1 X105.460 Y143.284 E3.41407
G1 X105.749 Y146.039 E3.43900
G1 X105.460 Y148.794 E3.46393
G1 X104.604 Y151.428 E3.48885
G1 X103.219 Y153.827 E3.51378
G1 X101.365 Y155.885 E3.53871
G1 X99.125 Y157.513 E3.56364
G1 X96.594 Y158.640 E3.58857
G1 X93.885 Y159.216 E3.61350
G1 X91.115 Y159.216 E3.63843
G1 X88.406 Y158.640 E3.66335
G1 X85.875 Y157.513 E3.68828
G1 X83.635 Y155.885 E3.71321
G1 X81.781 Y153.827 E3.73814
G1 X80.396 Y151.428 E3.76307
G1 X79.540 Y148.794 E3.78800
G1 X79.251 Y146.039 E3.81292
G1 X79.540 Y143.284 E3.83785
G1 X80.396 Y140.650 E3.86278
G1 X81.781 Y138.251 E3.88771
G1 X83.635 Y136.193 E3.91264
G1 X85.950 Y134.511 E3.93840
G1 X85.950 Y63.767 E4.57509
G1 X83.635 Y62.085 E4.60085
G1 X81.781 Y60.027 E4.62577
G1 X80.396 Y57.628 E4.65070
G1 X79.540 Y54.994 E4.67563
G1 X79.251 Y52.239 E4.70056
G1 X79.540 Y49.484 E4.72549
G1 X80.396 Y46.851 E4.75041
G1 F2400.000 E2.75041
G1 Z0.600 F9000.000
G92 E0
G1 X85.615 Y52.817 F9000.000
G1 X85.414 Y52.733 F9000.000
G1 Z0.300 F9000.000
G1 E2.00000 F2400.000
G1 X85.308 Y52.918 E2.00192 F2400.000
G1 X85.414 Y52.980 E2.00303
G1 X85.414 Y53.103 E2.00414
G1 X85.628 Y53.103 E2.00607
G1 X92.286 Y56.947 E2.07526
G1 X92.393 Y57.133 E2.07718
G1 X92.500 Y57.071 E2.07830
G1 X92.607 Y57.133 E2.07941
G1 X92.714 Y56.947 E2.08133
G1 X99.372 Y53.103 E2.15053
G1 X99.586 Y53.103 E2.15245
G1 X99.586 Y52.980 E2.15356
G1 X99.692 Y52.918 E2.15467
G1 X99.586 Y52.733 E2.15659
G1 X99.586 Y41.391 E2.25867
G1 X101.207 Y42.569 E2.27671
G1 X103.027 Y44.591 E2.30119
G1 X104.387 Y46.946 E2.32567
G1 X105.228 Y49.534 E2.35015
G1 X105.512 Y52.239 E2.37464
G1 X105.228 Y54.944 E2.39912
G1 X104.386 Y57.535 E2.42364
G1 X103.027 Y59.887 E2.44809
G1 X101.207 Y61.909 E2.47257
G1 X98.814 Y63.647 E2.49918
G1 X98.814 Y134.631 E3.13804
G1 X101.207 Y136.369 E3.16465
G1 X103.027 Y138.391 E3.18913
G1 X104.387 Y140.746 E3.21362
G1 X105.228 Y143.334 E3.23810
G1 X105.512 Y146.039 E3.26258
G1 X105.228 Y148.744 E3.28707
G1 X104.387 Y151.332 E3.31155
G1 X103.027 Y153.687 E3.33603
G1 X101.250 Y155.661 E3.35993
G1 X101.207 Y155.709 E3.36051
G1 X99.006 Y157.308 E3.38500
G1 X96.521 Y158.414 E3.40948
G1 X93.860 Y158.980 E3.43396
G1 X91.140 Y158.980 E3.45844
G1 X88.479 Y158.414 E3.48293
G1 X85.994 Y157.308 E3.50741
G1 X85.942 Y157.270 E3.50799
G1 X83.793 Y155.709 E3.53189
G1 X81.973 Y153.687 E3.55638
G1 X80.613 Y151.332 E3.58086
G1 X79.772 Y148.744 E3.60534
G1 X79.488 Y146.039 E3.62982
G1 X79.772 Y143.334 E3.65431
G1 X80.613 Y140.746 E3.67879
G1 X81.973 Y138.391 E3.70327
G1 X83.793 Y136.369 E3.72775
G1 X86.186 Y134.631 E3.75437
G1 X86.186 Y63.647 E4.39322
G1 X83.793 Y61.909 E4.41984
G1 X81.973 Y59.887 E4.44432
G1 X80.613 Y57.532 E4.46880
G1 X79.772 Y54.944 E4.49329
G1 X79.488 Y52.239 E4.51777
G1 X79.772 Y49.534 E4.54225
G1 X80.613 Y46.946 E4.56673
G1 X81.973 Y44.591 E4.59122
G1 X83.793 Y42.569 E4.61570
G1 X85.414 Y41.391 E4.63374 F2400.000
G1 X85.414 Y52.658 E4.73514
G1 F2400.000 E2.73514
G1 Z0.600 F9000.000
G92 E0
G1 X84.800 Y52.569 F9000.000
G1 X84.468 Y53.143 F9000.000
G1 X84.800 Y53.335 F9000.000
G1 X84.800 Y53.718 F9000.000
G1 X85.463 Y53.718 F9000.000
G1 X91.836 Y57.397 F9000.000
G1 X92.168 Y57.972 F9000.000
G1 X92.500 Y57.780 F9000.000
G1 X92.832 Y57.972 F9000.000
G1 X93.164 Y57.397 F9000.000
G1 X99.537 Y53.718 F9000.000
G1 X100.200 Y53.718 F9000.000
G1 X100.200 Y53.335 F9000.000
G1 X100.532 Y53.143 F9000.000
G1 X100.200 Y52.569 F9000.000
G1 X100.200 Y42.597 F9000.000
G1 X100.794 Y43.028 F9000.000
G1 X102.527 Y44.954 F9000.000
G1 X103.823 Y47.198 F9000.000
G1 X104.624 Y49.662 F9000.000
G1 X104.895 Y52.239 F9000.000
G1 X104.624 Y54.816 F9000.000
G1 X103.823 Y57.280 F9000.000
G1 X102.527 Y59.524 F9000.000
G1 X100.794 Y61.450 F9000.000
G1 X98.200 Y63.334 F9000.000
G1 X98.200 Y134.944 F9000.000
G1 X100.794 Y136.828 F9000.000
G1 X102.527 Y138.754 F9000.000
G1 X103.823 Y140.998 F9000.000
G1 X104.624 Y143.462 F9000.000
G1 X104.895 Y146.039 F9000.000
G1 X104.624 Y148.616 F9000.000
G1 X103.823 Y151.080 F9000.000
G1 X102.527 Y153.324 F9000.000
G1 X100.794 Y155.250 F9000.000
G1 X98.697 Y156.773 F9000.000
G1 X96.330 Y157.827 F9000.000
G1 X93.796 Y158.366 F9000.000
G1 X91.204 Y158.366 F9000.000
G1 X88.670 Y157.827 F9000.000
G1 X86.303 Y156.773 F9000.000
G1 X84.206 Y155.250 F9000.000
G1 X82.473 Y153.324 F9000.000
G1 X81.177 Y151.080 F9000.000
G1 X80.376 Y148.616 F9000.000
G1 X80.105 Y146.039 F9000.000
G1 X80.376 Y143.462 F9000.000
G1 X81.177 Y140.998 F9000.000
G1 X82.473 Y138.754 F9000.000
G1 X84.206 Y136.828 F9000.000
G1 X86.800 Y134.944 F9000.000
G1 X86.421 Y100.973 F9000.000
G1 Z0.300 F9000.000
G1 E2.00000 F2400.000
G1 X86.421 Y63.527 E2.33701 F2400.000
G1 X83.952 Y61.733 E2.36448
G1 X82.165 Y59.748 E2.38852
G1 X80.829 Y57.435 E2.41256
G1 X80.004 Y54.895 E2.43659
G1 X79.725 Y52.239 E2.46063
G1 X80.004 Y49.583 E2.48467
G1 X80.829 Y47.043 E2.50870
G1 X82.165 Y44.730 E2.53274
G1 X83.952 Y42.745 E2.55678
G1 X85.179 Y41.854 E2.57043
G1 X85.179 Y52.670 E2.66778
G1 X84.986 Y53.004 E2.67125 F2400.000
G1 X85.179 Y53.116 E2.67326
G1 X85.179 Y53.339 E2.67527
G1 X85.565 Y53.339 E2.67874
G1 X92.114 Y57.120 E2.74680
G1 X92.307 Y57.455 E2.75028
G1 X92.500 Y57.343 E2.75228
G1 X92.693 Y57.455 E2.75429
G1 X92.886 Y57.120 E2.75777
G1 X99.435 Y53.339 E2.82583
G1 X99.821 Y53.339 E2.82930
G1 X99.821 Y53.116 E2.83131
G1 X100.014 Y53.004 E2.83332
G1 X99.821 Y52.670 E2.83679
G1 X99.821 Y41.854 E2.93414
G1 X101.048 Y42.745 E2.94779
G1 X102.835 Y44.730 E2.97183
G1 X104.171 Y47.043 E2.99587
G1 X104.996 Y49.583 E3.01990
G1 X105.275 Y52.239 E3.04394
G1 X104.996 Y54.895 E3.06798
G1 X104.171 Y57.435 E3.09201
G1 X102.835 Y59.748 E3.11605
G1 X101.048 Y61.733 E3.14009
G1 X98.579 Y63.527 E3.16756
G1 X98.579 Y134.751 E3.80857
G1 X101.048 Y136.545 E3.83605
G1 X102.835 Y138.530 E3.86008
G1 X104.171 Y140.843 E3.88412
G1 X104.996 Y143.383 E3.90816
G1 X105.275 Y146.039 E3.93219
G1 X104.996 Y148.695 E3.95623
G1 X104.171 Y151.235 E3.98027
G1 X102.835 Y153.548 E4.00431
G1 X101.075 Y155.503 E4.02798
G1 X98.888 Y157.103 E4.05237
G1 X96.448 Y158.189 E4.07641
G1 X93.835 Y158.744 E4.10045
G1 X91.165 Y158.744 E4.12448
G1 X88.552 Y158.189 E4.14852
G1 X86.080 Y157.079 E4.17291
G1 X83.952 Y155.533 E4.19659
G1 X82.165 Y153.548 E4.22062
G1 X80.829 Y151.235 E4.24466
G1 X80.004 Y148.695 E4.26870
G1 X79.725 Y146.039 E4.29273
G1 X80.004 Y143.383 E4.31677
G1 X80.829 Y140.843 E4.34081
G1 X82.165 Y138.530 E4.36484
G1 X83.952 Y136.545 E4.38888
G1 X86.421 Y134.751 E4.41635
G1 X86.421 Y101.048 E4.71968
G1 F2400.000 E2.71968
G1 Z0.600 F9000.000
G92 E0
G1 X92.479 Y138.117 F9000.000
G1 Z0.300 F9000.000
G1 E2.00000 F2400.000
G1 X92.521 Y138.117 E2.00037 F2400.000
G1 X92.541 Y138.153 E2.00074
G1 X99.309 Y142.060 E2.07107 F2400.000
G1 X99.350 Y142.060 E2.07144
G1 X99.371 Y142.096 E2.07181
G1 X99.350 Y142.132 E2.07218
G1 X99.350 Y149.946 E2.14252
G1 X99.371 Y149.982 E2.14289
G1 X99.350 Y150.018 E2.14326
G1 X99.309 Y150.018 E2.14363
G1 X92.541 Y153.925 E2.21396
G1 X92.521 Y153.961 E2.21433
G1 X92.479 Y153.961 E2.21470
G1 X92.459 Y153.925 E2.21507
G1 X85.691 Y150.018 E2.28540
G1 X85.650 Y150.018 E2.28577
G1 X85.629 Y149.982 E2.28614
G1 X85.650 Y149.946 E2.28651
G1 X85.650 Y142.132 E2.35685
G1 X85.629 Y142.096 E2.35722
G1 X85.650 Y142.060 E2.35759
G1 X85.691 Y142.060 E2.35796
G1 X92.430 Y138.170 E2.42799
G1 X92.863 Y137.771 F9000.000
G1 X92.660 Y137.888 F9000.000
G1 X92.714 Y137.981 E2.42895 F2400.000
G1 X99.372 Y141.825 E2.49815
G1 X99.586 Y141.825 E2.50007
G1 X99.586 Y141.948 E2.50118
G1 X99.692 Y142.010 E2.50229
G1 X99.586 Y142.195 E2.50421
G1 X99.586 Y149.883 E2.57341
G1 X99.692 Y150.068 E2.57533
G1 X99.586 Y150.130 E2.57644
G1 X99.586 Y150.253 E2.57755
G1 X99.372 Y150.253 E2.57947
G1 X92.714 Y154.097 E2.64867
G1 X92.607 Y154.283 E2.65059
G1 X92.500 Y154.221 E2.65170
G1 X92.393 Y154.283 E2.65281
G1 X92.286 Y154.097 E2.65474
