; generated by Slic3r 1.2.0 on 2014-10-23 at 10:48:14

; external perimeters extrusion width = 0.50mm
; perimeters extrusion width = 0.72mm
; infill extrusion width = 0.72mm
; solid infill extrusion width = 0.72mm
; top infill extrusion width = 0.72mm

G21 ; set units to millimeters
M190 S65 ; wait for bed temperature to be reached
M104 S180 ; set temperature
G28 ; home all axes
M109 S180 ; wait for temperature to be reached
G90 ; use absolute coordinates
G92 E0
M82 ; use absolute distances for extrusion
M106 S89
G1 F2400.000 E-2.00000
G1 Z0.600 F9000.000
G92 E0
G1 X79.774 Y60.663 F9000.000
G1 Z0.300 F9000.000
G1 E2.00000 F2400.000
G1 X81.028 Y59.169 E2.02015 F2400.000
G1 X82.280 Y57.988 E2.03793
G1 X83.844 Y56.823 E2.05808
G1 X86.002 Y55.712 E2.08316
G1 X88.329 Y55.356 E2.10748
G1 X96.729 Y55.422 E2.19427
G1 X99.121 Y55.838 E2.21935 F2400.000
G1 X100.379 Y56.415 E2.23365
G1 X101.195 Y56.886 E2.24339
G1 X102.575 Y57.914 E2.26116
G1 X103.994 Y59.252 E2.28132
G1 X105.100 Y60.571 E2.29910
G1 X106.172 Y62.201 E2.31925
G1 X106.945 Y63.739 E2.33703
G1 X107.612 Y65.571 E2.35718
G1 X108.009 Y67.247 E2.37497
G1 X108.285 Y70.044 E2.40402
G1 X108.235 Y129.705 E3.02041
G1 X108.009 Y131.642 E3.04056
G1 X107.612 Y133.317 E3.05835
G1 X106.945 Y135.150 E3.07850
G1 X106.172 Y136.688 E3.09628
G1 X105.100 Y138.318 E3.11643
G1 X103.941 Y139.687 E3.13497
G1 X102.575 Y140.975 E3.15436
G1 X101.195 Y142.003 E3.17214
G1 X99.506 Y142.978 E3.19229
G1 X97.925 Y143.660 E3.21008
G1 X96.057 Y144.219 E3.23023
G1 X94.362 Y144.518 E3.24801
G1 X92.414 Y144.631 E3.26816
G1 X90.696 Y144.531 E3.28595
G1 X88.775 Y144.193 E3.30610
G1 X87.126 Y143.699 E3.32388
G1 X85.335 Y142.926 E3.34403
G1 X83.844 Y142.066 E3.36182
G1 X82.280 Y140.901 E3.38197
G1 X81.028 Y139.720 E3.39975
G1 X79.774 Y138.226 E3.41990
G1 X78.828 Y136.788 E3.43769
G1 X77.953 Y135.045 E3.45784
G1 X77.364 Y133.427 E3.47562
G1 X76.915 Y131.529 E3.49577
G1 X76.715 Y129.820 E3.51356
G1 X76.715 Y69.069 E4.14121
G1 X76.914 Y67.360 E4.15899
G1 X77.364 Y65.462 E4.17914
G1 X77.953 Y63.844 E4.19693
G1 X78.828 Y62.101 E4.21708
G1 X79.733 Y60.726 E4.23409
G1 X79.929 Y60.854 F9000.000
G1 X81.209 Y59.320 E4.25473 F2400.000
G1 X82.421 Y58.177 E4.27195
G1 X83.985 Y57.012 E4.29210
G1 X86.111 Y55.925 E4.31677
G1 X88.328 Y55.592 E4.33993
G1 X96.728 Y55.658 E4.42671
G1 X99.079 Y56.073 E4.45139 F2400.000
G1 X100.261 Y56.619 E4.46483
G1 X101.077 Y57.090 E4.47457
G1 X102.414 Y58.085 E4.49179
G1 X103.832 Y59.424 E4.51194
G1 X104.904 Y60.701 E4.52916
G1 X105.975 Y62.330 E4.54931
G1 X106.723 Y63.819 E4.56653
G1 X107.390 Y65.652 E4.58668
G1 X107.775 Y67.274 E4.60390
G1 X108.050 Y70.044 E4.63266
G1 X108.001 Y129.678 E5.24877
G1 X107.775 Y131.615 E5.26892
G1 X107.390 Y133.237 E5.28614
G1 X106.723 Y135.069 E5.30629
G1 X105.975 Y136.559 E5.32351
G1 X104.904 Y138.188 E5.34366
G1 X103.779 Y139.515 E5.36163
G1 X102.414 Y140.803 E5.38103
G1 X101.077 Y141.799 E5.39824
G1 X99.388 Y142.774 E5.41839
G1 X97.857 Y143.434 E5.43561
G1 X95.989 Y143.993 E5.45576
G1 X94.348 Y144.283 E5.47298
G1 X92.401 Y144.396 E5.49313
G1 X90.737 Y144.299 E5.51035
G1 X88.816 Y143.961 E5.53050
G1 X87.219 Y143.483 E5.54772
G1 X85.428 Y142.710 E5.56787
G1 X83.985 Y141.877 E5.58509
G1 X82.421 Y140.712 E5.60524
G1 X81.209 Y139.568 E5.62246
G1 X79.955 Y138.074 E5.64261
G1 X79.039 Y136.682 E5.65983
G1 X78.164 Y134.939 E5.67998
G1 X77.594 Y133.373 E5.69720
G1 X77.144 Y131.475 E5.71735
G1 X76.950 Y129.820 E5.73457
G1 X76.950 Y69.069 E6.36222
G1 X77.144 Y67.414 E6.37944
G1 X77.594 Y65.516 E6.39959
G1 X78.164 Y63.950 E6.41681
G1 X79.039 Y62.207 E6.43696
G1 X79.887 Y60.917 E6.45291
G1 X80.083 Y61.046 F9000.000
G1 X81.389 Y59.472 E6.47404 F2400.000
G1 X82.561 Y58.366 E6.49069
G1 X84.126 Y57.201 E6.51085
G1 X86.219 Y56.138 E6.53511
G1 X88.326 Y55.828 E6.55710
G1 X96.726 Y55.893 E6.64389
G1 X99.037 Y56.308 E6.66815 F2400.000
G1 X100.143 Y56.823 E6.68076
G1 X100.959 Y57.294 E6.69050
G1 X102.252 Y58.257 E6.70714
G1 X103.671 Y59.595 E6.72730
G1 X104.707 Y60.830 E6.74395
G1 X105.778 Y62.460 E6.76410
G1 X106.502 Y63.900 E6.78075
G1 X107.169 Y65.733 E6.80090
G1 X107.541 Y67.301 E6.81756
G1 X107.814 Y70.044 E6.84604
G1 X107.767 Y129.650 E7.46187
G1 X107.541 Y131.588 E7.48202
G1 X107.169 Y133.156 E7.49867
G1 X106.502 Y134.989 E7.51882
G1 X105.778 Y136.429 E7.53548
G1 X104.707 Y138.059 E7.55563
G1 X103.617 Y139.344 E7.57303
G1 X102.252 Y140.632 E7.59243
G1 X100.959 Y141.595 E7.60908
G1 X99.270 Y142.570 E7.62923
G1 X97.790 Y143.208 E7.64588
G1 X95.921 Y143.768 E7.66603
G1 X94.334 Y144.048 E7.68269
G1 X92.387 Y144.161 E7.70284
G1 X90.778 Y144.067 E7.71949
G1 X88.857 Y143.729 E7.73964
G1 X87.313 Y143.266 E7.75630
G1 X85.522 Y142.494 E7.77645
G1 X84.126 Y141.688 E7.79310
G1 X82.561 Y140.523 E7.81325
G1 X81.389 Y139.417 E7.82990
G1 X80.135 Y137.923 E7.85006
G1 X79.249 Y136.576 E7.86671
G1 X78.374 Y134.833 E7.88686
G1 X77.823 Y133.319 E7.90351
G1 X77.373 Y131.421 E7.92367
G1 X77.186 Y129.820 E7.94032
G1 X77.186 Y69.069 E8.56797
G1 X77.373 Y67.468 E8.58462
G1 X77.823 Y65.570 E8.60477
G1 X78.374 Y64.056 E8.62143
G1 X79.249 Y62.313 E8.64158
G1 X80.042 Y61.108 E8.65648
G1 X80.237 Y61.237 F9000.000
G1 X80.316 Y61.117 E8.65795 F2400.000
G1 X81.570 Y59.623 E8.67810
G1 X82.702 Y58.555 E8.69419
G1 X84.267 Y57.390 E8.71434
G1 X86.327 Y56.351 E8.73818
G1 X88.324 Y56.063 E8.75903
G1 X96.724 Y56.129 E8.84582
G1 X100.025 Y57.027 E8.88116 F2400.000
G1 X100.841 Y57.498 E8.89090
G1 X102.090 Y58.428 E8.90699
G1 X103.509 Y59.767 E8.92714
G1 X104.510 Y60.960 E8.94323
G1 X105.582 Y62.589 E8.96338
G1 X106.280 Y63.981 E8.97946
G1 X106.948 Y65.813 E8.99961
G1 X107.307 Y67.329 E9.01570
G1 X107.578 Y70.044 E9.04390
G1 X107.533 Y129.623 E9.65945
G1 X107.307 Y131.560 E9.67960
G1 X106.948 Y133.076 E9.69569
G1 X106.280 Y134.908 E9.71584
G1 X105.582 Y136.300 E9.73193
G1 X104.510 Y137.929 E9.75208
G1 X103.456 Y139.172 E9.76892
G1 X102.090 Y140.461 E9.78831
G1 X100.841 Y141.390 E9.80440
G1 X99.152 Y142.366 E9.82455
G1 X97.722 Y142.982 E9.84064
G1 X95.854 Y143.542 E9.86079
G1 X94.321 Y143.812 E9.87687
G1 X92.373 Y143.926 E9.89703
G1 X90.818 Y143.835 E9.91312
G1 X88.898 Y143.496 E9.93327
G1 X87.406 Y143.050 E9.94936
G1 X85.615 Y142.277 E9.96951
G1 X84.266 Y141.499 E9.98560
G1 X82.702 Y140.334 E10.00575
G1 X81.570 Y139.266 E10.02183
G1 X80.316 Y137.771 E10.04198
G1 X79.460 Y136.470 E10.05807
G1 X78.585 Y134.727 E10.07822
G1 X78.052 Y133.264 E10.09431
G1 X77.602 Y131.366 E10.11446
G1 X77.422 Y129.820 E10.13055
G1 X77.422 Y69.069 E10.75820
G1 X77.602 Y67.523 E10.77429
G1 X78.052 Y65.625 E10.79444
G1 X78.585 Y64.161 E10.81053
G1 X79.460 Y62.418 E10.83068
G1 X80.196 Y61.299 E10.84452
G1 X80.392 Y61.428 F9000.000
G1 X80.496 Y61.269 E10.84649 F2400.000
G1 X81.750 Y59.775 E10.86664
G1 X82.843 Y58.744 E10.88216
G1 X84.407 Y57.579 E10.90231
G1 X86.434 Y56.565 E10.92573
G1 X88.322 Y56.299 E10.94543
G1 X96.722 Y56.364 E11.03221
G1 X99.907 Y57.231 E11.06632 F2400.000
G1 X100.724 Y57.703 E11.07606
G1 X101.929 Y58.600 E11.09158
G1 X103.347 Y59.938 E11.11173
G1 X104.313 Y61.089 E11.12725
G1 X105.385 Y62.718 E11.14740
G1 X106.059 Y64.061 E11.16293
G1 X106.726 Y65.894 E11.18308
G1 X107.073 Y67.356 E11.19860
G1 X107.343 Y70.044 E11.22652
G1 X107.299 Y129.596 E11.84178
G1 X107.073 Y131.533 E11.86193
G1 X106.726 Y132.995 E11.87745
G1 X106.059 Y134.828 E11.89760
G1 X105.385 Y136.170 E11.91313
G1 X104.313 Y137.800 E11.93328
G1 X103.294 Y139.001 E11.94955
G1 X101.929 Y140.289 E11.96895
G1 X100.723 Y141.186 E11.98447
G1 X99.034 Y142.162 E12.00462
G1 X97.655 Y142.757 E12.02014
G1 X95.786 Y143.316 E12.04029
G1 X94.307 Y143.577 E12.05581
G1 X92.359 Y143.690 E12.07597
G1 X90.859 Y143.603 E12.09149
G1 X88.939 Y143.264 E12.11164
G1 X87.499 Y142.833 E12.12717
G1 X85.708 Y142.061 E12.14732
G1 X84.407 Y141.310 E12.16284
G1 X82.843 Y140.145 E12.18299
G1 X81.750 Y139.114 E12.19851
G1 X80.496 Y137.620 E12.21866
G1 X79.671 Y136.365 E12.23419
G1 X78.795 Y134.622 E12.25434
G1 X78.281 Y133.210 E12.26986
G1 X77.832 Y131.312 E12.29001
G1 X77.657 Y129.820 E12.30554
G1 X77.657 Y69.069 E12.93319
G1 X77.832 Y67.577 E12.94871
G1 X78.281 Y65.679 E12.96886
G1 X78.795 Y64.267 E12.98438
G1 X79.671 Y62.524 E13.00453
G1 X80.350 Y61.491 E13.01731
G1 X80.546 Y61.619 F9000.000
G1 X80.677 Y61.420 E13.01978 F2400.000
G1 X81.931 Y59.926 E13.03993
G1 X82.983 Y58.933 E13.05488
G1 X84.548 Y57.768 E13.07503
G1 X86.541 Y56.779 E13.09802
G1 X88.320 Y56.534 E13.11658
G1 X96.720 Y56.600 E13.20337
G1 X99.789 Y57.435 E13.23623 F2400.000
G1 X100.606 Y57.907 E13.24597
G1 X101.767 Y58.771 E13.26092
G1 X103.185 Y60.109 E13.28107
G1 X104.116 Y61.218 E13.29603
G1 X105.188 Y62.848 E13.31618
G1 X105.838 Y64.142 E13.33114
G1 X106.505 Y65.974 E13.35129
G1 X106.839 Y67.383 E13.36625
G1 X107.107 Y70.044 E13.39388
G1 X107.065 Y129.568 E14.00886
G1 X106.839 Y131.505 E14.02901
G1 X106.505 Y132.914 E14.04397
G1 X105.838 Y134.747 E14.06412
G1 X105.188 Y136.041 E14.07908
G1 X104.116 Y137.670 E14.09923
G1 X103.132 Y138.830 E14.11494
G1 X101.767 Y140.118 E14.13433
G1 X100.606 Y140.982 E14.14929
G1 X98.917 Y141.958 E14.16944
G1 X97.587 Y142.531 E14.18440
G1 X95.719 Y143.090 E14.20455
G1 X94.293 Y143.342 E14.21951
G1 X92.346 Y143.455 E14.23966
G1 X90.900 Y143.371 E14.25462
G1 X88.980 Y143.032 E14.27477
G1 X87.593 Y142.617 E14.28973
G1 X85.802 Y141.845 E14.30988
G1 X84.548 Y141.121 E14.32484
G1 X82.983 Y139.956 E14.34499
G1 X81.931 Y138.963 E14.35994
G1 X80.677 Y137.469 E14.38009
G1 X79.881 Y136.259 E14.39505
G1 X79.006 Y134.516 E14.41520
G1 X78.511 Y133.155 E14.43016
G1 X78.061 Y131.258 E14.45031
G1 X77.893 Y129.820 E14.46527
G1 X77.893 Y69.069 E15.09292
G1 X78.061 Y67.631 E15.10788
G1 X78.511 Y65.733 E15.12803
G1 X79.006 Y64.373 E15.14299
G1 X79.881 Y62.630 E15.16314
G1 X80.505 Y61.682 E15.17486
G1 F2400.000 E13.17486
G1 Z0.600 F9000.000
G92 E0
G1 X85.580 Y65.511 F9000.000
G1 Z0.300 F9000.000
G1 E2.00000 F2400.000
G1 X86.811 Y64.044 E2.01979 F2400.000
G1 X88.122 Y63.068 E2.03667
G1 X88.122 Y70.379 E2.11220
G1 X88.088 Y70.437 E2.11289 F2400.000
G1 X88.122 Y70.456 E2.11329
G1 X88.122 Y70.494 E2.11368
G1 X88.188 Y70.494 E2.11437
G1 X92.405 Y72.929 E2.16468
G1 X92.438 Y72.987 E2.16537
G1 X92.472 Y72.967 E2.16576
G1 X92.505 Y72.987 E2.16616
G1 X92.538 Y72.929 E2.16685
G1 X96.755 Y70.494 E2.21715
G1 X96.822 Y70.494 E2.21784
G1 X96.822 Y70.456 E2.21824
G1 X96.855 Y70.437 E2.21864
G1 X96.822 Y70.379 E2.21933
G1 X96.822 Y63.095 E2.29458
G1 X97.398 Y63.428 E2.30145
G1 X98.791 Y64.742 E2.32124
G1 X99.843 Y66.342 E2.34103
G1 X100.498 Y68.142 E2.36082
G1 X100.721 Y70.044 E2.38060
G1 X100.505 Y71.892 E2.39982
G1 X99.843 Y73.747 E2.42017
G1 X98.791 Y75.347 E2.43995
G1 X97.398 Y76.661 E2.45974
G1 X96.522 Y77.167 E2.47019
G1 X96.522 Y121.722 E2.93052
G1 X97.398 Y122.228 E2.94097
G1 X98.791 Y123.542 E2.96076
G1 X99.843 Y125.142 E2.98055
G1 X100.498 Y126.942 E3.00033
G1 X100.721 Y128.844 E3.02012
G1 X100.498 Y130.747 E3.03991
G1 X99.843 Y132.547 E3.05970
G1 X98.791 Y134.147 E3.07949
G1 X97.398 Y135.461 E3.09927
G1 X95.739 Y136.419 E3.11906
G1 X93.904 Y136.968 E3.13885
G1 X91.992 Y137.079 E3.15864
G1 X90.106 Y136.747 E3.17843
G1 X88.347 Y135.988 E3.19822
G1 X86.811 Y134.844 E3.21800
G1 X85.580 Y133.377 E3.23779
G1 X84.720 Y131.666 E3.25758
G1 X84.278 Y129.802 E3.27737
G1 X84.278 Y127.887 E3.29716
G1 X84.720 Y126.023 E3.31694
G1 X85.580 Y124.311 E3.33673
G1 X86.811 Y122.844 E3.35652
G1 X88.422 Y121.645 E3.37727
G1 X88.422 Y77.244 E3.83601
G1 X86.811 Y76.044 E3.85676
G1 X85.580 Y74.577 E3.87654
G1 X84.720 Y72.866 E3.89633
G1 X84.278 Y71.002 E3.91612
G1 X84.278 Y69.087 E3.93591
G1 X84.720 Y67.223 E3.95570
G1 X85.546 Y65.579 E3.97471
G1 F2400.000 E1.97471
G1 Z0.600 F9000.000
G92 E0
G1 X88.061 Y70.408 F9000.000
G1 X87.886 Y70.316 F9000.000
G1 Z0.300 F9000.000
G1 E2.00000 F2400.000
G1 X87.766 Y70.523 E2.00247 F2400.000
G1 X87.886 Y70.592 E2.00390
G1 X87.886 Y70.730 E2.00533
G1 X88.125 Y70.730 E2.00780
G1 X92.232 Y73.101 E2.05680
G1 X92.352 Y73.308 E2.05927
G1 X92.472 Y73.239 E2.06069
G1 X92.591 Y73.308 E2.06212
G1 X92.711 Y73.101 E2.06459
G1 X96.818 Y70.730 E2.11359
G1 X97.057 Y70.730 E2.11606
G1 X97.057 Y70.592 E2.11749
G1 X97.177 Y70.523 E2.11892
G1 X97.057 Y70.316 E2.12139
G1 X97.057 Y63.503 E2.19177 F2400.000
G1 X97.256 Y63.618 E2.19414
G1 X98.609 Y64.895 E2.21336
G1 X99.631 Y66.449 E2.23258
G1 X100.267 Y68.197 E2.25180
G1 X100.483 Y70.044 E2.27102
G1 X100.267 Y71.892 E2.29024
G1 X99.631 Y73.640 E2.30945
G1 X98.609 Y75.194 E2.32867
G1 X97.256 Y76.471 E2.34789
G1 X96.286 Y77.031 E2.35946
G1 X96.286 Y121.858 E2.82260
G1 X97.256 Y122.418 E2.83417
G1 X98.609 Y123.695 E2.85339
G1 X99.631 Y125.249 E2.87261
G1 X100.267 Y126.997 E2.89183
G1 X100.483 Y128.844 E2.91105
G1 X100.267 Y130.692 E2.93027
G1 X99.631 Y132.440 E2.94949
G1 X98.589 Y134.014 E2.96899
G1 X97.256 Y135.271 E2.98792
G1 X95.645 Y136.201 E3.00714
G1 X93.863 Y136.734 E3.02636
G1 X92.006 Y136.843 E3.04558
G1 X90.174 Y136.520 E3.06479
G1 X88.466 Y135.783 E3.08401
G1 X86.974 Y134.672 E3.10323
G1 X85.765 Y133.222 E3.12273
G1 X84.943 Y131.585 E3.14166
G1 X84.514 Y129.775 E3.16088
G1 X84.514 Y127.914 E3.18010
G1 X84.943 Y126.104 E3.19932
G1 X85.778 Y124.442 E3.21854
G1 X86.974 Y123.017 E3.23776
G1 X88.657 Y121.763 E3.25944
G1 X88.657 Y77.125 E3.72063
G1 X86.974 Y75.872 E3.74231
G1 X85.778 Y74.447 E3.76153
G1 X84.943 Y72.785 E3.78075
G1 X84.514 Y70.975 E3.79997
G1 X84.514 Y69.114 E3.81919
G1 X84.943 Y67.304 E3.83841
G1 X85.778 Y65.642 E3.85763
G1 X86.974 Y64.217 E3.87685
G1 X87.886 Y63.538 E3.88860
G1 X87.886 Y70.241 E3.95785
G1 F2400.000 E1.95785
G1 Z0.600 F9000.000
G92 E0
G1 X87.272 Y70.151 F9000.000
G1 X86.927 Y70.748 F9000.000
G1 X87.272 Y70.947 F9000.000
G1 X87.272 Y71.344 F9000.000
G1 X87.961 Y71.344 F9000.000
G1 X91.769 Y73.543 F9000.000
G1 X91.783 Y73.551 F9000.000
G1 X92.127 Y74.148 F9000.000
G1 X92.472 Y73.949 F9000.000
G1 X92.816 Y74.148 F9000.000
G1 X93.160 Y73.551 F9000.000
G1 X96.983 Y71.344 F9000.000
G1 X97.672 Y71.344 F9000.000
G1 X97.672 Y70.947 F9000.000
G1 X98.016 Y70.748 F9000.000
G1 X97.672 Y70.151 F9000.000
G1 X97.672 Y64.855 F9000.000
G1 X98.135 Y65.292 F9000.000
G1 X99.078 Y66.726 F9000.000
G1 X99.666 Y68.339 F9000.000
G1 X99.865 Y70.044 F9000.000
G1 X99.666 Y71.749 F9000.000
G1 X99.078 Y73.362 F9000.000
G1 X98.135 Y74.797 F9000.000
G1 X96.887 Y75.975 F9000.000
G1 X95.672 Y76.676 F9000.000
G1 X95.672 Y122.213 F9000.000
G1 X96.887 Y122.914 F9000.000
G1 X98.135 Y124.092 F9000.000
G1 X99.078 Y125.526 F9000.000
G1 X99.666 Y127.139 F9000.000
G1 X99.865 Y128.844 F9000.000
G1 X99.666 Y130.549 F9000.000
G1 X99.078 Y132.162 F9000.000
G1 X98.135 Y133.597 F9000.000
G1 X96.887 Y134.775 F9000.000
G1 X95.400 Y135.633 F9000.000
G1 X93.755 Y136.125 F9000.000
G1 X92.042 Y136.225 F9000.000
G1 X90.351 Y135.927 F9000.000
G1 X88.775 Y135.247 F9000.000
G1 X87.398 Y134.222 F9000.000
G1 X86.295 Y132.907 F9000.000
G1 X85.524 Y131.373 F9000.000
G1 X85.128 Y129.703 F9000.000
G1 X85.128 Y127.986 F9000.000
G1 X85.524 Y126.316 F9000.000
G1 X86.295 Y124.782 F9000.000
G1 X87.398 Y123.467 F9000.000
G1 X89.272 Y122.072 F9000.000
G1 X88.893 Y111.882 F9000.000
G1 Z0.300 F9000.000
G1 E2.00000 F2400.000
G1 X88.893 Y77.007 E2.36032 F2400.000
G1 X87.136 Y75.699 E2.38294
G1 X85.976 Y74.317 E2.40159
G1 X85.166 Y72.703 E2.42024
G1 X84.750 Y70.947 E2.43889
G1 X84.750 Y69.142 E2.45754
G1 X85.166 Y67.385 E2.47619
G1 X85.976 Y65.772 E2.49484
G1 X87.136 Y64.389 E2.51349
G1 X87.650 Y64.007 E2.52011
G1 X87.650 Y70.253 E2.58464
G1 X87.444 Y70.609 E2.58889
G1 X87.650 Y70.728 E2.59135
G1 X87.650 Y70.966 E2.59380
G1 X88.062 Y70.966 E2.59806
G1 X92.060 Y73.274 E2.64575
G1 X92.266 Y73.630 E2.65001
G1 X92.472 Y73.511 E2.65246
G1 X92.677 Y73.630 E2.65492
G1 X92.883 Y73.274 E2.65917
G1 X96.881 Y70.966 E2.70686
G1 X97.293 Y70.966 E2.71112
G1 X97.293 Y70.728 E2.71357
G1 X97.499 Y70.609 E2.71603
G1 X97.293 Y70.253 E2.72028
G1 X97.293 Y63.977 E2.78512
G1 X98.427 Y65.047 E2.80123
G1 X99.419 Y66.555 E2.81988 F2400.000
G1 X100.037 Y68.251 E2.83853
G1 X100.246 Y70.044 E2.85718
G1 X100.037 Y71.837 E2.87583
G1 X99.419 Y73.534 E2.89448
G1 X98.427 Y75.042 E2.91313
G1 X97.114 Y76.281 E2.93178
