; generated by Slic3r 1.2.0 on 2014-10-23 at 11:49:07

; external perimeters extrusion width = 0.50mm
; perimeters extrusion width = 0.72mm
; infill extrusion width = 0.72mm
; solid infill extrusion width = 0.72mm
; top infill extrusion width = 0.72mm

G21 ; set units to millimeters
M190 S65 ; wait for bed temperature to be reached
M104 S180 ; set temperature
G28 ; home all axes
M109 S180 ; wait for temperature to be reached
G90 ; use absolute coordinates
G92 E0
M82 ; use absolute distances for extrusion
M106 S89
G1 F2400.000 E-2.00000
G1 Z0.600 F9000.000
G92 E0
G1 X35.935 Y66.718 F9000.000
G1 Z0.300 F9000.000
G1 E2.00000 F2400.000
G1 X37.216 Y66.147 E2.01610 F1800.000
G1 X39.880 Y65.282 E2.04826
G1 X41.252 Y64.990 E2.06435
G1 X43.934 Y64.708 E2.09531
G1 X44.739 Y64.661 E2.10457
G1 X139.240 Y64.697 E3.18940
G1 X142.026 Y64.990 E3.22156 F1800.000
G1 X143.398 Y65.282 E3.23766
G1 X146.062 Y66.147 E3.26981
G1 X147.343 Y66.718 E3.28591
G1 X149.769 Y68.118 E3.31807
G1 X150.903 Y68.942 E3.33416
G1 X152.907 Y70.747 E3.36512
G1 X153.923 Y71.859 E3.38241
G1 X155.570 Y74.125 E3.41457
G1 X156.271 Y75.339 E3.43066
G1 X157.410 Y77.899 E3.46282
G1 X157.844 Y79.232 E3.47892
G1 X158.426 Y81.972 E3.51108
G1 X158.573 Y83.367 E3.52717
G1 X158.573 Y86.168 E3.55933
G1 X158.426 Y87.562 E3.57543
G1 X157.844 Y90.303 E3.60759
G1 X157.410 Y91.636 E3.62368
G1 X156.271 Y94.196 E3.65584
G1 X155.570 Y95.409 E3.67194
G1 X153.413 Y98.296 E3.71329
G1 X121.925 Y132.102 E4.24364
G1 X120.393 Y133.295 E4.26594
G1 X118.451 Y134.345 E4.29128
G1 X116.614 Y134.976 E4.31358
G1 X114.436 Y135.339 E4.33892
G1 X71.194 Y135.339 E4.83532
G1 X69.016 Y134.976 E4.86067
G1 X67.179 Y134.345 E4.88297
G1 X65.238 Y133.295 E4.90831
G1 X63.079 Y131.549 E4.94017
G1 X29.355 Y97.676 E5.48888
G1 X27.708 Y95.410 E5.52104
G1 X26.693 Y93.337 E5.54753
G1 X26.427 Y91.467 E5.56921
G1 X26.427 Y78.067 E5.72304
G1 X26.825 Y75.794 E5.74953
G1 X27.708 Y74.125 E5.77121
G1 X29.355 Y71.859 E5.80337
G1 X30.293 Y70.817 E5.81947
G1 X32.375 Y68.942 E5.85162
G1 X33.509 Y68.118 E5.86772
G1 X35.870 Y66.755 E5.89902
G1 X35.988 Y66.959 F9000.000
G1 X37.289 Y66.371 E5.91540 F1800.000
G1 X39.953 Y65.506 E5.94756
G1 X41.277 Y65.224 E5.96309
G1 X43.958 Y64.943 E5.99405
G1 X44.739 Y64.896 E6.00303
G1 X139.215 Y64.932 E7.08758
G1 X142.001 Y65.224 E7.11973 F1800.000
G1 X143.325 Y65.506 E7.13527
G1 X145.989 Y66.371 E7.16742
G1 X147.225 Y66.922 E7.18295
G1 X149.651 Y68.322 E7.21511
G1 X150.745 Y69.118 E7.23064
G1 X152.749 Y70.922 E7.26160
G1 X153.732 Y71.997 E7.27832
G1 X155.379 Y74.264 E7.31048
G1 X156.055 Y75.435 E7.32601
G1 X157.195 Y77.994 E7.35817
G1 X157.613 Y79.281 E7.37370
G1 X158.195 Y82.021 E7.40586
G1 X158.337 Y83.367 E7.42139
G1 X158.337 Y86.168 E7.45355
G1 X158.195 Y87.513 E7.46908
G1 X157.613 Y90.254 E7.50124
G1 X157.195 Y91.540 E7.51677
G1 X156.055 Y94.100 E7.54893
G1 X155.379 Y95.271 E7.56446
G1 X153.241 Y98.135 E7.60549
G1 X121.781 Y131.916 E8.13540
G1 X120.248 Y133.109 E8.15770
G1 X118.374 Y134.123 E8.18215
G1 X116.537 Y134.753 E8.20445
G1 X114.436 Y135.104 E8.22890
G1 X71.194 Y135.104 E8.72531
G1 X69.093 Y134.753 E8.74976
G1 X67.256 Y134.123 E8.77206
G1 X65.382 Y133.109 E8.79651
G1 X63.246 Y131.383 E8.82804
G1 X29.546 Y97.537 E9.37633
G1 X27.899 Y95.271 E9.40849
G1 X26.908 Y93.232 E9.43450
G1 X26.663 Y91.467 E9.45496
G1 X26.663 Y78.067 E9.60879
G1 X27.060 Y75.836 E9.63481
G1 X27.899 Y74.264 E9.65526
G1 X29.546 Y71.997 E9.68742
G1 X30.451 Y70.992 E9.70295
G1 X32.533 Y69.118 E9.73511
G1 X33.627 Y68.322 E9.75064
G1 X35.923 Y66.997 E9.78108
G1 X36.041 Y67.201 F9000.000
G1 X36.171 Y67.126 E9.78280 F1800.000
G1 X37.362 Y66.596 E9.79776
G1 X40.026 Y65.730 E9.82992
G1 X41.301 Y65.459 E9.84489
G1 X43.983 Y65.177 E9.87584
G1 X44.739 Y65.132 E9.88454
G1 X139.191 Y65.166 E10.96881
G1 X141.977 Y65.459 E11.00096 F1800.000
G1 X143.252 Y65.730 E11.01593
G1 X145.916 Y66.596 E11.04809
G1 X147.107 Y67.126 E11.06305
G1 X149.533 Y68.526 E11.09521
G1 X150.588 Y69.293 E11.11018
G1 X152.592 Y71.097 E11.14113
G1 X153.542 Y72.136 E11.15729
G1 X155.188 Y74.402 E11.18945
G1 X155.840 Y75.531 E11.20441
G1 X156.980 Y78.090 E11.23657
G1 X157.383 Y79.330 E11.25154
G1 X157.965 Y82.070 E11.28370
G1 X158.101 Y83.367 E11.29866
G1 X158.101 Y86.168 E11.33082
G1 X157.965 Y87.464 E11.34579
G1 X157.383 Y90.205 E11.37794
G1 X156.980 Y91.445 E11.39291
G1 X155.840 Y94.004 E11.42507
G1 X155.189 Y95.132 E11.44003
G1 X153.068 Y97.975 E11.48074
G1 X121.636 Y131.730 E12.01022
G1 X120.103 Y132.923 E12.03252
G1 X118.298 Y133.900 E12.05608
G1 X116.461 Y134.530 E12.07838
G1 X114.436 Y134.868 E12.10194
G1 X71.194 Y134.868 E12.59834
G1 X69.169 Y134.530 E12.62191
G1 X67.332 Y133.900 E12.64420
G1 X65.527 Y132.923 E12.66777
G1 X63.413 Y131.216 E12.69896
G1 X29.736 Y97.399 E13.24683
G1 X28.090 Y95.133 E13.27898
G1 X27.124 Y93.129 E13.30452
G1 X26.899 Y91.467 E13.32376
G1 X26.899 Y78.067 E13.47759
G1 X27.296 Y75.879 E13.50313
G1 X28.090 Y74.402 E13.52237
G1 X29.736 Y72.136 E13.55453
G1 X30.609 Y71.167 E13.56950
G1 X32.690 Y69.293 E13.60165
G1 X33.745 Y68.526 E13.61662
G1 X35.976 Y67.238 E13.64619
G1 F2400.000 E11.64619
G1 Z0.600 F9000.000
G92 E0
G1 X68.635 Y118.277 F9000.000
G1 Z0.300 F9000.000
G1 E2.00000 F2400.000
G1 X70.299 Y117.377 E2.02172 F1800.000
G1 X72.165 Y117.065 E2.04344
G1 X74.031 Y117.377 E2.06516
G1 X75.696 Y118.277 E2.08689
G1 X76.977 Y119.669 E2.10861
G1 X77.128 Y120.013 E2.11292
G1 X108.502 Y120.013 E2.47308
G1 X108.653 Y119.669 E2.47739
G1 X109.935 Y118.277 E2.49911
G1 X111.599 Y117.377 E2.52083
G1 X113.465 Y117.065 E2.54256
G1 X115.284 Y117.369 E2.56373
G1 X115.331 Y117.377 E2.56428 F1800.000
G1 X116.996 Y118.277 E2.58600
G1 X118.277 Y119.669 E2.60772
G1 X119.037 Y121.402 E2.62944
G1 X119.193 Y123.288 E2.65116
G1 X118.729 Y125.122 E2.67288
G1 X117.694 Y126.706 E2.69460
G1 X116.201 Y127.868 E2.71632
G1 X114.411 Y128.483 E2.73805
G1 X112.519 Y128.483 E2.75977
G1 X110.729 Y127.868 E2.78149
G1 X109.236 Y126.706 E2.80321
G1 X108.522 Y125.613 E2.81820
G1 X77.108 Y125.613 E3.17882
G1 X76.394 Y126.706 E3.19381
G1 X74.901 Y127.868 E3.21553
G1 X73.111 Y128.483 E3.23725
G1 X71.219 Y128.483 E3.25897
G1 X69.429 Y127.868 E3.28069
G1 X67.936 Y126.706 E3.30241
G1 X67.418 Y125.913 E3.31328
G1 X72.388 Y125.913 E3.37034
G1 X72.457 Y125.953 E3.37125
G1 X72.480 Y125.913 E3.37178
G1 X72.526 Y125.913 E3.37230
G1 X72.526 Y125.833 E3.37322
G1 X74.224 Y122.893 E3.41220
G1 X74.293 Y122.853 E3.41311
G1 X74.270 Y122.813 E3.41364
G1 X74.293 Y122.773 E3.41417
G1 X74.224 Y122.734 E3.41508
G1 X72.595 Y119.913 E3.45247
G1 X72.526 Y119.793 E3.45406
G1 X72.526 Y119.713 E3.45498
G1 X72.480 Y119.713 E3.45550
G1 X72.457 Y119.673 E3.45603
G1 X72.388 Y119.713 E3.45695
G1 X67.313 Y119.713 E3.51521
G1 X68.584 Y118.332 E3.53675
G1 F2400.000 E1.53675
G1 Z0.600 F9000.000
G92 E0
G1 X115.304 Y117.412 F9000.000
G1 X115.254 Y117.602 F9000.000
G1 Z0.300 F9000.000
G1 E2.00000 F2400.000
G1 X116.849 Y118.466 E2.02082 F1800.000
G1 X118.077 Y119.800 E2.04164
G1 X118.806 Y121.461 E2.06246
G1 X118.955 Y123.268 E2.08327
G1 X118.510 Y125.026 E2.10409
G1 X117.518 Y126.544 E2.12491
G1 X116.087 Y127.658 E2.14573
G1 X114.372 Y128.247 E2.16655
G1 X112.558 Y128.247 E2.18737
G1 X110.843 Y127.658 E2.20819
G1 X109.412 Y126.544 E2.22900
G1 X108.650 Y125.377 E2.24500
G1 X76.980 Y125.377 E2.60855
G1 X76.218 Y126.544 E2.62455
G1 X74.787 Y127.658 E2.64537
G1 X73.072 Y128.247 E2.66619
G1 X71.258 Y128.247 E2.68701
G1 X69.543 Y127.658 E2.70783
G1 X68.112 Y126.544 E2.72864
G1 X67.853 Y126.149 E2.73407
G1 X72.325 Y126.149 E2.78540
G1 X72.543 Y126.275 E2.78829
G1 X72.616 Y126.149 E2.78996
G1 X72.761 Y126.149 E2.79163
G1 X72.761 Y125.897 E2.79453
G1 X74.396 Y123.065 E2.83206
G1 X74.614 Y122.939 E2.83495
G1 X74.542 Y122.813 E2.83662
G1 X74.614 Y122.687 E2.83829
G1 X74.396 Y122.561 E2.84119
G1 X72.761 Y119.729 E2.87872
G1 X72.761 Y119.477 E2.88161
G1 X72.616 Y119.477 E2.88328
G1 X72.543 Y119.351 E2.88495
G1 X72.325 Y119.477 E2.88785
G1 X67.850 Y119.477 E2.93922
G1 X68.781 Y118.466 E2.95500
G1 X70.376 Y117.602 E2.97582
G1 X72.165 Y117.304 E2.99664
G1 X73.954 Y117.602 E3.01746
G1 X75.549 Y118.466 E3.03828
G1 X76.777 Y119.800 E3.05910
G1 X76.974 Y120.249 E3.06472
G1 X108.656 Y120.249 E3.42842
G1 X108.853 Y119.800 E3.43405
G1 X110.081 Y118.466 E3.45487
G1 X111.676 Y117.602 E3.47569
G1 X113.465 Y117.304 E3.49650 F1800.000
G1 X115.180 Y117.590 E3.51646
G1 F2400.000 E1.51646
G1 Z0.600 F9000.000
G92 E0
G1 X115.052 Y118.192 F9000.000
G1 X116.466 Y118.957 F9000.000
G1 X117.556 Y120.141 F9000.000
G1 X118.202 Y121.614 F9000.000
G1 X118.334 Y123.217 F9000.000
G1 X117.940 Y124.776 F9000.000
G1 X117.060 Y126.122 F9000.000
G1 X115.791 Y127.110 F9000.000
G1 X114.269 Y127.633 F9000.000
G1 X112.661 Y127.633 F9000.000
G1 X111.139 Y127.110 F9000.000
G1 X109.870 Y126.122 F9000.000
G1 X108.982 Y124.763 F9000.000
G1 X76.648 Y124.763 F9000.000
G1 X91.923 Y125.142 F9000.000
G1 Z0.300 F9000.000
G1 E2.00000 F2400.000
G1 X76.853 Y125.142 E2.17300 F1800.000
G1 X76.042 Y126.382 E2.19001
G1 X74.673 Y127.448 E2.20993
G1 X73.032 Y128.011 E2.22984
G1 X71.298 Y128.011 E2.24976
G1 X69.657 Y127.448 E2.26968
G1 X68.454 Y126.512 E2.28718
G1 X68.497 Y126.384 E2.28872
G1 X72.262 Y126.384 E2.33194
G1 X72.629 Y126.597 E2.33681
G1 X72.752 Y126.384 E2.33962
G1 X72.997 Y126.384 E2.34244
G1 X72.997 Y125.960 E2.34731
G1 X74.569 Y123.238 E2.38340
G1 X74.936 Y123.025 E2.38827
G1 X74.814 Y122.813 E2.39108
G1 X74.936 Y122.601 E2.39389
G1 X74.569 Y122.389 E2.39877
G1 X72.997 Y119.666 E2.43485
G1 X72.997 Y119.242 E2.43973
G1 X72.752 Y119.242 E2.44254
G1 X72.629 Y119.029 E2.44535
G1 X72.262 Y119.242 E2.45023
G1 X68.387 Y119.242 E2.49471
G1 X68.928 Y118.654 E2.50388
G1 X70.454 Y117.828 E2.52379
G1 X72.165 Y117.543 E2.54371
G1 X73.876 Y117.828 E2.56362
G1 X75.402 Y118.654 E2.58354
G1 X76.577 Y119.931 E2.60346
G1 X76.820 Y120.484 E2.61040
G1 X108.810 Y120.484 E2.97763
G1 X109.053 Y119.931 E2.98457
G1 X110.228 Y118.654 E3.00449
G1 X111.754 Y117.828 E3.02440
G1 X113.465 Y117.543 E3.04432
G1 X115.176 Y117.828 E3.06423
G1 X116.702 Y118.654 E3.08415 F1800.000
G1 X117.877 Y119.931 E3.10407
G1 X118.574 Y121.519 E3.12398
G1 X118.717 Y123.248 E3.14390
G1 X118.291 Y124.930 E3.16381
G1 X117.342 Y126.382 E3.18373
G1 X115.973 Y127.448 E3.20365
G1 X114.332 Y128.011 E3.22356
G1 X112.598 Y128.011 E3.24348
G1 X110.957 Y127.448 E3.26339
G1 X109.588 Y126.382 E3.28331
G1 X108.777 Y125.142 E3.30032
G1 X91.998 Y125.142 E3.49294
G1 F2400.000 E1.49294
G1 Z0.600 F9000.000
G92 E0
G1 X109.863 Y122.853 F9000.000
G1 Z0.300 F9000.000
G1 E2.00000 F2400.000
G1 X109.885 Y122.813 E2.00053 F1800.000
G1 X109.862 Y122.773 E2.00106
G1 X109.932 Y122.733 E2.00197
G1 X111.629 Y119.793 E2.04095
G1 X111.629 Y119.713 E2.04187
G1 X111.675 Y119.713 E2.04239
G1 X111.698 Y119.673 E2.04292
G1 X111.767 Y119.713 E2.04383
G1 X115.163 Y119.713 E2.08282
G1 X115.232 Y119.673 E2.08373
G1 X115.255 Y119.713 E2.08426
G1 X115.301 Y119.713 E2.08478 F1800.000
G1 X115.301 Y119.793 E2.08570
G1 X115.370 Y119.913 E2.08729
G1 X116.999 Y122.734 E2.12468
G1 X117.068 Y122.773 E2.12559
G1 X117.045 Y122.813 E2.12612
G1 X117.068 Y122.853 E2.12665
G1 X116.999 Y122.893 E2.12756
G1 X115.301 Y125.833 E2.16654
G1 X115.301 Y125.913 E2.16746
G1 X115.255 Y125.913 E2.16798
G1 X115.232 Y125.953 E2.16851
G1 X115.163 Y125.913 E2.16942
G1 X111.767 Y125.913 E2.20841
G1 X111.698 Y125.953 E2.20932
G1 X111.675 Y125.913 E2.20985
G1 X111.629 Y125.913 E2.21037
G1 X111.629 Y125.833 E2.21129
G1 X109.927 Y122.890 E2.25031
G1 F2400.000 E0.25031
G1 Z0.600 F9000.000
G92 E0
G1 X109.309 Y123.515 F9000.000
G1 X110.779 Y126.061 F9000.000
G1 X110.779 Y126.763 F9000.000
G1 X111.185 Y126.763 F9000.000
G1 X111.387 Y127.113 F9000.000
G1 X111.994 Y126.763 F9000.000
G1 X114.935 Y126.763 F9000.000
G1 X115.543 Y127.114 F9000.000
G1 X115.746 Y126.763 F9000.000
G1 X116.151 Y126.763 F9000.000
G1 X116.151 Y126.061 F9000.000
G1 X117.621 Y123.515 F9000.000
G1 X118.229 Y123.164 F9000.000
G1 X118.026 Y122.813 F9000.000
G1 X118.229 Y122.462 F9000.000
G1 X117.621 Y122.111 F9000.000
G1 X116.151 Y119.565 F9000.000
G1 X116.151 Y118.863 F9000.000
G1 X115.746 Y118.863 F9000.000
G1 X115.543 Y118.512 F9000.000
G1 X114.935 Y118.863 F9000.000
G1 X115.263 Y119.668 F9000.000
G1 X115.391 Y119.477 F9000.000
G1 Z0.300 F9000.000
G1 E2.00000 F2400.000
G1 X115.536 Y119.477 E2.00167 F1800.000
G1 X115.536 Y119.729 E2.00456
G1 X117.171 Y122.561 E2.04210
G1 X117.389 Y122.687 E2.04499
G1 X117.317 Y122.813 E2.04666
G1 X117.389 Y122.939 E2.04833
G1 X117.171 Y123.065 E2.05122
G1 X115.536 Y125.897 E2.08876
G1 X115.536 Y126.149 E2.09165
G1 X115.391 Y126.149 E2.09332
G1 X115.318 Y126.275 E2.09499
G1 X115.100 Y126.149 E2.09789
G1 X111.830 Y126.149 E2.13542
G1 X111.612 Y126.274 E2.13831
G1 X111.539 Y126.149 E2.13998
G1 X111.394 Y126.149 E2.14165
G1 X111.394 Y125.897 E2.14454
G1 X109.759 Y123.065 E2.18208
G1 X109.541 Y122.939 E2.18497
G1 X109.613 Y122.813 E2.18664
G1 X109.540 Y122.687 E2.18831
G1 X109.759 Y122.561 E2.19121
G1 X111.394 Y119.729 E2.22874
G1 X111.394 Y119.477 E2.23163
G1 X111.539 Y119.477 E2.23330
G1 X111.612 Y119.351 E2.23497
G1 X111.830 Y119.477 E2.23787
G1 X115.100 Y119.477 E2.27540
G1 X115.318 Y119.351 E2.27829 F1800.000
G1 X115.353 Y119.412 E2.27910
G1 X115.527 Y119.242 F9000.000
G1 X115.772 Y119.242 E2.28192 F1800.000
G1 X115.772 Y119.666 E2.28679
G1 X117.344 Y122.389 E2.32288
G1 X117.711 Y122.601 E2.32775
G1 X117.589 Y122.813 E2.33056
G1 X117.711 Y123.025 E2.33337
G1 X117.344 Y123.238 E2.33825
G1 X115.772 Y125.960 E2.37433
G1 X115.772 Y126.384 E2.37920
G1 X115.527 Y126.384 E2.38202
G1 X115.404 Y126.597 E2.38483
G1 X115.037 Y126.384 E2.38971
G1 X111.893 Y126.384 E2.42579
G1 X111.525 Y126.596 E2.43066
G1 X111.403 Y126.384 E2.43347
G1 X111.158 Y126.384 E2.43628
G1 X111.158 Y125.960 E2.44116
G1 X109.586 Y123.238 E2.47724
G1 X109.219 Y123.025 E2.48211
G1 X109.341 Y122.813 E2.48493
G1 X109.219 Y122.600 E2.48775
G1 X109.587 Y122.388 E2.49263
G1 X111.158 Y119.666 E2.52871
G1 X111.158 Y119.242 E2.53358
G1 X111.403 Y119.242 E2.53639
G1 X111.526 Y119.030 E2.53921
G1 X111.893 Y119.242 E2.54408
G1 X115.037 Y119.242 E2.58016
G1 X115.339 Y119.067 E2.58418
G1 F2400.000 E0.58418
G1 Z0.600 F9000.000
G92 E0
G1 X69.338 Y118.863 F9000.000
G1 X69.067 Y118.833 F9000.000
G1 Z0.300 F9000.000
G1 E2.00000 F2400.000
G1 X70.528 Y118.043 E2.01906 F1800.000
G1 X72.165 Y117.770 E2.03812
G1 X73.803 Y118.043 E2.05717
G1 X75.263 Y118.833 E2.07623
G1 X76.387 Y120.055 E2.09529
G1 X76.674 Y120.708 E2.10348
G1 X108.956 Y120.708 E2.47407
G1 X109.243 Y120.055 E2.48227
G1 X110.367 Y118.833 E2.50132
G1 X111.828 Y118.043 E2.52038
G1 X113.465 Y117.770 E2.53944
G1 X115.103 Y118.043 E2.55850
G1 X116.563 Y118.833 E2.57756
G1 X117.687 Y120.055 E2.59662
G1 X118.354 Y121.575 E2.61567
G1 X118.491 Y123.230 E2.63473
G1 X118.084 Y124.839 E2.65379
G1 X117.176 Y126.229 E2.67285
G1 X115.865 Y127.248 E2.69191
G1 X114.295 Y127.788 E2.71097
G1 X112.635 Y127.788 E2.73002
G1 X111.065 Y127.248 E2.74908
G1 X109.755 Y126.229 E2.76814
G1 X108.898 Y124.918 E2.78611
G1 X76.732 Y124.918 E3.15537
G1 X75.875 Y126.229 E3.17335
G1 X74.565 Y127.248 E3.19240
G1 X72.995 Y127.788 E3.21146
G1 X71.335 Y127.788 E3.23052
G1 X69.765 Y127.248 E3.24958
G1 X68.942 Y126.608 E3.26155
G1 X72.202 Y126.608 E3.29897
G1 X72.711 Y126.902 E3.30572
G1 X72.881 Y126.608 E3.30962
G1 X73.221 Y126.608 E3.31352
G1 X73.221 Y126.020 E3.32028
G1 X74.732 Y123.401 E3.35498
G1 X75.242 Y123.107 E3.36174
G1 X75.072 Y122.813 E3.36564
G1 X75.242 Y122.519 E3.36953
G1 X74.732 Y122.225 E3.37629
G1 X73.221 Y119.606 E3.41100
G1 X73.221 Y119.018 E3.41775
G1 X72.881 Y119.018 E3.42165
G1 X72.711 Y118.724 E3.42555
G1 X72.202 Y119.018 E3.43231
G1 X68.897 Y119.018 E3.47024
G1 X69.017 Y118.888 E3.47226
G1 X69.986 Y118.604 F9000.000
G1 X70.605 Y118.269 E3.48034 F1800.000
G1 X72.165 Y118.009 E3.49849
G1 X73.725 Y118.269 E3.51665
G1 X75.116 Y119.022 E3.53480
G1 X76.187 Y120.185 E3.55296
G1 X76.520 Y120.944 E3.56247
G1 X109.110 Y120.944 E3.93660
G1 X109.443 Y120.185 E3.94610
G1 X110.698 Y118.822 E3.96738
G1 X110.698 Y119.543 E3.97566
G1 X109.250 Y122.051 E4.00891
G1 X108.590 Y122.432 E4.01765
