; generated by Slic3r 1.2.0 on 2014-10-23 at 12:31:55

; external perimeters extrusion width = 0.50mm
; perimeters extrusion width = 0.72mm
; infill extrusion width = 0.72mm
; solid infill extrusion width = 0.72mm
; top infill extrusion width = 0.72mm

G21 ; set units to millimeters
M190 S65 ; wait for bed temperature to be reached
M104 S180 ; set temperature
G28 ; home all axes
M109 S180 ; wait for temperature to be reached
G90 ; use absolute coordinates
G92 E0
M82 ; use absolute distances for extrusion
M106 S89
G1 F2400.000 E-2.00000
G1 Z0.600 F9000.000
G92 E0
G1 X36.323 Y81.581 F9000.000
G1 Z0.300 F9000.000
G1 E2.00000 F2400.000
G1 X37.161 Y81.209 E2.01188 F1800.000
G1 X39.825 Y80.343 E2.04819
G1 X41.233 Y80.044 E2.06686
G1 X43.915 Y79.762 E2.10181
G1 X44.739 Y79.713 E2.11251
G1 X139.259 Y79.751 E3.33773
G1 X142.045 Y80.044 E3.37404 F1800.000
G1 X143.453 Y80.343 E3.39271
G1 X146.118 Y81.209 E3.42902
G1 X147.433 Y81.794 E3.44768
G1 X149.859 Y83.195 E3.48399
G1 X151.024 Y84.041 E3.50266
G1 X153.105 Y85.916 E3.53897
G1 X154.069 Y86.986 E3.55763
G1 X155.715 Y89.252 E3.59394
G1 X156.435 Y90.499 E3.61261
G1 X157.575 Y93.058 E3.64892
G1 X158.020 Y94.427 E3.66758
G1 X158.602 Y97.168 E3.70390
G1 X158.753 Y98.599 E3.72256
G1 X158.753 Y101.401 E3.75887
G1 X158.602 Y102.832 E3.77753
G1 X158.020 Y105.573 E3.81385
G1 X157.575 Y106.942 E3.83251
G1 X156.435 Y109.501 E3.86883
G1 X155.715 Y110.748 E3.88748
G1 X154.069 Y113.014 E3.92380
G1 X153.105 Y114.084 E3.94246
G1 X151.024 Y115.959 E3.97877
G1 X149.859 Y116.805 E3.99744
G1 X147.433 Y118.206 E4.03375
G1 X146.118 Y118.791 E4.05241
G1 X143.453 Y119.657 E4.08873
G1 X142.045 Y119.956 E4.10739
G1 X138.539 Y120.287 E4.15304
G1 X44.019 Y120.249 E5.37825
G1 X41.233 Y119.956 E5.41457
G1 X39.825 Y119.657 E5.43323
G1 X37.161 Y118.791 E5.46954
G1 X35.845 Y118.206 E5.48821
G1 X33.419 Y116.805 E5.52452
G1 X32.255 Y115.959 E5.54318
G1 X30.173 Y114.084 E5.57949
G1 X29.209 Y113.014 E5.59816
G1 X27.563 Y110.748 E5.63447
G1 X26.529 Y108.650 E5.66479
G1 X26.247 Y106.700 E5.69033
G1 X26.247 Y93.300 E5.86402
G1 X26.645 Y90.995 E5.89434
G1 X27.563 Y89.252 E5.91988
G1 X29.209 Y86.986 E5.95619
G1 X30.173 Y85.916 E5.97486
G1 X32.255 Y84.041 E6.01117
G1 X33.419 Y83.195 E6.02983
G1 X35.845 Y81.794 E6.06614
G1 X36.255 Y81.612 E6.07195
G1 X36.375 Y81.881 F9000.000
G1 X37.252 Y81.490 E6.08440 F1800.000
G1 X39.916 Y80.624 E6.12072
G1 X41.264 Y80.338 E6.13858
G1 X43.946 Y80.056 E6.17353
G1 X44.739 Y80.009 E6.18383
G1 X139.228 Y80.045 E7.40865
G1 X142.014 Y80.338 E7.44497 F1800.000
G1 X143.362 Y80.624 E7.46283
G1 X146.026 Y81.490 E7.49914
G1 X147.285 Y82.050 E7.51700
G1 X149.711 Y83.451 E7.55332
G1 X150.826 Y84.261 E7.57118
G1 X152.908 Y86.135 E7.60749
G1 X153.830 Y87.159 E7.62535
G1 X155.476 Y89.426 E7.66166
G1 X156.165 Y90.619 E7.67952
G1 X157.305 Y93.178 E7.71584
G1 X157.730 Y94.489 E7.73370
G1 X158.313 Y97.229 E7.77001
G1 X158.457 Y98.599 E7.78787
G1 X158.457 Y101.401 E7.82419
G1 X158.313 Y102.771 E7.84205
G1 X157.730 Y105.511 E7.87836
G1 X157.305 Y106.822 E7.89622
G1 X156.165 Y109.381 E7.93254
G1 X155.476 Y110.574 E7.95040
G1 X153.830 Y112.841 E7.98671
G1 X152.908 Y113.865 E8.00457
G1 X150.826 Y115.739 E8.04089
G1 X149.711 Y116.549 E8.05875
G1 X147.285 Y117.950 E8.09506
G1 X146.026 Y118.510 E8.11292
G1 X143.362 Y119.376 E8.14923
G1 X142.014 Y119.662 E8.16710
G1 X138.539 Y119.991 E8.21234
G1 X44.050 Y119.955 E9.43716
G1 X41.264 Y119.662 E9.47347
G1 X39.916 Y119.376 E9.49134
G1 X37.252 Y118.510 E9.52765
G1 X35.993 Y117.950 E9.54551
G1 X33.567 Y116.549 E9.58183
G1 X32.452 Y115.739 E9.59969
G1 X30.371 Y113.865 E9.63600
G1 X29.449 Y112.841 E9.65386
G1 X27.802 Y110.574 E9.69017
G1 X26.799 Y108.518 E9.71983
G1 X26.543 Y106.700 E9.74363
G1 X26.543 Y93.300 E9.91733
G1 X26.940 Y91.047 E9.94698
G1 X27.802 Y89.426 E9.97078
G1 X29.449 Y87.159 E10.00709
G1 X30.371 Y86.135 E10.02495
G1 X32.452 Y84.261 E10.06127
G1 X33.567 Y83.451 E10.07913
G1 X35.993 Y82.050 E10.11544
G1 X36.306 Y81.911 E10.11988
G1 X36.426 Y82.180 F9000.000
G1 X37.343 Y81.771 E10.13290 F1800.000
G1 X40.008 Y80.905 E10.16922
G1 X41.295 Y80.632 E10.18628
G1 X43.977 Y80.350 E10.22123
G1 X44.739 Y80.304 E10.23113
G1 X139.197 Y80.339 E11.45555
G1 X141.983 Y80.632 E11.49186 F1800.000
G1 X143.271 Y80.905 E11.50892
G1 X145.935 Y81.771 E11.54524
G1 X147.137 Y82.306 E11.56230
G1 X149.563 Y83.707 E11.59861
G1 X150.628 Y84.481 E11.61567
G1 X152.710 Y86.355 E11.65198
G1 X153.590 Y87.333 E11.66904
G1 X155.237 Y89.600 E11.70535
G1 X155.895 Y90.739 E11.72241
G1 X157.035 Y93.298 E11.75873
G1 X157.441 Y94.550 E11.77579
G1 X158.024 Y97.290 E11.81210
G1 X158.161 Y98.599 E11.82916
G1 X158.161 Y101.401 E11.86547
G1 X158.024 Y102.710 E11.88253
G1 X157.441 Y105.450 E11.91885
G1 X157.035 Y106.702 E11.93591
G1 X155.895 Y109.261 E11.97222
G1 X155.237 Y110.400 E11.98928
G1 X153.590 Y112.667 E12.02560
G1 X152.710 Y113.645 E12.04265
G1 X150.628 Y115.519 E12.07897
G1 X149.563 Y116.293 E12.09603
G1 X147.137 Y117.694 E12.13234
G1 X145.935 Y118.229 E12.14940
G1 X143.271 Y119.095 E12.18571
G1 X141.983 Y119.368 E12.20278
G1 X138.539 Y119.696 E12.24762
G1 X44.081 Y119.661 E13.47204
G1 X41.295 Y119.368 E13.50835
G1 X40.008 Y119.095 E13.52541
G1 X37.343 Y118.229 E13.56173
G1 X36.141 Y117.694 E13.57879
G1 X33.715 Y116.293 E13.61510
G1 X32.650 Y115.519 E13.63216
G1 X30.568 Y113.645 E13.66847
G1 X29.688 Y112.667 E13.68553
G1 X28.041 Y110.400 E13.72185
G1 X27.069 Y108.388 E13.75082
G1 X26.839 Y106.700 E13.77290
G1 X26.839 Y93.300 E13.94660
G1 X27.236 Y91.100 E13.97557
G1 X28.041 Y89.600 E13.99765
G1 X29.688 Y87.333 E14.03396
G1 X30.568 Y86.355 E14.05102
G1 X32.650 Y84.481 E14.08734
G1 X33.715 Y83.707 E14.10440
G1 X36.141 Y82.306 E14.14071
G1 X36.357 Y82.210 E14.14378
G1 F2400.000 E12.14378
G1 Z0.600 F9000.000
G92 E0
G1 X39.362 Y87.924 F9000.000
G1 Z0.300 F9000.000
G1 E2.00000 F2400.000
G1 X41.991 Y87.070 E2.03582 F1800.000
G1 X44.739 Y86.781 E2.07165
G1 X47.487 Y87.070 E2.10747
G1 X50.116 Y87.924 E2.14329
G1 X52.509 Y89.306 E2.17911
G1 X54.563 Y91.155 E2.21493
G1 X56.252 Y93.480 E2.25219
G1 X127.026 Y93.480 E3.16960
G1 X128.715 Y91.155 E3.20686
G1 X130.769 Y89.306 E3.24268
G1 X133.162 Y87.924 E3.27850
G1 X135.791 Y87.070 E3.31433
G1 X138.539 Y86.781 E3.35015
G1 X141.202 Y87.061 E3.38485
G1 X141.287 Y87.070 E3.38597 F1800.000
G1 X143.916 Y87.924 E3.42179
G1 X146.309 Y89.306 E3.45762
G1 X148.363 Y91.155 E3.49344
G1 X149.987 Y93.390 E3.52926
G1 X151.111 Y95.915 E3.56508
G1 X151.686 Y98.618 E3.60091
G1 X151.686 Y101.382 E3.63673
G1 X151.111 Y104.085 E3.67255
G1 X149.987 Y106.610 E3.70837
G1 X148.363 Y108.845 E3.74420
G1 X148.299 Y108.903 E3.74531
G1 X146.309 Y110.694 E3.78002
G1 X143.916 Y112.076 E3.81584
G1 X141.287 Y112.930 E3.85166
G1 X138.539 Y113.219 E3.88748
G1 X135.791 Y112.930 E3.92331
G1 X133.162 Y112.076 E3.95913
G1 X130.769 Y110.694 E3.99495
G1 X128.715 Y108.845 E4.03077
G1 X127.026 Y106.520 E4.06803
G1 X56.252 Y106.520 E4.98544
G1 X54.563 Y108.845 E5.02270
G1 X52.509 Y110.694 E5.05852
G1 X50.116 Y112.076 E5.09434
G1 X47.487 Y112.930 E5.13017
G1 X44.739 Y113.219 E5.16599
G1 X41.991 Y112.930 E5.20181
G1 X39.362 Y112.076 E5.23763
G1 X36.969 Y110.694 E5.27346
G1 X34.915 Y108.845 E5.30928
G1 X33.488 Y106.880 E5.34077
G1 X45.288 Y106.880 E5.49373
G1 X45.343 Y106.912 E5.49455
G1 X45.361 Y106.880 E5.49502
G1 X45.398 Y106.880 E5.49550
G1 X45.398 Y106.817 E5.49631
G1 X49.297 Y100.063 E5.59740
G1 X49.352 Y100.032 E5.59822
G1 X49.333 Y100.000 E5.59870
G1 X49.352 Y99.968 E5.59917
G1 X49.297 Y99.937 E5.59999
G1 X45.398 Y93.183 E5.70108
G1 X45.398 Y93.120 E5.70189
G1 X45.361 Y93.120 E5.70237
G1 X45.343 Y93.088 E5.70284
G1 X45.288 Y93.120 E5.70366
G1 X33.488 Y93.120 E5.85662
G1 X34.915 Y91.155 E5.88811
G1 X36.969 Y89.306 E5.92394
G1 X39.297 Y87.961 E5.95878
G1 F2400.000 E3.95878
G1 Z0.600 F9000.000
G92 E0
G1 X141.240 Y87.138 F9000.000
G1 X141.217 Y87.360 F9000.000
G1 Z0.300 F9000.000
G1 E2.00000 F2400.000
G1 X143.795 Y88.195 E2.03513 F1800.000
G1 X146.134 Y89.546 E2.07015
G1 X148.142 Y91.354 E2.10516
G1 X149.730 Y93.539 E2.14018
G1 X150.828 Y96.007 E2.17520
G1 X151.390 Y98.649 E2.21021
G1 X151.390 Y101.351 E2.24523
G1 X150.828 Y103.993 E2.28025
G1 X149.697 Y106.505 E2.31596
G1 X148.142 Y108.646 E2.35027
G1 X146.134 Y110.454 E2.38528
G1 X143.795 Y111.805 E2.42030
G1 X141.226 Y112.639 E2.45532
G1 X138.539 Y112.922 E2.49033
G1 X135.852 Y112.639 E2.52535
G1 X133.283 Y111.805 E2.56037
G1 X130.944 Y110.454 E2.59538
G1 X128.936 Y108.646 E2.63040
G1 X127.177 Y106.224 E2.66921
G1 X56.101 Y106.224 E3.59052
G1 X54.342 Y108.646 E3.62933
G1 X52.334 Y110.454 E3.66435
G1 X49.995 Y111.805 E3.69936
G1 X47.426 Y112.639 E3.73438
G1 X44.739 Y112.922 E3.76940
G1 X42.052 Y112.639 E3.80441
G1 X39.483 Y111.805 E3.83943
G1 X37.144 Y110.454 E3.87445
G1 X35.136 Y108.646 E3.90946
G1 X34.068 Y107.176 E3.93303
G1 X45.209 Y107.176 E4.07745
G1 X45.451 Y107.315 E4.08107
G1 X45.532 Y107.176 E4.08317
G1 X45.693 Y107.176 E4.08526
G1 X45.693 Y106.896 E4.08888
G1 X49.513 Y100.280 E4.18791
G1 X49.756 Y100.140 E4.19154
G1 X49.675 Y100.000 E4.19364
G1 X49.756 Y99.860 E4.19573
G1 X49.513 Y99.720 E4.19936
G1 X45.693 Y93.104 E4.29839
G1 X45.693 Y92.824 E4.30201
G1 X45.532 Y92.824 E4.30410
G1 X45.451 Y92.685 E4.30620
G1 X45.209 Y92.824 E4.30982
G1 X34.068 Y92.824 E4.45424
G1 X35.136 Y91.354 E4.47781
G1 X37.144 Y89.546 E4.51282
G1 X39.483 Y88.195 E4.54784
G1 X42.052 Y87.361 E4.58286
G1 X44.739 Y87.078 E4.61787
G1 X47.426 Y87.361 E4.65289
G1 X49.995 Y88.195 E4.68791
G1 X52.334 Y89.546 E4.72292
G1 X54.342 Y91.354 E4.75794
G1 X56.101 Y93.776 E4.79675
G1 X127.177 Y93.776 E5.71806
G1 X128.936 Y91.354 E5.75687
G1 X130.944 Y89.546 E5.79189
G1 X133.283 Y88.195 E5.82690
G1 X135.852 Y87.361 E5.86192
G1 X138.429 Y87.090 E5.89550
G1 X138.539 Y87.078 E5.89694 F1800.000
G1 X141.142 Y87.352 E5.93087
G1 F2400.000 E3.93087
G1 Z0.600 F9000.000
G92 E0
G1 X141.116 Y87.876 F9000.000
G1 X143.580 Y88.677 F9000.000
G1 X145.824 Y89.973 F9000.000
G1 X147.750 Y91.706 F9000.000
G1 X149.273 Y93.803 F9000.000
G1 X150.327 Y96.170 F9000.000
G1 X150.866 Y98.704 F9000.000
G1 X150.866 Y101.296 F9000.000
G1 X150.327 Y103.830 F9000.000
G1 X149.273 Y106.197 F9000.000
G1 X147.750 Y108.294 F9000.000
G1 X145.824 Y110.027 F9000.000
G1 X143.580 Y111.323 F9000.000
G1 X143.674 Y111.533 F9000.000
G1 Z0.300 F9000.000
G1 E2.00000 F2400.000
G1 X141.164 Y112.349 E2.03421 F1800.000
G1 X138.539 Y112.625 E2.06842
G1 X135.914 Y112.349 E2.10263
G1 X133.404 Y111.533 E2.13685
G1 X131.119 Y110.213 E2.17106
G1 X129.157 Y108.447 E2.20527
G1 X127.327 Y105.929 E2.24562
G1 X55.951 Y105.929 E3.17085
G1 X54.121 Y108.447 E3.21120
G1 X52.160 Y110.213 E3.24541
G1 X49.874 Y111.533 E3.27962
G1 X47.364 Y112.349 E3.31384
G1 X44.739 Y112.625 E3.34805
G1 X42.114 Y112.349 E3.38226
G1 X39.604 Y111.533 E3.41647
G1 X37.319 Y110.213 E3.45068
G1 X35.357 Y108.447 E3.48489
G1 X34.648 Y107.471 E3.50053
G1 X45.130 Y107.471 E3.63641
G1 X45.559 Y107.719 E3.64284
G1 X45.703 Y107.471 E3.64655
G1 X45.989 Y107.471 E3.65026
G1 X45.989 Y106.975 E3.65669
G1 X49.730 Y100.496 E3.75367
G1 X50.160 Y100.248 E3.76010
G1 X50.016 Y100.000 E3.76382
G1 X50.160 Y99.752 E3.76753
G1 X49.730 Y99.504 E3.77396
G1 X45.989 Y93.025 E3.87094
G1 X45.989 Y92.529 E3.87737
G1 X45.703 Y92.529 E3.88108
G1 X45.559 Y92.281 E3.88480
G1 X45.130 Y92.529 E3.89122
G1 X34.648 Y92.529 E4.02710
G1 X35.357 Y91.553 E4.04274
G1 X37.319 Y89.787 E4.07695
G1 X39.604 Y88.467 E4.11116
G1 X42.114 Y87.651 E4.14537
G1 X44.739 Y87.375 E4.17958
G1 X47.364 Y87.651 E4.21380
G1 X49.874 Y88.467 E4.24801
G1 X52.160 Y89.787 E4.28222
G1 X54.121 Y91.553 E4.31643
G1 X55.951 Y94.071 E4.35678
G1 X127.327 Y94.071 E5.28201
G1 X129.157 Y91.553 E5.32236
G1 X131.119 Y89.787 E5.35657
G1 X133.404 Y88.467 E5.39079
G1 X135.914 Y87.651 E5.42500
G1 X138.539 Y87.375 E5.45921
G1 X141.140 Y87.649 E5.49311
G1 X143.674 Y88.467 E5.52762 F1800.000
G1 X145.960 Y89.787 E5.56184
G1 X147.921 Y91.553 E5.59605
G1 X149.472 Y93.688 E5.63026
G1 X150.546 Y96.099 E5.66447
G1 X151.094 Y98.680 E5.69868
G1 X151.094 Y101.320 E5.73289
G1 X150.546 Y103.901 E5.76710
G1 X149.472 Y106.312 E5.80132
G1 X147.921 Y108.447 E5.83553
G1 X145.960 Y110.213 E5.86974
G1 X143.739 Y111.496 E5.90298
G1 F2400.000 E3.90298
G1 Z0.600 F9000.000
G92 E0
G1 X142.493 Y106.912 F9000.000
G1 Z0.300 F9000.000
G1 E2.00000 F2400.000
G1 X142.438 Y106.880 E2.00082 F1800.000
G1 X134.640 Y106.880 E2.10191
G1 X134.585 Y106.912 E2.10273
G1 X134.567 Y106.880 E2.10320
G1 X134.530 Y106.880 E2.10367
G1 X134.530 Y106.817 E2.10449
G1 X130.631 Y100.063 E2.20558
G1 X130.576 Y100.032 E2.20640
G1 X130.595 Y100.000 E2.20687
G1 X130.576 Y99.968 E2.20734
G1 X130.631 Y99.937 E2.20816
G1 X134.530 Y93.183 E2.30925
G1 X134.530 Y93.120 E2.31007
G1 X134.567 Y93.120 E2.31054
G1 X134.585 Y93.088 E2.31101
G1 X134.640 Y93.120 E2.31183
G1 X142.438 Y93.120 E2.41292 F1800.000
G1 X142.493 Y93.088 E2.41374
G1 X142.511 Y93.120 E2.41421
G1 X142.548 Y93.120 E2.41468
G1 X142.548 Y93.183 E2.41550
G1 X146.447 Y99.937 E2.51659
G1 X146.502 Y99.968 E2.51741
G1 X146.483 Y100.000 E2.51788
G1 X146.502 Y100.032 E2.51836
G1 X146.447 Y100.063 E2.51918
G1 X142.548 Y106.817 E2.62027
G1 X142.548 Y106.878 E2.62106
G1 F2400.000 E0.62106
G1 Z0.600 F9000.000
G92 E0
G1 X143.368 Y107.037 F9000.000
G1 X147.047 Y100.664 F9000.000
G1 X147.622 Y100.332 F9000.000
G1 X147.430 Y100.000 F9000.000
G1 X147.622 Y99.668 F9000.000
G1 X147.047 Y99.336 F9000.000
G1 X143.368 Y92.963 F9000.000
G1 X143.368 Y92.300 F9000.000
G1 X142.985 Y92.300 F9000.000
G1 X142.793 Y91.968 F9000.000
G1 X142.219 Y92.300 F9000.000
G1 X134.859 Y92.300 F9000.000
G1 X134.553 Y92.628 F9000.000
G1 X134.509 Y92.703 F9000.000
G1 Z0.300 F9000.000
G1 E2.00000 F2400.000
G1 X134.719 Y92.824 E2.00314 F1800.000
G1 X142.359 Y92.824 E2.10218
G1 X142.601 Y92.685 E2.10580
G1 X142.682 Y92.824 E2.10789
G1 X142.843 Y92.824 E2.10998
G1 X142.843 Y93.104 E2.11361
G1 X146.663 Y99.720 E2.21264
G1 X146.906 Y99.860 E2.21627
G1 X146.825 Y100.000 E2.21836
G1 X146.906 Y100.140 E2.22046
G1 X146.663 Y100.280 E2.22408
G1 X142.843 Y106.896 E2.32312
G1 X142.843 Y107.176 E2.32674
G1 X142.682 Y107.176 E2.32883
G1 X142.601 Y107.315 E2.33092
G1 X142.359 Y107.176 E2.33455
G1 X134.719 Y107.176 E2.43358
G1 X134.477 Y107.315 E2.43721
G1 X134.396 Y107.176 E2.43930
G1 X134.235 Y107.176 E2.44139
G1 X134.235 Y106.896 E2.44501
G1 X130.415 Y100.280 E2.54405
G1 X130.172 Y100.140 E2.54767
G1 X130.253 Y100.000 E2.54977
G1 X130.172 Y99.860 E2.55186
G1 X130.415 Y99.720 E2.55549
G1 X134.235 Y93.104 E2.65452
G1 X134.235 Y92.824 E2.65815
G1 X134.396 Y92.824 E2.66024
G1 X134.458 Y92.717 E2.66184 F1800.000
G1 X134.226 Y92.529 F9000.000
G1 X134.369 Y92.281 E2.66555 F1800.000
G1 X134.798 Y92.529 E2.67198
G1 X142.280 Y92.529 E2.76897 F1800.000
G1 X142.709 Y92.281 E2.77539
G1 X142.853 Y92.529 E2.77911
G1 X143.139 Y92.529 E2.78282
G1 X143.139 Y93.025 E2.78925
G1 X146.880 Y99.504 E2.88623
G1 X147.310 Y99.752 E2.89266
G1 X147.166 Y100.000 E2.89637
G1 X147.310 Y100.248 E2.90009
G1 X146.880 Y100.496 E2.90652
G1 X143.139 Y106.975 E3.00350
G1 X143.139 Y107.471 E3.00993
G1 X142.853 Y107.471 E3.01364
G1 X142.709 Y107.719 E3.01735
G1 X142.280 Y107.471 E3.02378
G1 X134.798 Y107.471 E3.12077
G1 X134.369 Y107.719 E3.12719
G1 X134.226 Y107.471 E3.13091
G1 X133.939 Y107.471 E3.13462
G1 X133.939 Y106.975 E3.14105
G1 X130.198 Y100.496 E3.23803
G1 X129.769 Y100.248 E3.24446
G1 X129.912 Y100.000 E3.24818
G1 X129.769 Y99.752 E3.25189
G1 X130.198 Y99.504 E3.25833
G1 X133.939 Y93.025 E3.35531
G1 X133.939 Y92.529 E3.36173
G1 X134.151 Y92.529 E3.36447
G1 F2400.000 E1.36447
G1 Z0.600 F9000.000
G92 E0
G1 X138.229 Y87.603 F9000.000
G1 Z0.300 F9000.000
G1 E2.00000 F2400.000
G1 X142.692 Y92.066 E2.08182 F1800.000
G1 X142.427 Y92.220 E2.08579
G1 X137.850 Y87.643 E2.16968
G1 X137.472 Y87.683 E2.17461
G1 X142.123 Y92.334 E2.25988
G1 X141.705 Y92.334 E2.26531
G1 X137.093 Y87.723 E2.34985
G1 X136.715 Y87.763 E2.35478
G1 X141.287 Y92.334 E2.43859
G1 X140.868 Y92.334 E2.44401
G1 X136.336 Y87.802 E2.52709
G1 X135.958 Y87.842 E2.53203
G1 X140.450 Y92.334 E2.61438
G1 X140.032 Y92.334 E2.61980
G1 X135.641 Y87.944 E2.70028
