; generated by Slic3r 1.2.0 on 2014-10-23 at 10:47:29

; external perimeters extrusion width = 0.50mm
; perimeters extrusion width = 0.72mm
; infill extrusion width = 0.72mm
; solid infill extrusion width = 0.72mm
; top infill extrusion width = 0.72mm

G21 ; set units to millimeters
M190 S65 ; wait for bed temperature to be reached
M104 S180 ; set temperature
G28 ; home all axes
M109 S180 ; wait for temperature to be reached
G90 ; use absolute coordinates
G92 E0
M82 ; use absolute distances for extrusion
M106 S89
G1 F2400.000 E-2.00000
G1 Z0.600 F9000.000
G92 E0
G1 X82.427 Y69.901 F9000.000
G1 Z0.300 F9000.000
G1 E2.00000 F2400.000
G1 X84.280 Y68.196 E2.02267 F2400.000
G1 X85.326 Y67.512 E2.03391
G1 X87.581 Y66.514 E2.05610
G1 X89.462 Y66.267 E2.07318
G1 X95.362 Y66.231 E2.12628
G1 X98.482 Y66.875 E2.15495
G1 X98.760 Y66.996 E2.15768 F2400.000
G1 X100.867 Y68.373 E2.18034
G1 X102.296 Y69.689 E2.19782
G1 X103.843 Y71.676 E2.22048
G1 X104.768 Y73.384 E2.23796
G1 X105.585 Y75.766 E2.26062
G1 X105.905 Y77.681 E2.27810
G1 X106.009 Y78.941 E2.28948
G1 X106.009 Y120.241 E2.66118
G1 X105.905 Y121.500 E2.67255
G1 X105.585 Y123.415 E2.69003
G1 X104.768 Y125.797 E2.71269
G1 X103.843 Y127.505 E2.73017
G1 X102.296 Y129.492 E2.75283
G1 X100.867 Y130.808 E2.77031
G1 X98.760 Y132.185 E2.79297
G1 X96.981 Y132.965 E2.81045
G1 X94.539 Y133.583 E2.83312
G1 X92.604 Y133.744 E2.85060
G1 X90.095 Y133.536 E2.87326
G1 X88.212 Y133.059 E2.89074
G1 X85.906 Y132.047 E2.91340
G1 X84.280 Y130.985 E2.93088
G1 X82.427 Y129.280 E2.95354
G1 X81.234 Y127.747 E2.97102
G1 X80.036 Y125.532 E2.99369
G1 X79.405 Y123.695 E3.01117
G1 X78.991 Y121.212 E3.03383
G1 X78.991 Y77.969 E3.42301
G1 X79.405 Y75.486 E3.44567
G1 X80.036 Y73.649 E3.46315
G1 X81.234 Y71.434 E3.48581
G1 X82.381 Y69.961 E3.50262
G1 X82.567 Y70.105 F9000.000
G1 X84.409 Y68.393 E3.52525 F2400.000
G1 X85.455 Y67.710 E3.53650
G1 X87.677 Y66.733 E3.55834
G1 X89.464 Y66.503 E3.57455
G1 X95.364 Y66.466 E3.62766
G1 X98.388 Y67.090 E3.65545
G1 X98.665 Y67.212 E3.65817 F2400.000
G1 X100.708 Y68.547 E3.68013
G1 X102.137 Y69.862 E3.69761
G1 X103.636 Y71.788 E3.71958
G1 X104.560 Y73.496 E3.73706
G1 X105.353 Y75.805 E3.75902
G1 X105.672 Y77.720 E3.77650
G1 X105.773 Y78.941 E3.78752
G1 X105.773 Y120.241 E4.15922
G1 X105.672 Y121.461 E4.17024
G1 X105.353 Y123.376 E4.18772
G1 X104.560 Y125.685 E4.20969
G1 X103.636 Y127.393 E4.22717
G1 X102.137 Y129.319 E4.24913
G1 X100.708 Y130.634 E4.26661
G1 X98.665 Y131.969 E4.28858
G1 X96.886 Y132.749 E4.30606
G1 X94.520 Y133.348 E4.32803
G1 X92.584 Y133.509 E4.34550
G1 X90.153 Y133.307 E4.36746
G1 X88.270 Y132.831 E4.38494
G1 X86.035 Y131.850 E4.40691
G1 X84.409 Y130.788 E4.42439
G1 X82.613 Y129.135 E4.44636
G1 X81.420 Y127.602 E4.46384
G1 X80.259 Y125.456 E4.48580
G1 X79.628 Y123.619 E4.50328
G1 X79.227 Y121.212 E4.52525
G1 X79.227 Y77.969 E4.91442
G1 X79.628 Y75.562 E4.93639
G1 X80.259 Y73.725 E4.95387
G1 X81.420 Y71.579 E4.97583
G1 X82.521 Y70.164 E4.99196
G1 X82.707 Y70.309 F9000.000
G1 X82.799 Y70.191 E4.99331 F2400.000
G1 X84.538 Y68.590 E5.01458
G1 X85.584 Y67.907 E5.02583
G1 X87.773 Y66.952 E5.04732
G1 X89.465 Y66.738 E5.06267
G1 X95.365 Y66.702 E5.11577
G1 X98.293 Y67.306 E5.14268
G1 X98.571 Y67.428 E5.14541 F2400.000
G1 X100.548 Y68.720 E5.16667
G1 X101.977 Y70.035 E5.18415
G1 X103.429 Y71.900 E5.20542
G1 X104.353 Y73.609 E5.22290
G1 X105.120 Y75.843 E5.24416
G1 X105.538 Y78.941 E5.27229
G1 X105.440 Y121.422 E5.65463
G1 X105.120 Y123.338 E5.67211
G1 X104.353 Y125.572 E5.69337
G1 X103.429 Y127.281 E5.71085
G1 X101.977 Y129.146 E5.73212
G1 X100.548 Y130.461 E5.74960
G1 X98.570 Y131.753 E5.77087
G1 X96.792 Y132.533 E5.78835
G1 X94.501 Y133.114 E5.80962
G1 X92.565 Y133.274 E5.82710
G1 X90.211 Y133.079 E5.84836
G1 X88.328 Y132.602 E5.86584
G1 X86.164 Y131.653 E5.88711
G1 X84.538 Y130.591 E5.90459
G1 X82.799 Y128.990 E5.92585
G1 X81.606 Y127.457 E5.94333
G1 X80.482 Y125.379 E5.96460
G1 X79.851 Y123.542 E5.98208
G1 X79.462 Y121.212 E6.00334
G1 X79.462 Y77.969 E6.39252
G1 X79.851 Y75.639 E6.41379
G1 X80.482 Y73.802 E6.43127
G1 X81.606 Y71.724 E6.45254
G1 X82.661 Y70.368 E6.46799
G1 X82.847 Y70.513 F9000.000
G1 X82.985 Y70.336 E6.47002 F2400.000
G1 X84.667 Y68.788 E6.49059
G1 X85.713 Y68.104 E6.50183
G1 X87.868 Y67.171 E6.52297
G1 X89.467 Y66.974 E6.53747
G1 X95.367 Y66.937 E6.59057
G1 X98.199 Y67.522 E6.61659
G1 X98.476 Y67.644 E6.61932 F2400.000
G1 X100.389 Y68.893 E6.63988
G1 X101.818 Y70.209 E6.65736
G1 X103.221 Y72.012 E6.67793
G1 X104.146 Y73.721 E6.69541
G1 X104.888 Y75.882 E6.71598
G1 X105.302 Y78.941 E6.74376
G1 X105.208 Y121.383 E7.12574
G1 X104.888 Y123.299 E7.14322
G1 X104.146 Y125.460 E7.16379
G1 X103.221 Y127.169 E7.18127
G1 X101.818 Y128.972 E7.20184
G1 X100.389 Y130.288 E7.21932
G1 X98.476 Y131.538 E7.23989
G1 X96.697 Y132.318 E7.25737
G1 X94.481 Y132.879 E7.27794
G1 X92.546 Y133.039 E7.29542
G1 X90.269 Y132.850 E7.31598
G1 X88.386 Y132.374 E7.33346
G1 X86.293 Y131.456 E7.35403
G1 X84.667 Y130.393 E7.37151
G1 X82.985 Y128.845 E7.39208
G1 X81.792 Y127.313 E7.40956
G1 X80.705 Y125.303 E7.43013
G1 X80.074 Y123.466 E7.44761
G1 X79.698 Y121.212 E7.46818
G1 X79.698 Y77.969 E7.85736
G1 X80.074 Y75.715 E7.87793
G1 X80.705 Y73.878 E7.89541
G1 X81.792 Y71.868 E7.91598
G1 X82.801 Y70.572 E7.93076
G1 X82.987 Y70.717 F9000.000
G1 X83.171 Y70.480 E7.93346 F2400.000
G1 X84.796 Y68.985 E7.95333
G1 X85.842 Y68.301 E7.96457
G1 X87.962 Y67.391 E7.98534
G1 X89.468 Y67.210 E7.99899
G1 X95.368 Y67.173 E8.05210
G1 X98.104 Y67.738 E8.07724
G1 X98.381 Y67.859 E8.07996 F2400.000
G1 X100.229 Y69.067 E8.09983
G1 X101.658 Y70.382 E8.11731
G1 X103.014 Y72.125 E8.13718
G1 X103.939 Y73.833 E8.15466
G1 X104.655 Y75.921 E8.17453
G1 X105.067 Y78.941 E8.20196
G1 X104.975 Y121.344 E8.58360
G1 X104.655 Y123.260 E8.60107
G1 X103.939 Y125.348 E8.62094
G1 X103.014 Y127.056 E8.63843
G1 X101.658 Y128.799 E8.65830
G1 X100.229 Y130.114 E8.67578
G1 X98.381 Y131.322 E8.69565
G1 X96.602 Y132.102 E8.71313
G1 X94.462 Y132.644 E8.73300
G1 X92.526 Y132.804 E8.75048
G1 X90.326 Y132.622 E8.77034
G1 X88.444 Y132.145 E8.78782
G1 X86.421 Y131.258 E8.80770
G1 X84.795 Y130.196 E8.82518
G1 X83.171 Y128.701 E8.84505
G1 X81.978 Y127.168 E8.86253
G1 X80.927 Y125.226 E8.88240
G1 X80.297 Y123.389 E8.89988
G1 X79.933 Y121.212 E8.91975
G1 X79.933 Y77.969 E9.30893
G1 X80.297 Y75.792 E9.32880
G1 X80.927 Y73.955 E9.34628
G1 X81.978 Y72.013 E9.36615
G1 X82.941 Y70.776 E9.38025
G1 X83.127 Y70.921 F9000.000
G1 X83.357 Y70.625 E9.38363 F2400.000
G1 X84.925 Y69.182 E9.40280
G1 X85.971 Y68.499 E9.41405
G1 X88.056 Y67.611 E9.43445
G1 X89.470 Y67.445 E9.44726
G1 X95.370 Y67.409 E9.50036
G1 X98.009 Y67.954 E9.52462
G1 X98.287 Y68.075 E9.52734 F2400.000
G1 X100.070 Y69.240 E9.54651
G1 X101.499 Y70.556 E9.56399
G1 X102.807 Y72.237 E9.58316
G1 X103.731 Y73.945 E9.60064
G1 X104.423 Y75.960 E9.61982
G1 X104.831 Y78.941 E9.64689
G1 X104.743 Y121.306 E10.02818
G1 X104.423 Y123.221 E10.04566
G1 X103.731 Y125.236 E10.06483
G1 X102.807 Y126.944 E10.08231
G1 X101.499 Y128.625 E10.10149
G1 X100.070 Y129.941 E10.11897
G1 X98.286 Y131.106 E10.13814
G1 X96.508 Y131.886 E10.15562
G1 X94.442 Y132.409 E10.17479
G1 X92.507 Y132.569 E10.19227
G1 X90.384 Y132.394 E10.21144
G1 X88.501 Y131.917 E10.22892
G1 X86.550 Y131.061 E10.24809
G1 X84.924 Y129.999 E10.26557
G1 X83.357 Y128.556 E10.28475
G1 X82.164 Y127.023 E10.30223
G1 X81.150 Y125.150 E10.32140
G1 X80.520 Y123.313 E10.33888
G1 X80.169 Y121.212 E10.35805
G1 X80.169 Y77.969 E10.74723
G1 X80.520 Y75.868 E10.76640
G1 X81.150 Y74.031 E10.78388
G1 X82.164 Y72.158 E10.80306
G1 X83.081 Y70.980 E10.81649
G1 X83.267 Y71.125 F9000.000
G1 X83.543 Y70.770 E10.82054 F2400.000
G1 X85.053 Y69.379 E10.83901
G1 X86.099 Y68.696 E10.85026
G1 X88.149 Y67.831 E10.87028
G1 X89.471 Y67.681 E10.88225
G1 X95.371 Y67.644 E10.93535
G1 X97.915 Y68.169 E10.95873
G1 X98.192 Y68.291 E10.96146 F2400.000
G1 X99.910 Y69.413 E10.97993
G1 X101.339 Y70.729 E10.99741
G1 X102.600 Y72.349 E11.01588
G1 X103.524 Y74.057 E11.03336
G1 X104.191 Y75.998 E11.05183
G1 X104.595 Y78.941 E11.07856
G1 X104.510 Y121.267 E11.45950
G1 X104.191 Y123.183 E11.47698
G1 X103.524 Y125.124 E11.49545
G1 X102.600 Y126.832 E11.51294
G1 X101.339 Y128.452 E11.53141
G1 X99.910 Y129.768 E11.54889
G1 X98.192 Y130.890 E11.56736
G1 X96.413 Y131.670 E11.58484
G1 X94.423 Y132.174 E11.60332
G1 X92.487 Y132.335 E11.62080
G1 X90.442 Y132.165 E11.63927
G1 X88.559 Y131.688 E11.65675
G1 X86.679 Y130.864 E11.67523
G1 X85.053 Y129.802 E11.69271
G1 X83.543 Y128.411 E11.71118
G1 X82.350 Y126.879 E11.72866
G1 X81.373 Y125.073 E11.74713
G1 X80.742 Y123.236 E11.76462
G1 X80.405 Y121.212 E11.78309
G1 X80.405 Y77.969 E12.17227
G1 X80.742 Y75.945 E12.19074
G1 X81.373 Y74.108 E12.20822
G1 X82.350 Y72.302 E12.22670
G1 X83.221 Y71.184 E12.23945
G1 F2400.000 E10.23945
G1 Z0.600 F9000.000
G92 E0
G1 X88.260 Y75.106 F9000.000
G1 Z0.300 F9000.000
G1 E2.00000 F2400.000
G1 X88.567 Y74.712 E2.00450 F2400.000
G1 X89.360 Y74.194 E2.01302
G1 X89.360 Y79.163 E2.05775
G1 X89.320 Y79.232 E2.05847
G1 X89.360 Y79.255 E2.05888
G1 X89.360 Y79.301 E2.05930
G1 X89.439 Y79.301 E2.06001
G1 X92.380 Y80.999 E2.09057
G1 X92.420 Y81.068 E2.09129
G1 X92.460 Y81.045 E2.09170
G1 X92.500 Y81.068 E2.09212
G1 X92.539 Y80.999 E2.09283
G1 X95.480 Y79.301 E2.12340
G1 X95.560 Y79.301 E2.12411
G1 X95.560 Y79.255 E2.12452
G1 X95.600 Y79.232 E2.12494
G1 X95.560 Y79.163 E2.12565
G1 X95.560 Y74.088 E2.17133
G1 X96.961 Y75.378 E2.18847
G1 X96.996 Y75.410 E2.18890 F2400.000
G1 X97.896 Y77.074 E2.20593
G1 X98.208 Y78.941 E2.22296
G1 X97.896 Y80.807 E2.23998
G1 X96.996 Y82.471 E2.25701
G1 X95.604 Y83.752 E2.27404
G1 X95.260 Y83.903 E2.27742
G1 X95.260 Y115.278 E2.55979
G1 X95.604 Y115.429 E2.56317
G1 X96.996 Y116.710 E2.58020
G1 X97.896 Y118.374 E2.59723
G1 X98.208 Y120.241 E2.61426
G1 X97.896 Y122.107 E2.63129
G1 X96.996 Y123.771 E2.64832
G1 X95.604 Y125.052 E2.66535
G1 X93.871 Y125.813 E2.68238
G1 X91.985 Y125.969 E2.69941
G1 X90.151 Y125.504 E2.71644
G1 X88.567 Y124.469 E2.73347
G1 X87.405 Y122.976 E2.75050
G1 X86.790 Y121.187 E2.76752
G1 X86.790 Y119.294 E2.78455
G1 X87.405 Y117.505 E2.80158
G1 X88.567 Y116.012 E2.81861
G1 X89.660 Y115.298 E2.83036
G1 X89.660 Y83.883 E3.11309
G1 X88.567 Y83.169 E3.12484
G1 X87.405 Y81.676 E3.14187
G1 X86.790 Y79.887 E3.15890
G1 X86.790 Y77.994 E3.17593
G1 X87.405 Y76.205 E3.19296
G1 X88.214 Y75.165 E3.20481
G1 F2400.000 E1.20481
G1 Z0.600 F9000.000
G92 E0
G1 X96.963 Y75.425 F9000.000
G1 X96.807 Y75.557 F9000.000
G1 Z0.300 F9000.000
G1 E2.00000 F2400.000
G1 X97.670 Y77.152 E2.01632 F2400.000
G1 X97.969 Y78.941 E2.03264
G1 X97.670 Y80.729 E2.04897
G1 X96.807 Y82.324 E2.06529
G1 X95.473 Y83.553 E2.08161
G1 X95.024 Y83.749 E2.08602
G1 X95.024 Y115.432 E2.37116
G1 X95.473 Y115.628 E2.37557
G1 X96.807 Y116.857 E2.39189
G1 X97.670 Y118.452 E2.40821
G1 X97.969 Y120.241 E2.42454
G1 X97.670 Y122.029 E2.44086
G1 X96.807 Y123.624 E2.45718
G1 X95.473 Y124.853 E2.47350
G1 X93.812 Y125.581 E2.48982
G1 X92.005 Y125.731 E2.50614
G1 X90.247 Y125.286 E2.52247
G1 X88.729 Y124.294 E2.53879
G1 X87.615 Y122.863 E2.55511
G1 X87.026 Y121.147 E2.57143
G1 X87.026 Y119.334 E2.58775
G1 X87.615 Y117.618 E2.60407
G1 X88.729 Y116.187 E2.62040
G1 X89.895 Y115.425 E2.63294
G1 X89.895 Y83.756 E2.91796
G1 X88.729 Y82.994 E2.93051
G1 X87.615 Y81.563 E2.94683
G1 X87.026 Y79.847 E2.96315
G1 X87.026 Y78.034 E2.97947
G1 X87.615 Y76.318 E2.99579
G1 X88.729 Y74.887 E3.01211
G1 X89.124 Y74.629 E3.01637
G1 X89.124 Y79.100 E3.05661
G1 X88.998 Y79.319 E3.05888
G1 X89.124 Y79.391 E3.06019
G1 X89.124 Y79.537 E3.06150
G1 X89.376 Y79.537 E3.06377
G1 X92.208 Y81.172 E3.09319
G1 X92.334 Y81.390 E3.09546
G1 X92.460 Y81.317 E3.09677
G1 X92.586 Y81.390 E3.09808
G1 X92.712 Y81.172 E3.10035
G1 X95.478 Y79.575 E3.12909
G1 X95.543 Y79.537 E3.12977
G1 X95.795 Y79.537 E3.13204
G1 X95.795 Y79.391 E3.13335
G1 X95.921 Y79.319 E3.13466
G1 X95.795 Y79.100 E3.13693
G1 X95.795 Y74.625 E3.17720 F2400.000
G1 X96.752 Y75.506 E3.18891
G1 F2400.000 E1.18891
G1 Z0.600 F9000.000
G92 E0
G1 X90.131 Y108.164 F9000.000
G1 Z0.300 F9000.000
G1 E2.00000 F2400.000
G1 X90.131 Y83.628 E2.22082 F2400.000
G1 X88.890 Y82.818 E2.23415
G1 X87.825 Y81.449 E2.24977
G1 X87.261 Y79.808 E2.26538
G1 X87.261 Y78.073 E2.28100
G1 X87.825 Y76.432 E2.29661
G1 X88.761 Y75.229 E2.31033
G1 X88.889 Y75.273 E2.31154
G1 X88.889 Y79.037 E2.34542
G1 X88.676 Y79.405 E2.34924
G1 X88.889 Y79.527 E2.35145
G1 X88.889 Y79.772 E2.35366
G1 X89.313 Y79.772 E2.35748
G1 X92.035 Y81.344 E2.38577
G1 X92.248 Y81.712 E2.38959
G1 X92.460 Y81.589 E2.39179
G1 X92.672 Y81.712 E2.39400
G1 X92.884 Y81.344 E2.39782
G1 X95.606 Y79.772 E2.42611
G1 X96.031 Y79.772 E2.42993
G1 X96.031 Y79.527 E2.43214
G1 X96.243 Y79.405 E2.43434
G1 X96.031 Y79.037 E2.43816
G1 X96.031 Y75.162 E2.47303
G1 X96.619 Y75.703 E2.48022
G1 X97.444 Y77.229 E2.49584 F2400.000
G1 X97.730 Y78.941 E2.51145
G1 X97.444 Y80.652 E2.52706
G1 X96.619 Y82.178 E2.54268
G1 X95.342 Y83.353 E2.55829
G1 X94.789 Y83.595 E2.56374
G1 X94.789 Y115.586 E2.85165
G1 X95.342 Y115.828 E2.85709
G1 X96.619 Y117.003 E2.87270
G1 X97.444 Y118.529 E2.88832
G1 X97.730 Y120.241 E2.90393
G1 X97.444 Y121.952 E2.91954
G1 X96.619 Y123.478 E2.93516
G1 X95.342 Y124.653 E2.95077
G1 X93.754 Y125.349 E2.96639
G1 X92.025 Y125.493 E2.98200
G1 X90.343 Y125.067 E2.99761
G1 X88.890 Y124.118 E3.01323
G1 X87.825 Y122.749 E3.02884
G1 X87.261 Y121.108 E3.04446
G1 X87.261 Y119.373 E3.06007
G1 X87.825 Y117.732 E3.07568
G1 X88.890 Y116.363 E3.09130
G1 X90.131 Y115.553 E3.10464
G1 X90.131 Y108.239 E3.17046
G1 F2400.000 E1.17046
G1 Z0.600 F9000.000
G92 E0
G1 X92.420 Y116.638 F9000.000
G1 Z0.300 F9000.000
G1 E2.00000 F2400.000
G1 X92.460 Y116.661 E2.00041 F2400.000
G1 X92.500 Y116.638 E2.00083 F2400.000
G1 X92.539 Y116.707 E2.00154
G1 X95.480 Y118.405 E2.03211
G1 X95.560 Y118.405 E2.03282
G1 X95.560 Y118.451 E2.03324
G1 X95.599 Y118.474 E2.03365
G1 X95.560 Y118.542 E2.03436
G1 X95.560 Y121.938 E2.06493
G1 X95.600 Y122.007 E2.06564
G1 X95.560 Y122.030 E2.06606
G1 X95.560 Y122.076 E2.06647
G1 X95.480 Y122.076 E2.06719
G1 X95.360 Y122.146 E2.06843
G1 X92.539 Y123.774 E2.09775
G1 X92.500 Y123.843 E2.09846
G1 X92.460 Y123.820 E2.09888
G1 X92.420 Y123.843 E2.09929
G1 X92.380 Y123.774 E2.10001
G1 X89.439 Y122.076 E2.13057
G1 X89.360 Y122.076 E2.13129
G1 X89.360 Y122.030 E2.13170
G1 X89.320 Y122.007 E2.13211
G1 X89.360 Y121.938 E2.13283
G1 X89.360 Y118.543 E2.16339
G1 X89.320 Y118.474 E2.16411
G1 X89.360 Y118.451 E2.16452
G1 X89.360 Y118.405 E2.16493
G1 X89.439 Y118.405 E2.16565
G1 X92.382 Y116.703 E2.19625
G1 X92.460 Y116.615 F9000.000
G1 X92.460 Y116.389 F9000.000
G1 X92.586 Y116.316 E2.19756 F2400.000
G1 X92.712 Y116.534 E2.19983
G1 X95.543 Y118.169 E2.22925
G1 X95.795 Y118.169 E2.23152
G1 X95.795 Y118.315 E2.23283
G1 X95.921 Y118.387 E2.23414
G1 X95.795 Y118.605 E2.23640
G1 X95.795 Y121.875 E2.26583
G1 X95.921 Y122.094 E2.26810
G1 X95.795 Y122.166 E2.26941
G1 X95.795 Y122.312 E2.27072
G1 X95.543 Y122.312 E2.27299
G1 X92.712 Y123.947 E2.30241
G1 X92.586 Y124.165 E2.30468
G1 X92.460 Y124.092 E2.30599
G1 X92.334 Y124.165 E2.30730
G1 X92.208 Y123.947 E2.30957
G1 X89.376 Y122.312 E2.33899
G1 X89.124 Y122.312 E2.34126
G1 X89.124 Y122.166 E2.34257
G1 X88.998 Y122.094 E2.34388
G1 X89.124 Y121.875 E2.34615
G1 X89.124 Y118.606 E2.37558
G1 X88.998 Y118.387 E2.37784
G1 X89.124 Y118.315 E2.37915
G1 X89.124 Y118.169 E2.38046
G1 X89.376 Y118.169 E2.38273
G1 X92.207 Y116.535 E2.41216
G1 X92.333 Y116.316 E2.41443 F2400.000
G1 X92.395 Y116.351 E2.41506
G1 X92.460 Y116.117 F9000.000
G1 X92.672 Y115.994 E2.41727 F2400.000
G1 X92.884 Y116.362 E2.42109
G1 X95.606 Y117.934 E2.44938
G1 X96.031 Y117.934 E2.45320
G1 X96.031 Y118.179 E2.45541
G1 X96.243 Y118.301 E2.45761
G1 X96.031 Y118.668 E2.46143
G1 X96.031 Y121.812 E2.48972
G1 X96.243 Y122.180 E2.49354
G1 X96.031 Y122.302 E2.49575
G1 X96.031 Y122.547 E2.49795
G1 X95.606 Y122.547 E2.50177
G1 X92.884 Y124.119 E2.53006
G1 X92.672 Y124.487 E2.53388
G1 X92.460 Y124.364 E2.53609
G1 X92.248 Y124.487 E2.53829
G1 X92.035 Y124.119 E2.54211
G1 X89.313 Y122.547 E2.57040
