; generated by Slic3r 1.2.0 on 2014-10-23 at 10:46:50

; external perimeters extrusion width = 0.50mm
; perimeters extrusion width = 0.72mm
; infill extrusion width = 0.72mm
; solid infill extrusion width = 0.72mm
; top infill extrusion width = 0.72mm

G21 ; set units to millimeters
M190 S65 ; wait for bed temperature to be reached
M104 S180 ; set temperature
G28 ; home all axes
M109 S180 ; wait for temperature to be reached
G90 ; use absolute coordinates
G92 E0
M82 ; use absolute distances for extrusion
M106 S89
G1 F2400.000 E-2.00000
G1 Z0.600 F9000.000
G92 E0
G1 X82.613 Y70.046 F9000.000
G1 Z0.300 F9000.000
G1 E2.00000 F2400.000
G1 X84.409 Y68.393 E2.02522 F2400.000
G1 X85.455 Y67.710 E2.03813
G1 X87.677 Y66.733 E2.06320
G1 X89.464 Y66.503 E2.08181
G1 X95.364 Y66.466 E2.14277
G1 X98.388 Y67.090 E2.17468
G1 X98.665 Y67.212 E2.17781 F2400.000
G1 X100.708 Y68.547 E2.20301
G1 X102.137 Y69.862 E2.22308
G1 X103.636 Y71.788 E2.24830
G1 X104.560 Y73.496 E2.26836
G1 X105.353 Y75.805 E2.29358
G1 X105.672 Y77.720 E2.31364
G1 X105.773 Y78.941 E2.32629
G1 X105.773 Y120.241 E2.75299
G1 X105.672 Y121.461 E2.76564
G1 X105.353 Y123.376 E2.78571
G1 X104.560 Y125.685 E2.81092
G1 X103.636 Y127.393 E2.83099
G1 X102.137 Y129.319 E2.85620
G1 X100.708 Y130.634 E2.87627
G1 X98.665 Y131.969 E2.90148
G1 X96.886 Y132.749 E2.92155
G1 X94.520 Y133.348 E2.94677
G1 X92.584 Y133.509 E2.96683
G1 X90.153 Y133.307 E2.99204
G1 X88.270 Y132.831 E3.01211
G1 X86.035 Y131.850 E3.03733
G1 X84.409 Y130.788 E3.05739
G1 X82.613 Y129.135 E3.08261
G1 X81.420 Y127.602 E3.10267
G1 X80.259 Y125.456 E3.12789
G1 X79.628 Y123.619 E3.14795
G1 X79.227 Y121.212 E3.17317
G1 X79.227 Y77.969 E3.61993
G1 X79.628 Y75.562 E3.64514
G1 X80.259 Y73.725 E3.66521
G1 X81.420 Y71.579 E3.69042
G1 X82.567 Y70.105 E3.70972
G1 X82.753 Y70.250 F9000.000
G1 X84.538 Y68.590 E3.73490 F2400.000
G1 X85.584 Y67.907 E3.74781
G1 X87.773 Y66.952 E3.77248
G1 X89.465 Y66.738 E3.79010
G1 X95.365 Y66.702 E3.85106
G1 X98.293 Y67.306 E3.88195
G1 X98.571 Y67.428 E3.88508 F2400.000
G1 X100.548 Y68.720 E3.90949
G1 X101.977 Y70.035 E3.92955
G1 X103.429 Y71.900 E3.95397
G1 X104.353 Y73.609 E3.97404
G1 X105.120 Y75.843 E3.99845
G1 X105.538 Y78.941 E4.03074
G1 X105.440 Y121.422 E4.46964
G1 X105.120 Y123.338 E4.48971
G1 X104.353 Y125.572 E4.51412
G1 X103.429 Y127.281 E4.53419
G1 X101.977 Y129.146 E4.55860
G1 X100.548 Y130.461 E4.57867
G1 X98.570 Y131.753 E4.60308
G1 X96.792 Y132.533 E4.62314
G1 X94.501 Y133.114 E4.64756
G1 X92.565 Y133.274 E4.66763
G1 X90.211 Y133.079 E4.69203
G1 X88.328 Y132.602 E4.71210
G1 X86.164 Y131.653 E4.73652
G1 X84.538 Y130.591 E4.75658
G1 X82.799 Y128.990 E4.78100
G1 X81.606 Y127.457 E4.80106
G1 X80.482 Y125.379 E4.82548
G1 X79.851 Y123.542 E4.84554
G1 X79.462 Y121.212 E4.86996
G1 X79.462 Y77.969 E5.31672
G1 X79.851 Y75.639 E5.34113
G1 X80.482 Y73.802 E5.36120
G1 X81.606 Y71.724 E5.38561
G1 X82.707 Y70.309 E5.40413
G1 X82.893 Y70.454 F9000.000
G1 X82.985 Y70.336 E5.40568 F2400.000
G1 X84.667 Y68.788 E5.42929
G1 X85.713 Y68.104 E5.44220
G1 X87.868 Y67.171 E5.46646
G1 X89.467 Y66.974 E5.48311
G1 X95.367 Y66.937 E5.54406
G1 X98.199 Y67.522 E5.57394
G1 X98.476 Y67.644 E5.57707 F2400.000
G1 X100.389 Y68.893 E5.60068
G1 X101.818 Y70.209 E5.62074
G1 X103.221 Y72.012 E5.64436
G1 X104.146 Y73.721 E5.66442
G1 X104.888 Y75.882 E5.68803
G1 X105.302 Y78.941 E5.71992
G1 X105.208 Y121.383 E6.15842
G1 X104.888 Y123.299 E6.17849
G1 X104.146 Y125.460 E6.20210
G1 X103.221 Y127.169 E6.22217
G1 X101.818 Y128.972 E6.24578
G1 X100.389 Y130.288 E6.26585
G1 X98.476 Y131.538 E6.28946
G1 X96.697 Y132.318 E6.30952
G1 X94.481 Y132.879 E6.33314
G1 X92.546 Y133.039 E6.35320
G1 X90.269 Y132.850 E6.37681
G1 X88.386 Y132.374 E6.39688
G1 X86.293 Y131.456 E6.42049
G1 X84.667 Y130.393 E6.44056
G1 X82.985 Y128.845 E6.46417
G1 X81.792 Y127.313 E6.48424
G1 X80.705 Y125.303 E6.50785
G1 X80.074 Y123.466 E6.52791
G1 X79.698 Y121.212 E6.55153
G1 X79.698 Y77.969 E6.99829
G1 X80.074 Y75.715 E7.02190
G1 X80.705 Y73.878 E7.04197
G1 X81.792 Y71.868 E7.06558
G1 X82.847 Y70.513 E7.08332
G1 X83.033 Y70.658 F9000.000
G1 X83.171 Y70.480 E7.08564 F2400.000
G1 X84.796 Y68.985 E7.10846
G1 X85.842 Y68.301 E7.12137
G1 X87.962 Y67.391 E7.14521
G1 X89.468 Y67.210 E7.16088
G1 X95.368 Y67.173 E7.22184
G1 X98.104 Y67.738 E7.25070
G1 X98.381 Y67.859 E7.25383 F2400.000
G1 X100.229 Y69.067 E7.27663
G1 X101.658 Y70.382 E7.29670
G1 X103.014 Y72.125 E7.31951
G1 X103.939 Y73.833 E7.33958
G1 X104.655 Y75.921 E7.36239
G1 X105.067 Y78.941 E7.39387
G1 X104.975 Y121.344 E7.83198
G1 X104.655 Y123.260 E7.85204
G1 X103.939 Y125.348 E7.87485
G1 X103.014 Y127.056 E7.89492
G1 X101.658 Y128.799 E7.91773
G1 X100.229 Y130.114 E7.93780
G1 X98.381 Y131.322 E7.96061
G1 X96.602 Y132.102 E7.98067
G1 X94.462 Y132.644 E8.00349
G1 X92.526 Y132.804 E8.02355
G1 X90.326 Y132.622 E8.04636
G1 X88.444 Y132.145 E8.06642
G1 X86.421 Y131.258 E8.08924
G1 X84.795 Y130.196 E8.10930
G1 X83.171 Y128.701 E8.13211
G1 X81.978 Y127.168 E8.15218
G1 X80.927 Y125.226 E8.17499
G1 X80.297 Y123.389 E8.19506
G1 X79.933 Y121.212 E8.21787
G1 X79.933 Y77.969 E8.66463
G1 X80.297 Y75.792 E8.68744
G1 X80.927 Y73.955 E8.70751
G1 X81.978 Y72.013 E8.73032
G1 X82.987 Y70.717 E8.74728
G1 X83.173 Y70.862 F9000.000
G1 X83.357 Y70.625 E8.75038 F2400.000
G1 X84.925 Y69.182 E8.77240
G1 X85.971 Y68.499 E8.78530
G1 X88.056 Y67.611 E8.80872
G1 X89.470 Y67.445 E8.82343
G1 X95.370 Y67.409 E8.88438
G1 X98.009 Y67.954 E8.91223
G1 X98.287 Y68.075 E8.91536 F2400.000
G1 X100.070 Y69.240 E8.93737
G1 X101.499 Y70.556 E8.95743
G1 X102.807 Y72.237 E8.97944
G1 X103.731 Y73.945 E8.99951
G1 X104.423 Y75.960 E9.02152
G1 X104.831 Y78.941 E9.05260
G1 X104.743 Y121.306 E9.49030
G1 X104.423 Y123.221 E9.51037
G1 X103.731 Y125.236 E9.53238
G1 X102.807 Y126.944 E9.55244
G1 X101.499 Y128.625 E9.57445
G1 X100.070 Y129.941 E9.59452
G1 X98.286 Y131.106 E9.61653
G1 X96.508 Y131.886 E9.63660
G1 X94.442 Y132.409 E9.65861
G1 X92.507 Y132.569 E9.67867
G1 X90.384 Y132.394 E9.70068
G1 X88.501 Y131.917 E9.72074
G1 X86.550 Y131.061 E9.74276
G1 X84.924 Y129.999 E9.76282
G1 X83.357 Y128.556 E9.78483
G1 X82.164 Y127.023 E9.80490
G1 X81.150 Y125.150 E9.82691
G1 X80.520 Y123.313 E9.84697
G1 X80.169 Y121.212 E9.86898
G1 X80.169 Y77.969 E10.31574
G1 X80.520 Y75.868 E10.33775
G1 X81.150 Y74.031 E10.35782
G1 X82.164 Y72.158 E10.37983
G1 X83.127 Y70.921 E10.39602
G1 X83.313 Y71.066 F9000.000
G1 X83.543 Y70.770 E10.39989 F2400.000
G1 X85.053 Y69.379 E10.42111
G1 X86.099 Y68.696 E10.43401
G1 X88.149 Y67.831 E10.45700
G1 X89.471 Y67.681 E10.47074
G1 X95.371 Y67.644 E10.53170
G1 X97.915 Y68.169 E10.55853
G1 X98.192 Y68.291 E10.56166 F2400.000
G1 X99.910 Y69.413 E10.58287
G1 X101.339 Y70.729 E10.60293
G1 X102.600 Y72.349 E10.62414
G1 X103.524 Y74.057 E10.64421
G1 X104.191 Y75.998 E10.66542
G1 X104.595 Y78.941 E10.69610
G1 X104.510 Y121.267 E11.13340
G1 X104.191 Y123.183 E11.15347
G1 X103.524 Y125.124 E11.17467
G1 X102.600 Y126.832 E11.19474
G1 X101.339 Y128.452 E11.21595
G1 X99.910 Y129.768 E11.23601
G1 X98.192 Y130.890 E11.25722
G1 X96.413 Y131.670 E11.27729
G1 X94.423 Y132.174 E11.29850
G1 X92.487 Y132.335 E11.31857
G1 X90.442 Y132.165 E11.33977
G1 X88.559 Y131.688 E11.35983
G1 X86.679 Y130.864 E11.38104
G1 X85.053 Y129.802 E11.40111
G1 X83.543 Y128.411 E11.42232
G1 X82.350 Y126.879 E11.44238
G1 X81.373 Y125.073 E11.46359
G1 X80.742 Y123.236 E11.48366
G1 X80.405 Y121.212 E11.50487
G1 X80.405 Y77.969 E11.95163
G1 X80.742 Y75.945 E11.97284
G1 X81.373 Y74.108 E11.99290
G1 X82.350 Y72.302 E12.01411
G1 X83.267 Y71.125 E12.02953
G1 F2400.000 E10.02953
G1 Z0.600 F9000.000
G92 E0
G1 X88.306 Y75.047 F9000.000
G1 Z0.300 F9000.000
G1 E2.00000 F2400.000
G1 X88.567 Y74.712 E2.00439 F2400.000
G1 X89.360 Y74.194 E2.01418
G1 X89.360 Y79.163 E2.06552
G1 X89.320 Y79.232 E2.06634
G1 X89.360 Y79.255 E2.06682
G1 X89.360 Y79.301 E2.06729
G1 X89.439 Y79.301 E2.06812
G1 X92.380 Y80.999 E2.10320
G1 X92.420 Y81.068 E2.10402
G1 X92.460 Y81.045 E2.10450
G1 X92.500 Y81.068 E2.10497
G1 X92.539 Y80.999 E2.10579
G1 X95.480 Y79.301 E2.14088
G1 X95.560 Y79.301 E2.14170
G1 X95.560 Y79.255 E2.14217
G1 X95.600 Y79.232 E2.14265
G1 X95.560 Y79.163 E2.14347
G1 X95.560 Y74.088 E2.19591
G1 X96.961 Y75.378 E2.21558
G1 X96.996 Y75.410 E2.21607 F2400.000
G1 X97.896 Y77.074 E2.23562
G1 X98.208 Y78.941 E2.25517
G1 X97.896 Y80.807 E2.27472
G1 X96.996 Y82.471 E2.29427
G1 X95.604 Y83.752 E2.31382
G1 X95.260 Y83.903 E2.31770
G1 X95.260 Y115.278 E2.64184
G1 X95.604 Y115.429 E2.64572
G1 X96.996 Y116.710 E2.66527
G1 X97.896 Y118.374 E2.68482
G1 X98.208 Y120.241 E2.70437
G1 X97.896 Y122.107 E2.72392
G1 X96.996 Y123.771 E2.74347
G1 X95.604 Y125.052 E2.76302
G1 X93.871 Y125.813 E2.78257
G1 X91.985 Y125.969 E2.80212
G1 X90.151 Y125.504 E2.82166
G1 X88.567 Y124.469 E2.84121
G1 X87.405 Y122.976 E2.86076
G1 X86.790 Y121.187 E2.88031
G1 X86.790 Y119.294 E2.89986
G1 X87.405 Y117.505 E2.91941
G1 X88.567 Y116.012 E2.93896
G1 X89.660 Y115.298 E2.95245
G1 X89.660 Y83.883 E3.27701
G1 X88.567 Y83.169 E3.29050
G1 X87.405 Y81.676 E3.31004
G1 X86.790 Y79.887 E3.32959
G1 X86.790 Y77.994 E3.34914
G1 X87.405 Y76.205 E3.36869
G1 X88.260 Y75.106 E3.38308
G1 F2400.000 E1.38308
G1 Z0.600 F9000.000
G92 E0
G1 X96.963 Y75.425 F9000.000
G1 X96.807 Y75.557 F9000.000
G1 Z0.300 F9000.000
G1 E2.00000 F2400.000
G1 X97.670 Y77.152 E2.01874 F2400.000
G1 X97.969 Y78.941 E2.03747
G1 X97.670 Y80.729 E2.05621
G1 X96.807 Y82.324 E2.07495
G1 X95.473 Y83.553 E2.09368
G1 X95.024 Y83.749 E2.09875
G1 X95.024 Y115.432 E2.42608
G1 X95.473 Y115.628 E2.43114
G1 X96.807 Y116.857 E2.44988
G1 X97.670 Y118.452 E2.46861
G1 X97.969 Y120.241 E2.48735
G1 X97.670 Y122.029 E2.50609
G1 X96.807 Y123.624 E2.52482
G1 X95.473 Y124.853 E2.54356
G1 X93.812 Y125.581 E2.56230
G1 X92.005 Y125.731 E2.58103
G1 X90.247 Y125.286 E2.59977
G1 X88.729 Y124.294 E2.61851
G1 X87.615 Y122.863 E2.63724
G1 X87.026 Y121.147 E2.65598
G1 X87.026 Y119.334 E2.67472
G1 X87.615 Y117.618 E2.69345
G1 X88.729 Y116.187 E2.71219
G1 X89.895 Y115.425 E2.72659
G1 X89.895 Y83.756 E3.05378
G1 X88.729 Y82.994 E3.06818
G1 X87.615 Y81.563 E3.08692
G1 X87.026 Y79.847 E3.10566
G1 X87.026 Y78.034 E3.12439
G1 X87.615 Y76.318 E3.14313
G1 X88.729 Y74.887 E3.16187
G1 X89.124 Y74.629 E3.16675
G1 X89.124 Y79.100 E3.21294
G1 X88.998 Y79.319 E3.21555
G1 X89.124 Y79.391 E3.21705
G1 X89.124 Y79.537 E3.21855
G1 X89.376 Y79.537 E3.22116
G1 X92.208 Y81.172 E3.25494
G1 X92.334 Y81.390 E3.25754
G1 X92.460 Y81.317 E3.25905
G1 X92.586 Y81.390 E3.26055
G1 X92.712 Y81.172 E3.26315
G1 X95.478 Y79.575 E3.29615
G1 X95.543 Y79.537 E3.29693
G1 X95.795 Y79.537 E3.29954
G1 X95.795 Y79.391 E3.30104
G1 X95.921 Y79.319 E3.30254
G1 X95.795 Y79.100 E3.30515
G1 X95.795 Y74.625 E3.35138 F2400.000
G1 X96.752 Y75.506 E3.36482
G1 F2400.000 E1.36482
G1 Z0.600 F9000.000
G92 E0
G1 X92.810 Y115.477 F9000.000
G1 X94.789 Y107.414 F9000.000
G1 Z0.300 F9000.000
G1 E2.00000 F2400.000
G1 X94.789 Y115.586 E2.08442 F2400.000
G1 X95.342 Y115.828 E2.09067
G1 X96.619 Y117.003 E2.10859
G1 X97.444 Y118.529 E2.12652
G1 X97.730 Y120.241 E2.14444
G1 X97.444 Y121.952 E2.16237
G1 X96.619 Y123.478 E2.18029
G1 X95.342 Y124.653 E2.19822
G1 X93.754 Y125.349 E2.21614
G1 X92.025 Y125.493 E2.23406
G1 X90.343 Y125.067 E2.25199
G1 X88.890 Y124.118 E2.26991
G1 X87.825 Y122.749 E2.28784
G1 X87.261 Y121.108 E2.30576
G1 X87.261 Y119.373 E2.32368
G1 X87.825 Y117.732 E2.34161
G1 X88.890 Y116.363 E2.35953
G1 X90.131 Y115.553 E2.37484
G1 X90.131 Y83.628 E2.70467
G1 X88.890 Y82.818 E2.71998
G1 X87.825 Y81.449 E2.73791
G1 X87.261 Y79.808 E2.75583
G1 X87.261 Y78.073 E2.77376
G1 X87.825 Y76.432 E2.79168
G1 X88.761 Y75.229 E2.80743
G1 X88.889 Y75.273 E2.80882
G1 X88.889 Y79.037 E2.84772
G1 X88.676 Y79.405 E2.85210
G1 X88.889 Y79.527 E2.85463
G1 X88.889 Y79.772 E2.85717
G1 X89.313 Y79.772 E2.86155
G1 X92.035 Y81.344 E2.89403
G1 X92.248 Y81.712 E2.89841
G1 X92.460 Y81.589 E2.90095
G1 X92.672 Y81.712 E2.90348
G1 X92.884 Y81.344 E2.90786
G1 X95.606 Y79.772 E2.94034
G1 X96.031 Y79.772 E2.94473
G1 X96.031 Y79.527 E2.94726
G1 X96.243 Y79.405 E2.94979
G1 X96.031 Y79.037 E2.95418
G1 X96.031 Y75.162 E2.99421
G1 X96.619 Y75.703 E3.00246
G1 X97.444 Y77.229 E3.02039 F2400.000
G1 X97.730 Y78.941 E3.03831
G1 X97.444 Y80.652 E3.05623
G1 X96.619 Y82.178 E3.07416
G1 X95.342 Y83.353 E3.09208
G1 X94.789 Y83.595 E3.09833
G1 X94.789 Y107.339 E3.34364
G1 F2400.000 E1.34364
G1 Z0.600 F9000.000
G92 E0
G1 X92.500 Y116.638 F9000.000
G1 Z0.300 F9000.000
G1 E2.00000 F2400.000
G1 X92.539 Y116.707 E2.00082 F2400.000
G1 X95.480 Y118.405 E2.03591
G1 X95.560 Y118.405 E2.03673
G1 X95.560 Y118.451 E2.03720
G1 X95.599 Y118.474 E2.03768
G1 X95.560 Y118.542 E2.03850
G1 X95.560 Y121.938 E2.07358
G1 X95.600 Y122.007 E2.07440
G1 X95.560 Y122.030 E2.07488
G1 X95.560 Y122.076 E2.07535
G1 X95.480 Y122.076 E2.07618
G1 X95.360 Y122.146 E2.07761
G1 X92.539 Y123.774 E2.11126
G1 X92.500 Y123.843 E2.11208
G1 X92.460 Y123.820 E2.11256
G1 X92.420 Y123.843 E2.11303
G1 X92.380 Y123.774 E2.11385
G1 X89.439 Y122.076 E2.14894
G1 X89.360 Y122.076 E2.14976
G1 X89.360 Y122.030 E2.15023
G1 X89.320 Y122.007 E2.15071
G1 X89.360 Y121.938 E2.15153
G1 X89.360 Y118.543 E2.18661
G1 X89.320 Y118.474 E2.18744
G1 X89.360 Y118.451 E2.18791
G1 X89.360 Y118.405 E2.18839
G1 X89.439 Y118.405 E2.18921
G1 X92.380 Y116.707 E2.22429
G1 X92.420 Y116.638 E2.22511
G1 X92.435 Y116.646 E2.22529
G1 X92.574 Y116.611 F9000.000
G1 X92.711 Y116.532 F9000.000
G1 X95.543 Y118.169 E2.25909 F2400.000
G1 X95.795 Y118.169 E2.26170
G1 X95.795 Y118.315 E2.26320
G1 X95.921 Y118.387 E2.26470
G1 X95.795 Y118.605 E2.26730
G1 X95.795 Y121.875 E2.30108
G1 X95.921 Y122.094 E2.30369
G1 X95.795 Y122.166 E2.30519
G1 X95.795 Y122.312 E2.30669
G1 X95.543 Y122.312 E2.30930
G1 X92.712 Y123.947 E2.34308
G1 X92.586 Y124.165 E2.34568
G1 X92.460 Y124.092 E2.34719
G1 X92.334 Y124.165 E2.34869
G1 X92.208 Y123.947 E2.35129
G1 X89.376 Y122.312 E2.38507
G1 X89.124 Y122.312 E2.38768
G1 X89.124 Y122.166 E2.38918
G1 X88.998 Y122.094 E2.39068
G1 X89.124 Y121.875 E2.39329
G1 X89.124 Y118.606 E2.42707
G1 X88.998 Y118.387 E2.42967
G1 X89.124 Y118.315 E2.43118
G1 X89.124 Y118.169 E2.43268
G1 X89.376 Y118.169 E2.43528
G1 X92.207 Y116.535 E2.46906
G1 X92.333 Y116.316 E2.47167 F2400.000
G1 X92.460 Y116.389 E2.47317
G1 X92.586 Y116.316 E2.47468
G1 X92.673 Y116.467 E2.47648
G1 X92.877 Y116.349 F9000.000
G1 X95.606 Y117.934 E2.50908 F2400.000
G1 X96.031 Y117.934 E2.51347
G1 X96.031 Y118.179 E2.51600
G1 X96.243 Y118.301 E2.51853
G1 X96.031 Y118.668 E2.52291
G1 X96.031 Y121.812 E2.55539
G1 X96.243 Y122.180 E2.55978
G1 X96.031 Y122.302 E2.56231
G1 X96.031 Y122.547 E2.56484
G1 X95.606 Y122.547 E2.56923
G1 X92.884 Y124.119 E2.60170
G1 X92.672 Y124.487 E2.60609
G1 X92.460 Y124.364 E2.60862
G1 X92.248 Y124.487 E2.61115
G1 X92.035 Y124.119 E2.61554
G1 X89.313 Y122.547 E2.64801
G1 X88.889 Y122.547 E2.65240
G1 X88.889 Y122.302 E2.65493
G1 X88.676 Y122.180 E2.65747
G1 X88.889 Y121.812 E2.66185
G1 X88.889 Y118.669 E2.69433
G1 X88.676 Y118.301 E2.69871
G1 X88.889 Y118.179 E2.70124
G1 X88.889 Y117.934 E2.70378
G1 X89.313 Y117.934 E2.70816
G1 X92.035 Y116.362 E2.74063
G1 X92.247 Y115.994 E2.74502
G1 X92.460 Y116.117 E2.74756
G1 X92.672 Y115.994 E2.75010 F2400.000
G1 X92.840 Y116.284 E2.75356
G1 F2400.000 E0.75356
G1 Z0.600 F9000.000
G92 E0
G1 X88.665 Y75.717 F9000.000
G1 Z0.300 F9000.000
G1 E2.00000 F2400.000
G1 X88.665 Y78.977 E2.03368 F2400.000
G1 X88.370 Y79.487 E2.03976
G1 X88.665 Y79.657 E2.04327
G1 X88.665 Y79.996 E2.04678
G1 X89.253 Y79.996 E2.05286
G1 X91.871 Y81.508 E2.08409
G1 X92.166 Y82.017 E2.09017
G1 X92.460 Y81.848 E2.09368
G1 X92.754 Y82.017 E2.09719
G1 X93.048 Y81.508 E2.10327
G1 X95.666 Y79.996 E2.13450
G1 X96.255 Y79.996 E2.14058
G1 X96.255 Y79.657 E2.14409
G1 X96.549 Y79.487 E2.14760
G1 X96.255 Y78.977 E2.15368
G1 X96.255 Y75.673 E2.18782
G1 X96.440 Y75.843 E2.19042
G1 X97.230 Y77.303 E2.20757
G1 X97.503 Y78.940 E2.22472
G1 X97.230 Y80.578 E2.24187
G1 X96.440 Y82.038 E2.25903
G1 X95.218 Y83.163 E2.27618
G1 X94.565 Y83.449 E2.28355
G1 X94.565 Y115.732 E2.61708
G1 X95.218 Y116.018 E2.62446
