; generated by Slic3r 1.2.0 on 2014-10-23 at 10:50:14

; external perimeters extrusion width = 0.50mm
; perimeters extrusion width = 0.72mm
; infill extrusion width = 0.72mm
; solid infill extrusion width = 0.72mm
; top infill extrusion width = 0.72mm

G21 ; set units to millimeters
M190 S65 ; wait for bed temperature to be reached
M104 S180 ; set temperature
G28 ; home all axes
M109 S180 ; wait for temperature to be reached
G90 ; use absolute coordinates
G92 E0
M82 ; use absolute distances for extrusion
M106 S89
G1 F2400.000 E-2.00000
G1 Z0.600 F9000.000
G92 E0
G1 X48.226 Y68.985 F9000.000
G1 Z0.300 F9000.000
G1 E2.00000 F2400.000
G1 X49.232 Y68.327 E2.01242 F2400.000
G1 X49.763 Y68.009 E2.01882
G1 X111.653 Y34.727 E2.74484
G1 X114.830 Y33.927 E2.77868
G1 X128.230 Y33.927 E2.91712
G1 X130.503 Y34.325 E2.94096
G1 X132.172 Y35.208 E2.96048 F2400.000
G1 X134.438 Y36.855 E2.98942
G1 X135.480 Y37.793 E3.00391
G1 X137.355 Y39.875 E3.03285
G1 X138.179 Y41.009 E3.04733
G1 X139.580 Y43.435 E3.07627
G1 X140.150 Y44.716 E3.09076
G1 X141.016 Y47.380 E3.11970
G1 X141.307 Y48.752 E3.13419
G1 X141.637 Y52.239 E3.17038
G1 X141.600 Y146.740 E4.14673
G1 X141.307 Y149.526 E4.17567
G1 X141.016 Y150.898 E4.19016
G1 X140.150 Y153.562 E4.21910
G1 X139.580 Y154.843 E4.23359
G1 X138.179 Y157.269 E4.26253
G1 X137.355 Y158.403 E4.27701
G1 X135.551 Y160.407 E4.30487
G1 X134.438 Y161.423 E4.32044
G1 X132.172 Y163.070 E4.34938
G1 X130.958 Y163.771 E4.36387
G1 X128.399 Y164.910 E4.39281
G1 X127.065 Y165.344 E4.40730
G1 X124.325 Y165.926 E4.43624
G1 X122.931 Y166.073 E4.45072
G1 X120.129 Y166.073 E4.47967
G1 X118.735 Y165.926 E4.49415
G1 X115.995 Y165.344 E4.52310
G1 X114.661 Y164.910 E4.53758
G1 X111.727 Y163.589 E4.57083
G1 X49.851 Y131.258 E5.29211
G1 X48.225 Y130.196 E5.31218
G1 X46.601 Y128.701 E5.33499
G1 X45.408 Y127.168 E5.35506
G1 X44.357 Y125.226 E5.37787
G1 X43.727 Y123.389 E5.39793
G1 X43.363 Y121.212 E5.42074
G1 X43.363 Y77.969 E5.86751
G1 X43.727 Y75.792 E5.89031
G1 X44.357 Y73.955 E5.91038
G1 X45.408 Y72.013 E5.93319
G1 X46.601 Y70.480 E5.95326
G1 X48.170 Y69.036 E5.97530
G1 X48.328 Y69.207 F9000.000
G1 X49.361 Y68.524 E5.98809 F2400.000
G1 X49.875 Y68.217 E5.99427
G1 X111.765 Y34.935 E6.72029
G1 X114.830 Y34.163 E6.75295
G1 X128.230 Y34.163 E6.89139
G1 X130.461 Y34.560 E6.91481
G1 X132.034 Y35.399 E6.93322 F2400.000
G1 X134.300 Y37.046 E6.96216
G1 X135.305 Y37.951 E6.97614
G1 X137.180 Y40.033 E7.00508
G1 X137.975 Y41.127 E7.01906
G1 X139.376 Y43.553 E7.04800
G1 X139.926 Y44.789 E7.06198
G1 X140.792 Y47.453 E7.09092
G1 X141.073 Y48.777 E7.10490
G1 X141.401 Y52.239 E7.14083
G1 X141.366 Y146.715 E8.11693
G1 X141.073 Y149.501 E8.14587
G1 X140.792 Y150.825 E8.15985
G1 X139.926 Y153.489 E8.18879
G1 X139.376 Y154.725 E8.20277
G1 X137.975 Y157.151 E8.23171
G1 X137.180 Y158.245 E8.24569
G1 X135.376 Y160.249 E8.27355
G1 X134.300 Y161.232 E8.28860
G1 X132.034 Y162.879 E8.31755
G1 X130.862 Y163.555 E8.33152
G1 X128.303 Y164.695 E8.36046
G1 X127.016 Y165.113 E8.37444
G1 X124.276 Y165.695 E8.40339
G1 X122.931 Y165.837 E8.41736
G1 X120.129 Y165.837 E8.44631
G1 X118.784 Y165.695 E8.46028
G1 X116.044 Y165.113 E8.48922
G1 X114.757 Y164.695 E8.50320
G1 X111.836 Y163.381 E8.53630
G1 X49.980 Y131.061 E9.25734
G1 X48.354 Y129.999 E9.27741
G1 X46.787 Y128.556 E9.29942
G1 X45.594 Y127.023 E9.31949
G1 X44.580 Y125.150 E9.34149
G1 X43.949 Y123.313 E9.36156
G1 X43.599 Y121.212 E9.38357
G1 X43.599 Y77.969 E9.83033
G1 X43.949 Y75.868 E9.85234
G1 X44.580 Y74.031 E9.87241
G1 X45.594 Y72.158 E9.89442
G1 X46.787 Y70.625 E9.91448
G1 X48.273 Y69.257 E9.93535
G1 X48.430 Y69.428 F9000.000
G1 X49.490 Y68.722 E9.94851 F2400.000
G1 X49.986 Y68.425 E9.95448
G1 X111.877 Y35.142 E10.68050
G1 X114.830 Y34.399 E10.71197
G1 X128.230 Y34.399 E10.85041
G1 X130.419 Y34.796 E10.87340
G1 X131.895 Y35.590 E10.89072 F2400.000
G1 X134.161 Y37.236 E10.91966
G1 X135.130 Y38.109 E10.93313
G1 X137.005 Y40.190 E10.96207
G1 X137.771 Y41.245 E10.97554
G1 X139.172 Y43.671 E11.00448
G1 X139.702 Y44.862 E11.01795
G1 X140.567 Y47.526 E11.04689
G1 X140.839 Y48.801 E11.06036
G1 X141.166 Y52.239 E11.09604
G1 X141.131 Y146.691 E12.07188
G1 X140.839 Y149.477 E12.10082
G1 X140.567 Y150.752 E12.11429
G1 X139.702 Y153.416 E12.14323
G1 X139.172 Y154.607 E12.15670
G1 X137.771 Y157.033 E12.18565
G1 X137.005 Y158.088 E12.19911
G1 X135.200 Y160.092 E12.22697
G1 X134.161 Y161.042 E12.24152
G1 X131.895 Y162.688 E12.27046
G1 X130.766 Y163.340 E12.28393
G1 X128.207 Y164.480 E12.31287
G1 X126.967 Y164.883 E12.32634
G1 X124.227 Y165.465 E12.35528
G1 X122.931 Y165.601 E12.36875
G1 X120.129 Y165.601 E12.39769
G1 X118.833 Y165.465 E12.41116
G1 X116.093 Y164.883 E12.44010
G1 X114.853 Y164.480 E12.45357
G1 X111.945 Y163.172 E12.48652
G1 X50.109 Y130.864 E13.20733
G1 X48.483 Y129.802 E13.22739
G1 X46.973 Y128.411 E13.24860
G1 X45.780 Y126.879 E13.26867
G1 X44.803 Y125.073 E13.28987
G1 X44.172 Y123.236 E13.30994
G1 X43.834 Y121.212 E13.33115
G1 X43.834 Y77.969 E13.77791
G1 X44.172 Y75.945 E13.79912
G1 X44.803 Y74.108 E13.81918
G1 X45.780 Y72.302 E13.84039
G1 X46.973 Y70.770 E13.86046
G1 X48.375 Y69.479 E13.88015
G1 F2400.000 E11.88015
G1 Z0.600 F9000.000
G92 E0
G1 X80.508 Y69.479 F9000.000
G1 Z0.300 F9000.000
G1 E2.00000 F2400.000
G1 X80.508 Y69.087 E2.00405 F2400.000
G1 X80.950 Y67.223 E2.02384
G1 X81.810 Y65.511 E2.04363
G1 X83.041 Y64.044 E2.06342
G1 X84.351 Y63.068 E2.08030
G1 X84.351 Y70.379 E2.15583
G1 X84.318 Y70.437 E2.15652 F2400.000
G1 X84.351 Y70.456 E2.15692
G1 X84.351 Y70.494 E2.15732
G1 X84.418 Y70.494 E2.15800
G1 X88.635 Y72.929 E2.20831
G1 X88.668 Y72.987 E2.20900
G1 X88.701 Y72.967 E2.20940
G1 X88.735 Y72.987 E2.20979
G1 X88.768 Y72.929 E2.21048
G1 X92.985 Y70.494 E2.26079
G1 X93.051 Y70.494 E2.26148
G1 X93.051 Y70.456 E2.26187
G1 X93.085 Y70.437 E2.26227
G1 X93.051 Y70.379 E2.26296
G1 X93.051 Y63.095 E2.33821
G1 X93.627 Y63.428 E2.34508
G1 X95.021 Y64.742 E2.36487
G1 X96.073 Y66.342 E2.38466
G1 X96.728 Y68.142 E2.40445
G1 X96.950 Y70.044 E2.42424
G1 X96.728 Y71.947 E2.44402
G1 X96.073 Y73.747 E2.46381
G1 X95.021 Y75.347 E2.48360
G1 X93.627 Y76.661 E2.50339
G1 X92.751 Y77.167 E2.51384
G1 X92.751 Y121.722 E2.97417
G1 X93.627 Y122.228 E2.98462
G1 X95.021 Y123.542 E3.00440
G1 X96.073 Y125.142 E3.02419
G1 X96.728 Y126.942 E3.04398
G1 X96.950 Y128.844 E3.06377
G1 X96.728 Y130.747 E3.08356
G1 X96.073 Y132.547 E3.10334
G1 X95.021 Y134.147 E3.12313
G1 X93.627 Y135.461 E3.14292
G1 X91.969 Y136.419 E3.16271
G1 X90.078 Y136.971 E3.18306
G1 X88.222 Y137.079 E3.20227
G1 X86.336 Y136.747 E3.22206
G1 X84.577 Y135.988 E3.24185
G1 X83.041 Y134.844 E3.26163
G1 X81.810 Y133.377 E3.28142
G1 X80.950 Y131.666 E3.30121
G1 X80.508 Y129.802 E3.32100
G1 X80.508 Y127.887 E3.34079
G1 X80.950 Y126.023 E3.36058
G1 X81.810 Y124.311 E3.38036
G1 X83.041 Y122.844 E3.40015
G1 X84.651 Y121.645 E3.42090
G1 X84.651 Y77.244 E3.87964
G1 X83.041 Y76.044 E3.90039
G1 X81.810 Y74.577 E3.92017
G1 X80.950 Y72.866 E3.93996
G1 X80.508 Y71.002 E3.95975
G1 X80.508 Y69.554 E3.97471
G1 F2400.000 E1.97471
G1 Z0.600 F9000.000
G92 E0
G1 X84.303 Y70.424 F9000.000
G1 X84.116 Y70.316 F9000.000
G1 Z0.300 F9000.000
G1 E2.00000 F2400.000
G1 X83.996 Y70.523 E2.00246 F2400.000
G1 X84.116 Y70.592 E2.00389
G1 X84.116 Y70.730 E2.00532
G1 X84.355 Y70.730 E2.00779
G1 X88.462 Y73.101 E2.05679
G1 X88.582 Y73.308 E2.05926
G1 X88.701 Y73.239 E2.06069
G1 X88.821 Y73.308 E2.06211
G1 X88.941 Y73.101 E2.06458
G1 X93.048 Y70.730 E2.11358
G1 X93.287 Y70.730 E2.11605
G1 X93.287 Y70.592 E2.11748
G1 X93.407 Y70.523 E2.11891
G1 X93.287 Y70.316 E2.12138
G1 X93.287 Y63.503 E2.19176 F2400.000
G1 X93.486 Y63.618 E2.19413
G1 X94.839 Y64.895 E2.21335
G1 X95.861 Y66.449 E2.23257
G1 X96.497 Y68.197 E2.25179
G1 X96.713 Y70.044 E2.27101
G1 X96.497 Y71.892 E2.29023
G1 X95.861 Y73.640 E2.30945
G1 X94.839 Y75.194 E2.32867
G1 X93.486 Y76.471 E2.34789
G1 X92.516 Y77.031 E2.35946
G1 X92.516 Y121.858 E2.82260
G1 X93.486 Y122.418 E2.83417
G1 X94.839 Y123.695 E2.85339
G1 X95.861 Y125.249 E2.87260
G1 X96.497 Y126.997 E2.89182
G1 X96.713 Y128.844 E2.91104
G1 X96.497 Y130.692 E2.93026
G1 X95.861 Y132.440 E2.94948
G1 X94.818 Y134.014 E2.96898
G1 X93.486 Y135.271 E2.98791
G1 X91.875 Y136.201 E3.00713
G1 X90.093 Y136.734 E3.02635
G1 X88.236 Y136.843 E3.04557
G1 X86.404 Y136.520 E3.06479
G1 X84.696 Y135.783 E3.08401
G1 X83.203 Y134.672 E3.10323
G1 X81.995 Y133.222 E3.12273
G1 X81.173 Y131.585 E3.14166
G1 X80.744 Y129.775 E3.16087
G1 X80.744 Y127.914 E3.18009
G1 X81.173 Y126.104 E3.19931
G1 X82.008 Y124.442 E3.21853
G1 X83.203 Y123.017 E3.23775
G1 X84.887 Y121.763 E3.25944
G1 X84.887 Y77.125 E3.72062
G1 X83.203 Y75.872 E3.74231
G1 X82.008 Y74.447 E3.76153
G1 X81.173 Y72.785 E3.78074
G1 X80.744 Y70.975 E3.79996
G1 X80.744 Y69.114 E3.81918
G1 X81.173 Y67.304 E3.83840
G1 X82.008 Y65.642 E3.85762
G1 X83.203 Y64.217 E3.87684
G1 X84.116 Y63.538 E3.88859
G1 X84.116 Y70.241 E3.95785
G1 F2400.000 E1.95785
G1 Z0.600 F9000.000
G92 E0
G1 X92.280 Y103.406 F9000.000
G1 Z0.300 F9000.000
G1 E2.00000 F2400.000
G1 X92.280 Y121.994 E2.19204 F2400.000
G1 X93.344 Y122.608 E2.20473
G1 X94.657 Y123.847 E2.22338
G1 X95.649 Y125.355 E2.24203
G1 X96.266 Y127.051 E2.26068
G1 X96.476 Y128.844 E2.27933
G1 X96.266 Y130.637 E2.29798
G1 X95.649 Y132.334 E2.31663
G1 X94.657 Y133.842 E2.33528
G1 X93.344 Y135.080 E2.35393
G1 X91.781 Y135.983 E2.37258
G1 X90.051 Y136.501 E2.39123
G1 X88.249 Y136.606 E2.40988
G1 X86.472 Y136.292 E2.42853
G1 X84.814 Y135.577 E2.44718
G1 X83.366 Y134.499 E2.46583
G1 X82.206 Y133.117 E2.48448
G1 X81.396 Y131.503 E2.50313
G1 X80.980 Y129.747 E2.52178
G1 X80.980 Y127.942 E2.54043
G1 X81.396 Y126.185 E2.55908
G1 X82.206 Y124.572 E2.57773
G1 X83.366 Y123.189 E2.59638
G1 X85.123 Y121.882 E2.61901
G1 X85.123 Y77.007 E3.08264
G1 X83.366 Y75.699 E3.10526
G1 X82.206 Y74.317 E3.12391
G1 X81.396 Y72.703 E3.14256
G1 X80.980 Y70.947 E3.16121
G1 X80.980 Y69.142 E3.17986
G1 X81.396 Y67.385 E3.19851
G1 X82.206 Y65.772 E3.21716
G1 X83.366 Y64.389 E3.23581
G1 X83.880 Y64.007 E3.24243
G1 X83.880 Y70.253 E3.30696
G1 X83.674 Y70.609 E3.31121
G1 X83.880 Y70.728 E3.31367
G1 X83.880 Y70.966 E3.31612
G1 X84.292 Y70.966 E3.32038
G1 X88.290 Y73.274 E3.36807
G1 X88.496 Y73.630 E3.37233
G1 X88.701 Y73.511 E3.37478
G1 X88.907 Y73.630 E3.37724
G1 X89.113 Y73.274 E3.38149
G1 X93.111 Y70.966 E3.42918
G1 X93.523 Y70.966 E3.43344
G1 X93.523 Y70.728 E3.43589
G1 X93.729 Y70.609 E3.43835
G1 X93.523 Y70.253 E3.44260
G1 X93.523 Y63.977 E3.50744
G1 X94.657 Y65.047 E3.52355
G1 X95.649 Y66.555 E3.54220 F2400.000
G1 X96.266 Y68.251 E3.56085
G1 X96.476 Y70.044 E3.57950
G1 X96.266 Y71.837 E3.59815
G1 X95.649 Y73.534 E3.61680
G1 X94.657 Y75.042 E3.63545
G1 X93.344 Y76.280 E3.65410
G1 X92.280 Y76.895 E3.66680
G1 X92.280 Y103.331 E3.93993
G1 F2400.000 E1.93993
G1 Z0.600 F9000.000
G92 E0
G1 X88.735 Y123.802 F9000.000
G1 Z0.300 F9000.000
G1 E2.00000 F2400.000
G1 X88.768 Y123.860 E2.00069 F2400.000
G1 X92.985 Y126.294 E2.05099
G1 X93.051 Y126.294 E2.05168
G1 X93.051 Y126.333 E2.05208
G1 X93.085 Y126.352 E2.05248
G1 X93.051 Y126.410 E2.05317
G1 X93.051 Y131.279 E2.10347
G1 X93.085 Y131.337 E2.10416
G1 X93.051 Y131.356 E2.10456
G1 X93.051 Y131.394 E2.10496
G1 X92.985 Y131.394 E2.10565
G1 X92.799 Y131.502 E2.10786
G1 X88.768 Y133.829 E2.15595
G1 X88.735 Y133.887 E2.15664
G1 X88.701 Y133.867 E2.15704
G1 X88.668 Y133.887 E2.15743
G1 X88.635 Y133.829 E2.15812
G1 X84.418 Y131.394 E2.20843
G1 X84.351 Y131.394 E2.20912
G1 X84.351 Y131.356 E2.20951
G1 X84.318 Y131.337 E2.20991
G1 X84.351 Y131.279 E2.21060
G1 X84.351 Y126.410 E2.26090
G1 X84.318 Y126.352 E2.26159
G1 X84.351 Y126.333 E2.26199
G1 X84.351 Y126.294 E2.26239
G1 X84.418 Y126.294 E2.26308
G1 X88.635 Y123.860 E2.31338
G1 X88.670 Y123.803 E2.31407
G1 X88.793 Y123.769 F9000.000
G1 X88.939 Y123.684 F9000.000
G1 X93.048 Y126.059 E2.36310 F2400.000
G1 X93.287 Y126.059 E2.36557
G1 X93.287 Y126.197 E2.36700
G1 X93.407 Y126.266 E2.36843
G1 X93.287 Y126.473 E2.37090
G1 X93.287 Y131.216 E2.41990
G1 X93.407 Y131.423 E2.42237
G1 X93.287 Y131.492 E2.42379
G1 X93.287 Y131.630 E2.42522
G1 X93.048 Y131.630 E2.42769
G1 X92.917 Y131.706 E2.42926
G1 X88.941 Y134.001 E2.47669
G1 X88.821 Y134.208 E2.47916
G1 X88.701 Y134.139 E2.48059
G1 X88.582 Y134.208 E2.48202
G1 X88.462 Y134.001 E2.48449
G1 X84.355 Y131.630 E2.53349
G1 X84.116 Y131.630 E2.53596
G1 X84.116 Y131.492 E2.53739
G1 X83.996 Y131.423 E2.53881
G1 X84.116 Y131.216 E2.54128
G1 X84.116 Y126.473 E2.59028
G1 X83.996 Y126.266 E2.59275
G1 X84.116 Y126.197 E2.59418
G1 X84.116 Y126.059 E2.59561
G1 X84.355 Y126.059 E2.59808
G1 X88.462 Y123.688 E2.64707
G1 X88.582 Y123.480 E2.64955 F2400.000
G1 X88.701 Y123.549 E2.65098
G1 X88.821 Y123.480 E2.65241
G1 X88.901 Y123.619 E2.65407
G1 X89.106 Y123.502 F9000.000
G1 X93.111 Y125.823 E2.70190 F2400.000
G1 X93.523 Y125.823 E2.70615
G1 X93.523 Y126.061 E2.70861
G1 X93.728 Y126.180 E2.71106
G1 X93.523 Y126.536 E2.71531
G1 X93.523 Y131.153 E2.76301
G1 X93.729 Y131.509 E2.76726
G1 X93.523 Y131.628 E2.76972
G1 X93.523 Y131.866 E2.77217
G1 X93.111 Y131.866 E2.77643
G1 X89.113 Y134.174 E2.82412
G1 X88.907 Y134.530 E2.82838
G1 X88.701 Y134.411 E2.83083
G1 X88.496 Y134.530 E2.83329
G1 X88.290 Y134.174 E2.83754
G1 X84.292 Y131.866 E2.88523
G1 X83.880 Y131.866 E2.88949
G1 X83.880 Y131.628 E2.89194
G1 X83.674 Y131.509 E2.89440
G1 X83.880 Y131.153 E2.89865
G1 X83.880 Y126.536 E2.94635
G1 X83.674 Y126.180 E2.95060
G1 X83.880 Y126.061 E2.95306
G1 X83.880 Y125.823 E2.95551
G1 X84.292 Y125.823 E2.95976
G1 X88.289 Y123.515 E3.00745
G1 X88.495 Y123.158 E3.01171
G1 X88.701 Y123.277 E3.01417
G1 X88.907 Y123.158 E3.01663 F2400.000
G1 X89.068 Y123.437 E3.01995
G1 F2400.000 E1.01995
G1 Z0.600 F9000.000
G92 E0
G1 X83.521 Y64.553 F9000.000
G1 Z0.300 F9000.000
G1 E2.00000 F2400.000
G1 X83.656 Y64.452 E2.00175 F2400.000
G1 X83.656 Y70.193 E2.06105
G1 X83.369 Y70.691 E2.06700
G1 X83.656 Y70.857 E2.07043
G1 X83.656 Y71.189 E2.07386
G1 X84.232 Y71.189 E2.07981
G1 X88.126 Y73.438 E2.12627
G1 X88.414 Y73.936 E2.13221
G1 X88.701 Y73.770 E2.13564
G1 X88.989 Y73.936 E2.13908
G1 X89.277 Y73.438 E2.14502
G1 X93.171 Y71.189 E2.19148
G1 X93.747 Y71.189 E2.19742
G1 X93.747 Y70.857 E2.20086
G1 X94.034 Y70.691 E2.20429
G1 X93.747 Y70.193 E2.21024
G1 X93.747 Y64.496 E2.26909
G1 X94.484 Y65.192 E2.27958
G1 X95.448 Y66.656 E2.29769
G1 X96.047 Y68.303 E2.31580
G1 X96.251 Y70.044 E2.33390
G1 X96.047 Y71.785 E2.35201
G1 X95.448 Y73.432 E2.37012
G1 X94.484 Y74.897 E2.38823
G1 X93.210 Y76.100 E2.40634
G1 X92.056 Y76.766 E2.42010
G1 X92.056 Y122.123 E2.88872
G1 X93.210 Y122.789 E2.90248
G1 X94.484 Y123.992 E2.92058
G1 X95.448 Y125.456 E2.93869
G1 X96.047 Y127.103 E2.95680
G1 X96.251 Y128.844 E2.97491
G1 X96.047 Y130.585 E2.99302
G1 X95.448 Y132.232 E3.01113
G1 X94.484 Y133.697 E3.02924
G1 X93.210 Y134.900 E3.04735
G1 X91.692 Y135.776 E3.06546
G1 X90.012 Y136.279 E3.08357
G1 X88.263 Y136.381 E3.10168
G1 X86.536 Y136.076 E3.11979
G1 X84.927 Y135.382 E3.13790
G1 X83.521 Y134.335 E3.15601
G1 X82.394 Y132.993 E3.17412
G1 X81.608 Y131.426 E3.19223
G1 X81.203 Y129.721 E3.21034
G1 X81.203 Y127.968 E3.22845
G1 X81.608 Y126.262 E3.24656
G1 X82.394 Y124.696 E3.26466
G1 X83.521 Y123.353 E3.28277
G1 X85.347 Y121.994 E3.30629
G1 X85.347 Y76.895 E3.77224
G1 X83.521 Y75.535 E3.79576
G1 X82.394 Y74.193 E3.81386
G1 X81.608 Y72.626 E3.83197
G1 X81.203 Y70.921 E3.85008
G1 X81.203 Y69.168 E3.86819
G1 X81.608 Y67.462 E3.88630
G1 X82.394 Y65.896 E3.90441
G1 X83.473 Y64.611 E3.92175
G1 X83.420 Y65.042 F9000.000
G1 X83.420 Y70.129 E3.97430 F2400.000
G1 X83.045 Y70.778 E3.98204
G1 X83.420 Y70.994 E3.98651
G1 X83.420 Y71.426 E3.99097
G1 X84.169 Y71.426 E3.99871
G1 X87.953 Y73.611 E4.04385
G1 X88.327 Y74.259 E4.05159
G1 X88.701 Y74.043 E4.05606
G1 X89.076 Y74.259 E4.06052
G1 X89.450 Y73.611 E4.06826
G1 X93.234 Y71.426 E4.11340
G1 X93.983 Y71.426 E4.12114
G1 X93.983 Y70.994 E4.12561
G1 X94.358 Y70.778 E4.13008
G1 X93.983 Y70.129 E4.13781
G1 X93.983 Y65.045 E4.19035
G1 X94.302 Y65.345 E4.19487
G1 X95.235 Y66.763 E4.21241
G1 X95.815 Y68.358 E4.22995
G1 X96.012 Y70.044 E4.24748
G1 X95.815 Y71.730 E4.26502
