; generated by Slic3r 1.2.0 on 2014-10-23 at 10:47:57

; external perimeters extrusion width = 0.50mm
; perimeters extrusion width = 0.72mm
; infill extrusion width = 0.72mm
; solid infill extrusion width = 0.72mm
; top infill extrusion width = 0.72mm

G21 ; set units to millimeters
M190 S65 ; wait for bed temperature to be reached
M104 S180 ; set temperature
G28 ; home all axes
M109 S180 ; wait for temperature to be reached
G90 ; use absolute coordinates
G92 E0
M82 ; use absolute distances for extrusion
M106 S89
G1 F2400.000 E-2.00000
G1 Z0.600 F9000.000
G92 E0
G1 X79.774 Y60.663 F9000.000
G1 Z0.300 F9000.000
G1 E2.00000 F2400.000
G1 X81.028 Y59.169 E2.01755 F2400.000
G1 X82.280 Y57.988 E2.03304
G1 X83.844 Y56.823 E2.05060
G1 X86.002 Y55.712 E2.07244
G1 X88.329 Y55.356 E2.09363
G1 X96.729 Y55.422 E2.16923
G1 X99.121 Y55.838 E2.19108 F2400.000
G1 X100.379 Y56.415 E2.20353
G1 X101.195 Y56.886 E2.21202
G1 X102.575 Y57.914 E2.22750
G1 X103.994 Y59.252 E2.24506
G1 X105.100 Y60.571 E2.26055
G1 X106.172 Y62.201 E2.27810
G1 X106.945 Y63.739 E2.29359
G1 X107.612 Y65.571 E2.31115
G1 X108.009 Y67.247 E2.32664
G1 X108.285 Y70.044 E2.35194
G1 X108.235 Y129.705 E2.88889
G1 X108.009 Y131.642 E2.90644
G1 X107.612 Y133.317 E2.92194
G1 X106.945 Y135.150 E2.93949
G1 X106.172 Y136.688 E2.95498
G1 X105.100 Y138.318 E2.97254
G1 X103.941 Y139.687 E2.98868
G1 X102.575 Y140.975 E3.00558
G1 X101.195 Y142.003 E3.02107
G1 X99.506 Y142.978 E3.03862
G1 X97.925 Y143.660 E3.05411
G1 X96.057 Y144.219 E3.07167
G1 X94.362 Y144.518 E3.08716
G1 X92.414 Y144.631 E3.10471
G1 X90.696 Y144.531 E3.12020
G1 X88.775 Y144.193 E3.13776
G1 X87.126 Y143.699 E3.15325
G1 X85.335 Y142.926 E3.17080
G1 X83.844 Y142.066 E3.18630
G1 X82.280 Y140.901 E3.20385
G1 X81.028 Y139.720 E3.21934
G1 X79.774 Y138.226 E3.23689
G1 X78.828 Y136.788 E3.25239
G1 X77.953 Y135.045 E3.26994
G1 X77.364 Y133.427 E3.28543
G1 X76.915 Y131.529 E3.30299
G1 X76.715 Y129.820 E3.31848
G1 X76.715 Y69.069 E3.86523
G1 X76.914 Y67.360 E3.88072
G1 X77.364 Y65.462 E3.89828
G1 X77.953 Y63.844 E3.91377
G1 X78.828 Y62.101 E3.93132
G1 X79.733 Y60.726 E3.94614
G1 X79.929 Y60.854 F9000.000
G1 X81.209 Y59.320 E3.96412 F2400.000
G1 X82.421 Y58.177 E3.97912
G1 X83.985 Y57.012 E3.99667
G1 X86.111 Y55.925 E4.01816
G1 X88.328 Y55.592 E4.03834
G1 X96.728 Y55.658 E4.11394
G1 X99.079 Y56.073 E4.13543 F2400.000
G1 X100.261 Y56.619 E4.14714
G1 X101.077 Y57.090 E4.15563
G1 X102.414 Y58.085 E4.17062
G1 X103.832 Y59.424 E4.18818
G1 X104.904 Y60.701 E4.20318
G1 X105.975 Y62.330 E4.22073
G1 X106.723 Y63.819 E4.23573
G1 X107.390 Y65.652 E4.25328
G1 X107.775 Y67.274 E4.26828
G1 X108.050 Y70.044 E4.29334
G1 X108.001 Y129.678 E4.83004
G1 X107.775 Y131.615 E4.84759
G1 X107.390 Y133.237 E4.86259
G1 X106.723 Y135.069 E4.88015
G1 X105.975 Y136.559 E4.89515
G1 X104.904 Y138.188 E4.91270
G1 X103.779 Y139.515 E4.92835
G1 X102.414 Y140.803 E4.94525
G1 X101.077 Y141.799 E4.96025
G1 X99.388 Y142.774 E4.97780
G1 X97.857 Y143.434 E4.99280
G1 X95.989 Y143.993 E5.01035
G1 X94.348 Y144.283 E5.02535
G1 X92.401 Y144.396 E5.04291
G1 X90.737 Y144.299 E5.05791
G1 X88.816 Y143.961 E5.07546
G1 X87.219 Y143.483 E5.09046
G1 X85.428 Y142.710 E5.10801
G1 X83.985 Y141.877 E5.12301
G1 X82.421 Y140.712 E5.14057
G1 X81.209 Y139.568 E5.15556
G1 X79.955 Y138.074 E5.17312
G1 X79.039 Y136.682 E5.18812
G1 X78.164 Y134.939 E5.20567
G1 X77.594 Y133.373 E5.22067
G1 X77.144 Y131.475 E5.23823
G1 X76.950 Y129.820 E5.25323
G1 X76.950 Y69.069 E5.79998
G1 X77.144 Y67.414 E5.81498
G1 X77.594 Y65.516 E5.83253
G1 X78.164 Y63.950 E5.84753
G1 X79.039 Y62.207 E5.86509
G1 X79.887 Y60.917 E5.87898
G1 X80.083 Y61.046 F9000.000
G1 X81.389 Y59.472 E5.89739 F2400.000
G1 X82.561 Y58.366 E5.91189
G1 X84.126 Y57.201 E5.92945
G1 X86.219 Y56.138 E5.95058
G1 X88.326 Y55.828 E5.96974
G1 X96.726 Y55.893 E6.04535
G1 X99.037 Y56.308 E6.06648 F2400.000
G1 X100.143 Y56.823 E6.07746
G1 X100.959 Y57.294 E6.08594
G1 X102.252 Y58.257 E6.10045
G1 X103.671 Y59.595 E6.11800
G1 X104.707 Y60.830 E6.13251
G1 X105.778 Y62.460 E6.15006
G1 X106.502 Y63.900 E6.16457
G1 X107.169 Y65.733 E6.18212
G1 X107.541 Y67.301 E6.19663
G1 X107.814 Y70.044 E6.22144
G1 X107.767 Y129.650 E6.75789
G1 X107.541 Y131.588 E6.77545
G1 X107.169 Y133.156 E6.78995
G1 X106.502 Y134.989 E6.80751
G1 X105.778 Y136.429 E6.82201
G1 X104.707 Y138.059 E6.83957
G1 X103.617 Y139.344 E6.85473
G1 X102.252 Y140.632 E6.87162
G1 X100.959 Y141.595 E6.88613
G1 X99.270 Y142.570 E6.90368
G1 X97.790 Y143.208 E6.91819
G1 X95.921 Y143.768 E6.93575
G1 X94.334 Y144.048 E6.95025
G1 X92.387 Y144.161 E6.96781
G1 X90.778 Y144.067 E6.98231
G1 X88.857 Y143.729 E6.99987
G1 X87.313 Y143.266 E7.01438
G1 X85.522 Y142.494 E7.03193
G1 X84.126 Y141.688 E7.04644
G1 X82.561 Y140.523 E7.06399
G1 X81.389 Y139.417 E7.07849
G1 X80.135 Y137.923 E7.09605
G1 X79.249 Y136.576 E7.11056
G1 X78.374 Y134.833 E7.12811
G1 X77.823 Y133.319 E7.14262
G1 X77.373 Y131.421 E7.16017
G1 X77.186 Y129.820 E7.17468
G1 X77.186 Y69.069 E7.72143
G1 X77.373 Y67.468 E7.73594
G1 X77.823 Y65.570 E7.75349
G1 X78.374 Y64.056 E7.76800
G1 X79.249 Y62.313 E7.78555
G1 X80.042 Y61.108 E7.79853
G1 X80.237 Y61.237 F9000.000
G1 X80.316 Y61.117 E7.79982 F2400.000
G1 X81.570 Y59.623 E7.81737
G1 X82.702 Y58.555 E7.83138
G1 X84.267 Y57.390 E7.84894
G1 X86.327 Y56.351 E7.86971
G1 X88.324 Y56.063 E7.88786
G1 X96.724 Y56.129 E7.96347
G1 X100.025 Y57.027 E7.99426 F2400.000
G1 X100.841 Y57.498 E8.00274
G1 X102.090 Y58.428 E8.01675
G1 X103.509 Y59.767 E8.03431
G1 X104.510 Y60.960 E8.04832
G1 X105.582 Y62.589 E8.06587
G1 X106.280 Y63.981 E8.07989
G1 X106.948 Y65.813 E8.09744
G1 X107.307 Y67.329 E8.11146
G1 X107.578 Y70.044 E8.13602
G1 X107.533 Y129.623 E8.67223
G1 X107.307 Y131.560 E8.68978
G1 X106.948 Y133.076 E8.70380
G1 X106.280 Y134.908 E8.72135
G1 X105.582 Y136.300 E8.73537
G1 X104.510 Y137.929 E8.75292
G1 X103.456 Y139.172 E8.76759
G1 X102.090 Y140.461 E8.78448
G1 X100.841 Y141.390 E8.79850
G1 X99.152 Y142.366 E8.81605
G1 X97.722 Y142.982 E8.83007
G1 X95.854 Y143.542 E8.84762
G1 X94.321 Y143.812 E8.86163
G1 X92.373 Y143.926 E8.87919
G1 X90.818 Y143.835 E8.89320
G1 X88.898 Y143.496 E8.91076
G1 X87.406 Y143.050 E8.92477
G1 X85.615 Y142.277 E8.94233
G1 X84.266 Y141.499 E8.95634
G1 X82.702 Y140.334 E8.97389
G1 X81.570 Y139.266 E8.98791
G1 X80.316 Y137.771 E9.00546
G1 X79.460 Y136.470 E9.01948
G1 X78.585 Y134.727 E9.03703
G1 X78.052 Y133.264 E9.05104
G1 X77.602 Y131.366 E9.06860
G1 X77.422 Y129.820 E9.08261
G1 X77.422 Y69.069 E9.62937
G1 X77.602 Y67.523 E9.64338
G1 X78.052 Y65.625 E9.66094
G1 X78.585 Y64.161 E9.67495
G1 X79.460 Y62.418 E9.69250
G1 X80.196 Y61.299 E9.70456
G1 X80.392 Y61.428 F9000.000
G1 X80.496 Y61.269 E9.70627 F2400.000
G1 X81.750 Y59.775 E9.72383
G1 X82.843 Y58.744 E9.73735
G1 X84.407 Y57.579 E9.75490
G1 X86.434 Y56.565 E9.77530
G1 X88.322 Y56.299 E9.79246
G1 X96.722 Y56.364 E9.86806
G1 X99.907 Y57.231 E9.89777 F2400.000
G1 X100.724 Y57.703 E9.90626
G1 X101.929 Y58.600 E9.91977
G1 X103.347 Y59.938 E9.93733
G1 X104.313 Y61.089 E9.95085
G1 X105.385 Y62.718 E9.96840
G1 X106.059 Y64.061 E9.98193
G1 X106.726 Y65.894 E9.99948
G1 X107.073 Y67.356 E10.01300
G1 X107.343 Y70.044 E10.03732
G1 X107.299 Y129.596 E10.57328
G1 X107.073 Y131.533 E10.59084
G1 X106.726 Y132.995 E10.60436
G1 X106.059 Y134.828 E10.62191
G1 X105.385 Y136.170 E10.63543
G1 X104.313 Y137.800 E10.65299
G1 X103.294 Y139.001 E10.66716
G1 X101.929 Y140.289 E10.68406
G1 X100.723 Y141.186 E10.69758
G1 X99.034 Y142.162 E10.71513
G1 X97.655 Y142.757 E10.72866
G1 X95.786 Y143.316 E10.74621
G1 X94.307 Y143.577 E10.75973
G1 X92.359 Y143.690 E10.77729
G1 X90.859 Y143.603 E10.79081
G1 X88.939 Y143.264 E10.80836
G1 X87.499 Y142.833 E10.82189
G1 X85.708 Y142.061 E10.83944
G1 X84.407 Y141.310 E10.85296
G1 X82.843 Y140.145 E10.87052
G1 X81.750 Y139.114 E10.88404
G1 X80.496 Y137.620 E10.90159
G1 X79.671 Y136.365 E10.91511
G1 X78.795 Y134.622 E10.93267
G1 X78.281 Y133.210 E10.94619
G1 X77.832 Y131.312 E10.96374
G1 X77.657 Y129.820 E10.97727
G1 X77.657 Y69.069 E11.52402
G1 X77.832 Y67.577 E11.53754
G1 X78.281 Y65.679 E11.55510
G1 X78.795 Y64.267 E11.56862
G1 X79.671 Y62.524 E11.58617
G1 X80.350 Y61.491 E11.59731
G1 X80.546 Y61.619 F9000.000
G1 X80.677 Y61.420 E11.59945 F2400.000
G1 X81.931 Y59.926 E11.61700
G1 X82.983 Y58.933 E11.63003
G1 X84.548 Y57.768 E11.64759
G1 X86.541 Y56.779 E11.66761
G1 X88.320 Y56.534 E11.68377
G1 X96.720 Y56.600 E11.75938
G1 X99.789 Y57.435 E11.78800 F2400.000
G1 X100.606 Y57.907 E11.79649
G1 X101.767 Y58.771 E11.80951
G1 X103.185 Y60.109 E11.82707
G1 X104.116 Y61.218 E11.84010
G1 X105.188 Y62.848 E11.85765
G1 X105.838 Y64.142 E11.87068
G1 X106.505 Y65.974 E11.88823
G1 X106.839 Y67.383 E11.90127
G1 X107.107 Y70.044 E11.92534
G1 X107.065 Y129.568 E12.46105
G1 X106.839 Y131.505 E12.47861
G1 X106.505 Y132.914 E12.49164
G1 X105.838 Y134.747 E12.50919
G1 X105.188 Y136.041 E12.52222
G1 X104.116 Y137.670 E12.53977
G1 X103.132 Y138.830 E12.55346
G1 X101.767 Y140.118 E12.57035
G1 X100.606 Y140.982 E12.58338
G1 X98.917 Y141.958 E12.60094
G1 X97.587 Y142.531 E12.61397
G1 X95.719 Y143.090 E12.63152
G1 X94.293 Y143.342 E12.64455
G1 X92.346 Y143.455 E12.66210
G1 X90.900 Y143.371 E12.67513
G1 X88.980 Y143.032 E12.69269
G1 X87.593 Y142.617 E12.70572
G1 X85.802 Y141.845 E12.72327
G1 X84.548 Y141.121 E12.73630
G1 X82.983 Y139.956 E12.75385
G1 X81.931 Y138.963 E12.76688
G1 X80.677 Y137.469 E12.78444
G1 X79.881 Y136.259 E12.79747
G1 X79.006 Y134.516 E12.81502
G1 X78.511 Y133.155 E12.82805
G1 X78.061 Y131.258 E12.84561
G1 X77.893 Y129.820 E12.85864
G1 X77.893 Y69.069 E13.40539
G1 X78.061 Y67.631 E13.41842
G1 X78.511 Y65.733 E13.43597
G1 X79.006 Y64.373 E13.44900
G1 X79.881 Y62.630 E13.46656
G1 X80.505 Y61.682 E13.47677
G1 F2400.000 E11.47677
G1 Z0.600 F9000.000
G92 E0
G1 X85.580 Y65.511 F9000.000
G1 Z0.300 F9000.000
G1 E2.00000 F2400.000
G1 X86.811 Y64.044 E2.01724 F2400.000
G1 X88.122 Y63.068 E2.03194
G1 X88.122 Y70.379 E2.09774
G1 X88.088 Y70.437 E2.09834 F2400.000
G1 X88.122 Y70.456 E2.09869
G1 X88.122 Y70.494 E2.09903
G1 X88.188 Y70.494 E2.09963
G1 X92.405 Y72.929 E2.14345
G1 X92.438 Y72.987 E2.14405
G1 X92.472 Y72.967 E2.14440
G1 X92.505 Y72.987 E2.14475
G1 X92.538 Y72.929 E2.14535
G1 X96.755 Y70.494 E2.18917
G1 X96.822 Y70.494 E2.18977
G1 X96.822 Y70.456 E2.19011
G1 X96.855 Y70.437 E2.19046
G1 X96.822 Y70.379 E2.19106
G1 X96.822 Y63.095 E2.25661
G1 X97.398 Y63.428 E2.26260
G1 X98.791 Y64.742 E2.27984
G1 X99.843 Y66.342 E2.29707
G1 X100.498 Y68.142 E2.31431
G1 X100.721 Y70.044 E2.33155
G1 X100.505 Y71.892 E2.34829
G1 X99.843 Y73.747 E2.36601
G1 X98.791 Y75.347 E2.38325
G1 X97.398 Y76.661 E2.40049
G1 X96.522 Y77.167 E2.40959
G1 X96.522 Y121.722 E2.81059
G1 X97.398 Y122.228 E2.81969
G1 X98.791 Y123.542 E2.83693
G1 X99.843 Y125.142 E2.85416
G1 X100.498 Y126.942 E2.87140
G1 X100.721 Y128.844 E2.88864
G1 X100.498 Y130.747 E2.90588
G1 X99.843 Y132.547 E2.92312
G1 X98.791 Y134.147 E2.94035
G1 X97.398 Y135.461 E2.95759
G1 X95.739 Y136.419 E2.97483
G1 X93.904 Y136.968 E2.99207
G1 X91.992 Y137.079 E3.00930
G1 X90.106 Y136.747 E3.02654
G1 X88.347 Y135.988 E3.04378
G1 X86.811 Y134.844 E3.06102
G1 X85.580 Y133.377 E3.07825
G1 X84.720 Y131.666 E3.09549
G1 X84.278 Y129.802 E3.11273
G1 X84.278 Y127.887 E3.12997
G1 X84.720 Y126.023 E3.14721
G1 X85.580 Y124.311 E3.16444
G1 X86.811 Y122.844 E3.18168
G1 X88.422 Y121.645 E3.19975
G1 X88.422 Y77.244 E3.59937
G1 X86.811 Y76.044 E3.61744
G1 X85.580 Y74.577 E3.63468
G1 X84.720 Y72.866 E3.65192
G1 X84.278 Y71.002 E3.66915
G1 X84.278 Y69.087 E3.68639
G1 X84.720 Y67.223 E3.70363
G1 X85.546 Y65.579 E3.72019
G1 F2400.000 E1.72019
G1 Z0.600 F9000.000
G92 E0
G1 X88.061 Y70.408 F9000.000
G1 X87.886 Y70.316 F9000.000
G1 Z0.300 F9000.000
G1 E2.00000 F2400.000
G1 X87.766 Y70.523 E2.00215 F2400.000
G1 X87.886 Y70.592 E2.00340
G1 X87.886 Y70.730 E2.00464
G1 X88.125 Y70.730 E2.00679
G1 X92.232 Y73.101 E2.04948
G1 X92.352 Y73.308 E2.05163
G1 X92.472 Y73.239 E2.05287
G1 X92.591 Y73.308 E2.05411
G1 X92.711 Y73.101 E2.05627
G1 X96.818 Y70.730 E2.09895
G1 X97.057 Y70.730 E2.10110
G1 X97.057 Y70.592 E2.10235
G1 X97.177 Y70.523 E2.10359
G1 X97.057 Y70.316 E2.10574
G1 X97.057 Y63.503 E2.16705 F2400.000
G1 X97.256 Y63.618 E2.16912
G1 X98.609 Y64.895 E2.18586
G1 X99.631 Y66.449 E2.20260
G1 X100.267 Y68.197 E2.21934
G1 X100.483 Y70.044 E2.23609
G1 X100.267 Y71.892 E2.25283
G1 X99.631 Y73.640 E2.26957
G1 X98.609 Y75.194 E2.28631
G1 X97.256 Y76.471 E2.30305
G1 X96.286 Y77.031 E2.31313
G1 X96.286 Y121.858 E2.71658
G1 X97.256 Y122.418 E2.72666
G1 X98.609 Y123.695 E2.74340
G1 X99.631 Y125.249 E2.76014
G1 X100.267 Y126.997 E2.77688
G1 X100.483 Y128.844 E2.79363
G1 X100.267 Y130.692 E2.81037
G1 X99.631 Y132.440 E2.82711
G1 X98.589 Y134.014 E2.84410
G1 X97.256 Y135.271 E2.86059
G1 X95.645 Y136.201 E2.87733
G1 X93.863 Y136.734 E2.89407
G1 X92.006 Y136.843 E2.91081
G1 X90.174 Y136.520 E2.92755
G1 X88.466 Y135.783 E2.94430
G1 X86.974 Y134.672 E2.96104
G1 X85.765 Y133.222 E2.97803
G1 X84.943 Y131.585 E2.99451
G1 X84.514 Y129.775 E3.01126
G1 X84.514 Y127.914 E3.02800
G1 X84.943 Y126.104 E3.04474
G1 X85.778 Y124.442 E3.06148
G1 X86.974 Y123.017 E3.07822
G1 X88.657 Y121.763 E3.09712
G1 X88.657 Y77.125 E3.49886
G1 X86.974 Y75.872 E3.51775
G1 X85.778 Y74.447 E3.53449
G1 X84.943 Y72.785 E3.55123
G1 X84.514 Y70.975 E3.56797
G1 X84.514 Y69.114 E3.58472
G1 X84.943 Y67.304 E3.60146
G1 X85.778 Y65.642 E3.61820
G1 X86.974 Y64.217 E3.63494
G1 X87.886 Y63.538 E3.64518
G1 X87.886 Y70.241 E3.70551
G1 F2400.000 E1.70551
G1 Z0.600 F9000.000
G92 E0
G1 X87.272 Y70.151 F9000.000
G1 X86.927 Y70.748 F9000.000
G1 X87.272 Y70.947 F9000.000
G1 X87.272 Y71.344 F9000.000
G1 X87.961 Y71.344 F9000.000
G1 X91.769 Y73.543 F9000.000
G1 X91.783 Y73.551 F9000.000
G1 X92.127 Y74.148 F9000.000
G1 X92.472 Y73.949 F9000.000
G1 X92.816 Y74.148 F9000.000
G1 X93.160 Y73.551 F9000.000
G1 X96.983 Y71.344 F9000.000
G1 X97.672 Y71.344 F9000.000
G1 X97.672 Y70.947 F9000.000
G1 X98.016 Y70.748 F9000.000
G1 X97.672 Y70.151 F9000.000
G1 X97.672 Y64.855 F9000.000
G1 X98.135 Y65.292 F9000.000
G1 X99.078 Y66.726 F9000.000
G1 X99.666 Y68.339 F9000.000
G1 X99.865 Y70.044 F9000.000
G1 X99.666 Y71.749 F9000.000
G1 X99.078 Y73.362 F9000.000
G1 X98.135 Y74.797 F9000.000
G1 X96.887 Y75.975 F9000.000
G1 X95.672 Y76.676 F9000.000
G1 X95.672 Y122.213 F9000.000
G1 X96.887 Y122.914 F9000.000
G1 X98.135 Y124.092 F9000.000
G1 X99.078 Y125.526 F9000.000
G1 X99.666 Y127.139 F9000.000
G1 X99.865 Y128.844 F9000.000
G1 X99.666 Y130.549 F9000.000
G1 X99.078 Y132.162 F9000.000
G1 X98.135 Y133.597 F9000.000
G1 X96.887 Y134.775 F9000.000
G1 X95.400 Y135.633 F9000.000
G1 X93.755 Y136.125 F9000.000
G1 X92.042 Y136.225 F9000.000
G1 X90.351 Y135.927 F9000.000
G1 X88.775 Y135.247 F9000.000
G1 X87.398 Y134.222 F9000.000
G1 X86.295 Y132.907 F9000.000
G1 X85.524 Y131.373 F9000.000
G1 X85.128 Y129.703 F9000.000
G1 X85.128 Y127.986 F9000.000
G1 X85.524 Y126.316 F9000.000
G1 X86.295 Y124.782 F9000.000
G1 X87.398 Y123.467 F9000.000
G1 X89.272 Y122.072 F9000.000
G1 X88.893 Y101.082 F9000.000
G1 Z0.300 F9000.000
G1 E2.00000 F2400.000
G1 X88.893 Y77.007 E2.21667 F2400.000
G1 X87.136 Y75.699 E2.23638
G1 X85.976 Y74.317 E2.25262
G1 X85.166 Y72.703 E2.26887
G1 X84.750 Y70.947 E2.28512
G1 X84.750 Y69.142 E2.30136
G1 X85.166 Y67.385 E2.31761
G1 X85.976 Y65.772 E2.33386
G1 X87.136 Y64.389 E2.35010
G1 X87.650 Y64.007 E2.35587
G1 X87.650 Y70.253 E2.41208
G1 X87.444 Y70.609 E2.41579
G1 X87.650 Y70.728 E2.41793
G1 X87.650 Y70.966 E2.42006
G1 X88.062 Y70.966 E2.42377
G1 X92.060 Y73.274 E2.46532
G1 X92.266 Y73.630 E2.46902
G1 X92.472 Y73.511 E2.47116
G1 X92.677 Y73.630 E2.47330
G1 X92.883 Y73.274 E2.47700
G1 X96.881 Y70.966 E2.51855
G1 X97.293 Y70.966 E2.52226
G1 X97.293 Y70.728 E2.52440
G1 X97.499 Y70.609 E2.52654
G1 X97.293 Y70.253 E2.53024
G1 X97.293 Y63.977 E2.58672
G1 X98.427 Y65.047 E2.60076
G1 X99.419 Y66.555 E2.61701 F2400.000
G1 X100.037 Y68.251 E2.63325
G1 X100.246 Y70.044 E2.64950
G1 X100.037 Y71.837 E2.66574
G1 X99.419 Y73.534 E2.68199
G1 X98.427 Y75.042 E2.69824
G1 X97.114 Y76.281 E2.71448
G1 X96.050 Y76.895 E2.72554
