; generated by Slic3r 1.2.0 on 2014-10-23 at 12:31:09

; external perimeters extrusion width = 0.50mm
; perimeters extrusion width = 0.72mm
; infill extrusion width = 0.72mm
; solid infill extrusion width = 0.72mm
; top infill extrusion width = 0.72mm

G21 ; set units to millimeters
M190 S65 ; wait for bed temperature to be reached
M104 S180 ; set temperature
G28 ; home all axes
M109 S180 ; wait for temperature to be reached
G90 ; use absolute coordinates
G92 E0
M82 ; use absolute distances for extrusion
M106 S89
G1 F2400.000 E-2.00000
G1 Z0.600 F9000.000
G92 E0
G1 X54.828 Y86.521 F9000.000
G1 Z0.300 F9000.000
G1 E2.00000 F2400.000
G1 X56.318 Y85.773 E2.02162 F1800.000
G1 X58.151 Y85.106 E2.04690
G1 X59.773 Y84.721 E2.06852
G1 X61.638 Y84.503 E2.09285
G1 X62.544 Y84.446 E2.10462
G1 X122.178 Y84.494 E2.87763
G1 X124.115 Y84.721 E2.90291 F1800.000
G1 X125.738 Y85.106 E2.92453
G1 X127.571 Y85.773 E2.94981
G1 X129.061 Y86.521 E2.97143
G1 X130.691 Y87.593 E2.99671
G1 X132.018 Y88.718 E3.01927
G1 X133.307 Y90.083 E3.04360
G1 X134.302 Y91.421 E3.06522
G1 X135.278 Y93.110 E3.09050
G1 X135.938 Y94.641 E3.11212
G1 X136.498 Y96.510 E3.13740
G1 X136.787 Y98.152 E3.15901
G1 X136.901 Y100.099 E3.18430
G1 X136.804 Y101.764 E3.20592
G1 X136.465 Y103.685 E3.23120
G1 X135.958 Y105.350 E3.25376
G1 X135.214 Y107.073 E3.27809
G1 X134.380 Y108.518 E3.29971
G1 X133.216 Y110.082 E3.32499
G1 X132.071 Y111.295 E3.34660
G1 X130.577 Y112.549 E3.37189
G1 X129.184 Y113.465 E3.39351
G1 X127.441 Y114.340 E3.41879
G1 X125.874 Y114.911 E3.44041
G1 X123.976 Y115.360 E3.46569
G1 X122.320 Y115.554 E3.48730
G1 X61.569 Y115.554 E4.27479
G1 X59.913 Y115.360 E4.29640
G1 X58.015 Y114.911 E4.32168
G1 X56.448 Y114.340 E4.34330
G1 X54.705 Y113.465 E4.36858
G1 X53.312 Y112.548 E4.39020
G1 X51.818 Y111.295 E4.41548
G1 X50.673 Y110.082 E4.43710
G1 X49.509 Y108.518 E4.46238
G1 X48.421 Y106.391 E4.49334
G1 X48.088 Y104.172 E4.52243
G1 X48.153 Y95.772 E4.63131
G1 X48.569 Y93.420 E4.66228
G1 X49.115 Y92.237 E4.67917
G1 X49.587 Y91.421 E4.69139
G1 X50.582 Y90.083 E4.71300
G1 X51.921 Y88.665 E4.73828
G1 X53.198 Y87.593 E4.75990
G1 X54.765 Y86.562 E4.78421
G1 X54.927 Y86.809 F9000.000
G1 X56.419 Y86.050 E4.80590 F1800.000
G1 X58.252 Y85.383 E4.83118
G1 X59.808 Y85.015 E4.85191
G1 X61.672 Y84.797 E4.87625
G1 X62.544 Y84.742 E4.88757
G1 X122.144 Y84.788 E5.66014
G1 X124.081 Y85.015 E5.68542 F1800.000
G1 X125.637 Y85.383 E5.70615
G1 X127.470 Y86.050 E5.73143
G1 X128.899 Y86.768 E5.75215
G1 X130.528 Y87.840 E5.77744
G1 X131.803 Y88.921 E5.79911
G1 X133.092 Y90.286 E5.82344
G1 X134.046 Y91.569 E5.84417
G1 X135.022 Y93.258 E5.86945
G1 X135.655 Y94.726 E5.89017
G1 X136.214 Y96.594 E5.91546
G1 X136.492 Y98.169 E5.93618
G1 X136.605 Y100.116 E5.96147
G1 X136.512 Y101.713 E5.98220
G1 X136.174 Y103.634 E6.00748
G1 X135.686 Y105.232 E6.02915
G1 X134.943 Y106.956 E6.05348
G1 X134.143 Y108.341 E6.07421
G1 X132.978 Y109.905 E6.09949
G1 X131.881 Y111.068 E6.12021
G1 X130.387 Y112.322 E6.14550
G1 X129.051 Y113.201 E6.16622
G1 X127.308 Y114.076 E6.19151
G1 X125.806 Y114.623 E6.21223
G1 X123.908 Y115.073 E6.23752
G1 X122.320 Y115.258 E6.25824
G1 X61.569 Y115.258 E7.04572
G1 X59.981 Y115.073 E7.06645
G1 X58.083 Y114.623 E7.09173
G1 X56.581 Y114.076 E7.11246
G1 X54.838 Y113.201 E7.13774
G1 X53.502 Y112.322 E7.15847
G1 X52.008 Y111.068 E7.18375
G1 X50.910 Y109.905 E7.20448
G1 X49.746 Y108.341 E7.22976
G1 X48.688 Y106.255 E7.26008
G1 X48.383 Y104.175 E7.28733
G1 X48.449 Y95.775 E7.39622
G1 X48.864 Y93.473 E7.42654
G1 X49.371 Y92.385 E7.44210
G1 X49.843 Y91.569 E7.45432
G1 X50.797 Y90.286 E7.47504
G1 X52.136 Y88.868 E7.50032
G1 X53.361 Y87.840 E7.52105
G1 X54.865 Y86.850 E7.54439
G1 X55.027 Y87.097 F9000.000
G1 X55.153 Y87.015 E7.54633 F1800.000
G1 X56.520 Y86.328 E7.56617
G1 X58.353 Y85.661 E7.59145
G1 X59.842 Y85.308 E7.61129
G1 X61.707 Y85.090 E7.63563
G1 X62.544 Y85.037 E7.64651
G1 X122.110 Y85.082 E8.41862
G1 X124.047 Y85.308 E8.44391 F1800.000
G1 X125.536 Y85.661 E8.46375
G1 X127.369 Y86.328 E8.48903
G1 X128.736 Y87.015 E8.50886
G1 X130.366 Y88.087 E8.53415
G1 X131.588 Y89.124 E8.55493
G1 X132.877 Y90.489 E8.57926
G1 X133.790 Y91.717 E8.59910
G1 X134.766 Y93.406 E8.62438
G1 X135.372 Y94.811 E8.64421
G1 X135.931 Y96.679 E8.66950
G1 X136.197 Y98.186 E8.68933
G1 X136.310 Y100.134 E8.71462
G1 X136.221 Y101.661 E8.73446
G1 X135.883 Y103.582 E8.75974
G1 X135.415 Y105.115 E8.78052
G1 X134.671 Y106.839 E8.80485
G1 X133.906 Y108.164 E8.82469
G1 X132.741 Y109.729 E8.84997
G1 X131.691 Y110.842 E8.86980
G1 X130.197 Y112.096 E8.89509
G1 X128.918 Y112.937 E8.91493
G1 X127.176 Y113.812 E8.94021
G1 X125.737 Y114.335 E8.96005
G1 X123.840 Y114.785 E8.98533
G1 X122.320 Y114.963 E9.00517
G1 X61.569 Y114.963 E9.79265
G1 X60.049 Y114.785 E9.81248
G1 X58.151 Y114.335 E9.83777
G1 X56.713 Y113.812 E9.85760
G1 X54.970 Y112.937 E9.88289
G1 X53.692 Y112.096 E9.90272
G1 X52.198 Y110.842 E9.92801
G1 X51.148 Y109.729 E9.94784
G1 X49.983 Y108.164 E9.97312
G1 X48.956 Y106.120 E10.00278
G1 X48.679 Y104.177 E10.02822
G1 X48.744 Y95.777 E10.13711
G1 X49.627 Y92.533 E10.18069
G1 X50.099 Y91.716 E10.19291
G1 X51.012 Y90.489 E10.21275
G1 X52.351 Y89.070 E10.23803
G1 X53.523 Y88.087 E10.25787
G1 X54.965 Y87.139 E10.28023
G1 X55.127 Y87.386 F9000.000
G1 X55.315 Y87.262 E10.28315 F1800.000
G1 X56.621 Y86.606 E10.30209
G1 X58.454 Y85.939 E10.32738
G1 X59.876 Y85.602 E10.34633
G1 X61.741 Y85.384 E10.37066
G1 X62.544 Y85.333 E10.38110
G1 X122.075 Y85.375 E11.15277
G1 X124.013 Y85.602 E11.17805 F1800.000
G1 X125.435 Y85.939 E11.19700
G1 X127.268 Y86.606 E11.22228
G1 X128.574 Y87.262 E11.24123
G1 X130.203 Y88.334 E11.26651
G1 X131.373 Y89.327 E11.28640
G1 X132.662 Y90.692 E11.31073
G1 X133.534 Y91.864 E11.32968
G1 X134.510 Y93.553 E11.35496
G1 X135.089 Y94.896 E11.37391
G1 X135.648 Y96.764 E11.39919
G1 X135.902 Y98.203 E11.41814
G1 X136.015 Y100.151 E11.44342
G1 X135.930 Y101.610 E11.46237
G1 X135.591 Y103.531 E11.48765
G1 X135.143 Y104.998 E11.50754
G1 X134.400 Y106.722 E11.53188
G1 X133.669 Y107.988 E11.55082
G1 X132.504 Y109.552 E11.57611
G1 X131.501 Y110.615 E11.59505
G1 X130.007 Y111.869 E11.62033
G1 X128.786 Y112.672 E11.63928
G1 X127.043 Y113.548 E11.66456
G1 X125.669 Y114.048 E11.68351
G1 X123.771 Y114.498 E11.70879
G1 X122.320 Y114.667 E11.72774
G1 X61.569 Y114.667 E12.51522
G1 X60.117 Y114.498 E12.53417
G1 X58.220 Y114.048 E12.55945
G1 X56.846 Y113.548 E12.57840
G1 X55.103 Y112.672 E12.60368
G1 X53.882 Y111.869 E12.62263
G1 X52.388 Y110.615 E12.64791
G1 X51.385 Y109.552 E12.66686
G1 X50.220 Y107.988 E12.69214
G1 X49.225 Y105.986 E12.72112
G1 X48.974 Y104.179 E12.74477
G1 X49.040 Y95.779 E12.85366
G1 X49.883 Y92.681 E12.89528
G1 X50.355 Y91.864 E12.90750
G1 X51.227 Y90.692 E12.92645
G1 X52.566 Y89.273 E12.95173
G1 X53.685 Y88.334 E12.97068
G1 X55.064 Y87.427 E12.99207
G1 F2400.000 E10.99207
G1 Z0.600 F9000.000
G92 E0
G1 X58.606 Y92.812 F9000.000
G1 Z0.300 F9000.000
G1 E2.00000 F2400.000
G1 X58.842 Y92.657 E2.00292 F1800.000
G1 X60.642 Y92.002 E2.02271
G1 X62.544 Y91.779 E2.04249
G1 X64.447 Y92.002 E2.06228
G1 X66.247 Y92.657 E2.08207
G1 X67.847 Y93.709 E2.10186
G1 X69.161 Y95.102 E2.12165
G1 X69.667 Y95.978 E2.13210
G1 X114.222 Y95.978 E2.59242
G1 X114.728 Y95.102 E2.60287
G1 X116.042 Y93.709 E2.62266
G1 X117.642 Y92.657 E2.64245
G1 X119.442 Y92.002 E2.66224
G1 X121.344 Y91.779 E2.68203
G1 X123.192 Y91.995 E2.70124
G1 X125.047 Y92.657 E2.72159 F1800.000
G1 X126.647 Y93.709 E2.74138
G1 X127.961 Y95.102 E2.76116
G1 X128.919 Y96.761 E2.78095
G1 X129.468 Y98.596 E2.80074
G1 X129.579 Y100.508 E2.82053
G1 X129.247 Y102.394 E2.84032
G1 X128.488 Y104.153 E2.86010
G1 X127.344 Y105.689 E2.87989
G1 X125.877 Y106.920 E2.89968
G1 X124.166 Y107.780 E2.91947
G1 X122.302 Y108.222 E2.93926
G1 X120.387 Y108.222 E2.95905
G1 X118.523 Y107.780 E2.97883
G1 X116.811 Y106.920 E2.99862
G1 X115.344 Y105.689 E3.01841
G1 X114.145 Y104.078 E3.03916
G1 X69.744 Y104.078 E3.49790
G1 X68.544 Y105.689 E3.51864
G1 X67.077 Y106.920 E3.53843
G1 X65.366 Y107.780 E3.55822
G1 X63.502 Y108.222 E3.57801
G1 X61.587 Y108.222 E3.59780
G1 X59.723 Y107.780 E3.61759
G1 X58.011 Y106.920 E3.63737
G1 X56.544 Y105.689 E3.65716
G1 X55.568 Y104.378 E3.67404
G1 X62.879 Y104.378 E3.74957
G1 X62.937 Y104.412 E3.75026
G1 X62.956 Y104.378 E3.75066
G1 X62.994 Y104.378 E3.75106
G1 X62.994 Y104.312 E3.75175
G1 X65.429 Y100.095 E3.80205
G1 X65.487 Y100.062 E3.80274
G1 X65.467 Y100.028 E3.80314
G1 X65.487 Y99.995 E3.80354
G1 X65.429 Y99.962 E3.80423
G1 X62.994 Y95.745 E3.85453
G1 X62.994 Y95.678 E3.85522
G1 X62.956 Y95.678 E3.85562
G1 X62.937 Y95.645 E3.85601
G1 X62.879 Y95.678 E3.85670
G1 X55.595 Y95.678 E3.93196
G1 X55.928 Y95.102 E3.93883
G1 X57.242 Y93.709 E3.95861
G1 X58.544 Y92.853 E3.97471
G1 F2400.000 E1.97471
G1 Z0.600 F9000.000
G92 E0
G1 X123.341 Y92.472 F9000.000
G1 X123.401 Y92.309 F9000.000
G1 Z0.300 F9000.000
G1 E2.00000 F2400.000
G1 X124.940 Y92.869 E2.01692 F1800.000
G1 X126.494 Y93.891 E2.03614
G1 X127.771 Y95.244 E2.05536
G1 X128.701 Y96.855 E2.07458
G1 X129.234 Y98.637 E2.09380
G1 X129.343 Y100.494 E2.11302
G1 X129.020 Y102.326 E2.13224
G1 X128.283 Y104.034 E2.15146
G1 X127.172 Y105.526 E2.17068
G1 X125.747 Y106.722 E2.18990
G1 X124.085 Y107.557 E2.20911
G1 X122.275 Y107.986 E2.22833
G1 X120.414 Y107.986 E2.24755
G1 X118.604 Y107.557 E2.26677
G1 X116.942 Y106.722 E2.28599
G1 X115.517 Y105.526 E2.30521
G1 X114.263 Y103.843 E2.32690
G1 X69.625 Y103.843 E2.78808
G1 X68.372 Y105.526 E2.80977
G1 X66.947 Y106.722 E2.82898
G1 X65.257 Y107.563 E2.84849
G1 X63.475 Y107.986 E2.86742
G1 X61.614 Y107.986 E2.88663
G1 X59.804 Y107.557 E2.90585
G1 X58.142 Y106.722 E2.92507
G1 X56.717 Y105.526 E2.94429
G1 X56.038 Y104.614 E2.95604
G1 X62.816 Y104.614 E3.02607
G1 X63.023 Y104.734 E3.02854
G1 X63.092 Y104.614 E3.02997
G1 X63.230 Y104.614 E3.03140
G1 X63.230 Y104.375 E3.03387
G1 X65.601 Y100.268 E3.08287
G1 X65.808 Y100.148 E3.08534
G1 X65.739 Y100.028 E3.08677
G1 X65.808 Y99.909 E3.08819
G1 X65.601 Y99.789 E3.09066
G1 X63.230 Y95.682 E3.13966
G1 X63.230 Y95.443 E3.14213
G1 X63.092 Y95.443 E3.14356
G1 X63.023 Y95.323 E3.14499
G1 X62.816 Y95.443 E3.14746
G1 X56.003 Y95.443 E3.21784
G1 X56.118 Y95.244 E3.22021
G1 X57.395 Y93.891 E3.23943
G1 X58.949 Y92.869 E3.25865
G1 X60.697 Y92.233 E3.27787
G1 X62.544 Y92.017 E3.29709
G1 X64.392 Y92.233 E3.31631
G1 X66.140 Y92.869 E3.33553
G1 X67.694 Y93.891 E3.35474
G1 X68.971 Y95.244 E3.37396
G1 X69.531 Y96.214 E3.38553
G1 X114.358 Y96.214 E3.84867
G1 X114.918 Y95.244 E3.86024
G1 X116.195 Y93.891 E3.87946
G1 X117.749 Y92.869 E3.89868
G1 X119.497 Y92.233 E3.91790
G1 X121.317 Y92.020 E3.93683
G1 X123.192 Y92.233 E3.95633 F1800.000
G1 X123.330 Y92.283 E3.95785
G1 F2400.000 E1.95785
G1 Z0.600 F9000.000
G92 E0
G1 X128.958 Y101.318 F9000.000
G1 Z0.300 F9000.000
G1 E2.00000 F2400.000
G1 X128.792 Y102.258 E2.00987 F1800.000
G1 X128.077 Y103.916 E2.02852
G1 X126.999 Y105.364 E2.04717
G1 X125.617 Y106.524 E2.06582
G1 X124.003 Y107.334 E2.08447
G1 X122.247 Y107.750 E2.10312
G1 X120.442 Y107.750 E2.12177
G1 X118.685 Y107.334 E2.14042
G1 X117.072 Y106.524 E2.15907
G1 X115.689 Y105.364 E2.17772
G1 X114.382 Y103.607 E2.20034
G1 X69.507 Y103.607 E2.66397
G1 X68.199 Y105.364 E2.68660
G1 X66.817 Y106.524 E2.70524
G1 X65.203 Y107.334 E2.72389
G1 X63.447 Y107.750 E2.74254
G1 X61.642 Y107.750 E2.76120
G1 X59.885 Y107.334 E2.77985
G1 X58.272 Y106.524 E2.79850
G1 X56.889 Y105.364 E2.81714
G1 X56.507 Y104.850 E2.82377
G1 X62.753 Y104.850 E2.88829
G1 X63.109 Y105.056 E2.89255
G1 X63.228 Y104.850 E2.89500
G1 X63.466 Y104.850 E2.89746
G1 X63.466 Y104.438 E2.90171
G1 X65.774 Y100.440 E2.94941
G1 X66.130 Y100.234 E2.95366
G1 X66.011 Y100.028 E2.95612
G1 X66.130 Y99.823 E2.95857
G1 X65.774 Y99.617 E2.96282
G1 X63.466 Y95.619 E3.01052
G1 X63.466 Y95.207 E3.01477
G1 X63.228 Y95.207 E3.01723
G1 X63.109 Y95.001 E3.01968
G1 X62.753 Y95.207 E3.02394
G1 X56.477 Y95.207 E3.08878
G1 X57.547 Y94.073 E3.10489
G1 X59.055 Y93.081 E3.12354
G1 X60.751 Y92.463 E3.14219
G1 X62.544 Y92.254 E3.16084
G1 X64.337 Y92.463 E3.17949
G1 X66.034 Y93.081 E3.19814
G1 X67.542 Y94.073 E3.21679
G1 X68.780 Y95.386 E3.23544
G1 X69.395 Y96.450 E3.24813
G1 X114.494 Y96.450 E3.71408
G1 X115.108 Y95.386 E3.72677
G1 X116.347 Y94.073 E3.74542
G1 X117.855 Y93.081 E3.76407
G1 X119.551 Y92.463 E3.78272
G1 X121.344 Y92.254 E3.80137
G1 X123.137 Y92.463 E3.82002
G1 X124.834 Y93.081 E3.83867 F1800.000
G1 X126.342 Y94.073 E3.85732
G1 X127.580 Y95.386 E3.87597
G1 X128.483 Y96.949 E3.89462
G1 X129.001 Y98.678 E3.91327
G1 X129.106 Y100.480 E3.93192
G1 X128.971 Y101.244 E3.93993
G1 F2400.000 E1.93993
G1 Z0.600 F9000.000
G92 E0
G1 X126.387 Y100.062 F9000.000
G1 Z0.300 F9000.000
G1 E2.00000 F2400.000
G1 X126.329 Y100.095 E2.00069 F1800.000
G1 X123.894 Y104.312 E2.05099
G1 X123.894 Y104.378 E2.05168
G1 X123.856 Y104.378 E2.05208
G1 X123.837 Y104.412 E2.05248
G1 X123.779 Y104.378 E2.05317
G1 X118.910 Y104.378 E2.10347
G1 X118.852 Y104.412 E2.10416
G1 X118.833 Y104.378 E2.10456
G1 X118.794 Y104.378 E2.10496
G1 X118.794 Y104.312 E2.10565
G1 X116.360 Y100.095 E2.15595
G1 X116.302 Y100.062 E2.15664
G1 X116.321 Y100.028 E2.15704
G1 X116.302 Y99.995 E2.15743
G1 X116.360 Y99.962 E2.15812
G1 X118.794 Y95.745 E2.20843
G1 X118.794 Y95.678 E2.20912
G1 X118.833 Y95.678 E2.20951
G1 X118.852 Y95.645 E2.20991
G1 X118.910 Y95.678 E2.21060
G1 X123.779 Y95.678 E2.26090
G1 X123.837 Y95.645 E2.26159
G1 X123.856 Y95.678 E2.26199
G1 X123.894 Y95.678 E2.26239 F1800.000
G1 X123.894 Y95.745 E2.26308
G1 X126.329 Y99.962 E2.31338
G1 X126.386 Y99.997 E2.31407
G1 F2400.000 E0.31407
G1 Z0.600 F9000.000
G92 E0
G1 X123.849 Y95.640 F9000.000
G1 X123.730 Y95.434 F9000.000
G1 Z0.300 F9000.000
G1 E2.00000 F2400.000
G1 X123.923 Y95.323 E2.00230 F1800.000
G1 X123.992 Y95.443 E2.00373
G1 X124.130 Y95.443 E2.00515
G1 X124.130 Y95.682 E2.00762
G1 X126.501 Y99.789 E2.05662
G1 X126.708 Y99.909 E2.05909
G1 X126.639 Y100.028 E2.06052
G1 X126.708 Y100.148 E2.06195
G1 X126.501 Y100.268 E2.06442
G1 X124.130 Y104.375 E2.11342
G1 X124.130 Y104.614 E2.11589
G1 X123.992 Y104.614 E2.11732
G1 X123.923 Y104.734 E2.11874
G1 X123.716 Y104.614 E2.12121
G1 X118.973 Y104.614 E2.17021
G1 X118.766 Y104.734 E2.17268
G1 X118.697 Y104.614 E2.17411
G1 X118.559 Y104.614 E2.17554
G1 X118.559 Y104.375 E2.17801
G1 X116.188 Y100.268 E2.22701
G1 X115.980 Y100.148 E2.22948
G1 X116.049 Y100.028 E2.23091
G1 X115.980 Y99.909 E2.23233
G1 X116.188 Y99.789 E2.23481
G1 X118.559 Y95.682 E2.28380
G1 X118.559 Y95.443 E2.28628
G1 X118.697 Y95.443 E2.28770
G1 X118.766 Y95.323 E2.28913
G1 X118.973 Y95.443 E2.29160
G1 X123.657 Y95.443 E2.34000
G1 X123.653 Y95.207 F9000.000
G1 X124.009 Y95.001 E2.34425 F1800.000
G1 X124.128 Y95.207 E2.34671
G1 X124.366 Y95.207 E2.34916 F1800.000
G1 X124.366 Y95.619 E2.35342
G1 X126.674 Y99.617 E2.40111
G1 X127.030 Y99.823 E2.40536
G1 X126.911 Y100.028 E2.40782
G1 X127.030 Y100.234 E2.41028
G1 X126.674 Y100.440 E2.41453
G1 X124.366 Y104.438 E2.46222
G1 X124.366 Y104.850 E2.46648
G1 X124.128 Y104.850 E2.46893
G1 X124.009 Y105.056 E2.47139
G1 X123.653 Y104.850 E2.47564
G1 X119.036 Y104.850 E2.52334
G1 X118.680 Y105.055 E2.52759
G1 X118.561 Y104.850 E2.53004
G1 X118.323 Y104.850 E2.53250
G1 X118.323 Y104.438 E2.53675
G1 X116.015 Y100.440 E2.58445
G1 X115.658 Y100.234 E2.58870
G1 X115.777 Y100.028 E2.59116
G1 X115.658 Y99.822 E2.59361
G1 X116.015 Y99.617 E2.59787
G1 X118.323 Y95.619 E2.64556
G1 X118.323 Y95.207 E2.64982
G1 X118.561 Y95.207 E2.65227
G1 X118.680 Y95.001 E2.65473
G1 X119.036 Y95.207 E2.65898
G1 X123.578 Y95.207 E2.70590
G1 X124.516 Y95.499 F9000.000
G1 X128.921 Y99.904 E2.77026 F1800.000
G1 X128.900 Y99.549 E2.77393
G1 X121.812 Y92.460 E2.87750
G1 X122.190 Y92.505 E2.88144
G1 X128.880 Y99.194 E2.97918
G1 X128.859 Y98.839 E2.98286
G1 X122.569 Y92.549 E3.07476
G1 X122.948 Y92.593 E3.07870
G1 X128.762 Y98.408 E3.16366
G1 X128.619 Y97.930 E3.16881
G1 X123.414 Y92.724 E3.24487
G1 X123.939 Y92.916 F9000.000
G1 X128.477 Y97.453 E3.31117 F1800.000
G1 X128.312 Y96.954 E3.31660
G1 X124.465 Y93.107 E3.37280
G1 X125.184 Y93.492 F9000.000
