; generated by Slic3r 1.2.0 on 2014-10-23 at 10:22:50

; external perimeters extrusion width = 0.50mm
; perimeters extrusion width = 0.72mm
; infill extrusion width = 0.72mm
; solid infill extrusion width = 0.72mm
; top infill extrusion width = 0.72mm

G21 ; set units to millimeters
M190 S65 ; wait for bed temperature to be reached
M104 S180 ; set temperature
G28 ; home all axes
M109 S180 ; wait for temperature to be reached
G90 ; use absolute coordinates
G92 E0
M82 ; use absolute distances for extrusion
M106 S89
G1 F2400.000 E-2.00000
G1 Z0.600 F9000.000
G92 E0
G1 X81.453 Y68.518 F9000.000
G1 Z0.300 F9000.000
G1 E2.00000 F2400.000
G1 X83.003 Y66.847 E2.02052 F2400.000
G1 X84.495 Y65.657 E2.03769
G1 X86.645 Y64.451 E2.05988
G1 X89.363 Y63.989 E2.08469
G1 X95.763 Y64.072 E2.14230
G1 X98.191 Y64.500 E2.16449 F2400.000
G1 X99.489 Y65.096 E2.17734
G1 X100.279 Y65.552 E2.18555
G1 X102.062 Y66.974 E2.20607
G1 X103.360 Y68.372 E2.22324
G1 X104.644 Y70.256 E2.24376
G1 X105.472 Y71.975 E2.26093
G1 X106.144 Y74.154 E2.28145
G1 X106.514 Y77.180 E2.30890
G1 X106.428 Y123.120 E2.72236
G1 X106.144 Y125.007 E2.73953
G1 X105.472 Y127.186 E2.76005
G1 X104.644 Y128.904 E2.77722
G1 X103.360 Y130.788 E2.79774
G1 X102.062 Y132.187 E2.81491
G1 X100.279 Y133.608 E2.83543
G1 X98.627 Y134.562 E2.85260
G1 X96.505 Y135.395 E2.87312
G1 X94.645 Y135.820 E2.89029
G1 X92.371 Y135.990 E2.91081
G1 X90.468 Y135.848 E2.92798
G1 X88.246 Y135.340 E2.94850
G1 X86.470 Y134.644 E2.96567
G1 X84.495 Y133.503 E2.98619
G1 X83.003 Y132.314 E3.00336
G1 X81.453 Y130.643 E3.02388
G1 X80.378 Y129.066 E3.04105
G1 X79.389 Y127.012 E3.06157
G1 X78.826 Y125.189 E3.07875
G1 X78.486 Y122.934 E3.09927
G1 X78.486 Y76.226 E3.51964
G1 X78.826 Y73.972 E3.54016
G1 X79.389 Y72.149 E3.55733
G1 X80.378 Y70.094 E3.57785
G1 X81.410 Y68.580 E3.59434
G1 X81.605 Y68.713 F9000.000
G1 X83.150 Y67.031 E3.61490 F2400.000
G1 X84.642 Y65.841 E3.63207
G1 X86.762 Y64.659 E3.65391
G1 X89.360 Y64.225 E3.67762
G1 X95.760 Y64.307 E3.73523
G1 X98.149 Y64.735 E3.75707 F2400.000
G1 X99.371 Y65.300 E3.76919
G1 X100.161 Y65.756 E3.77740
G1 X101.889 Y67.134 E3.79729
G1 X103.187 Y68.533 E3.81446
G1 X104.432 Y70.358 E3.83435
G1 X105.259 Y72.077 E3.85152
G1 X105.911 Y74.189 E3.87141
G1 X106.278 Y77.180 E3.89853
G1 X106.195 Y123.085 E4.31168
G1 X105.911 Y124.972 E4.32885
G1 X105.259 Y127.083 E4.34874
G1 X104.432 Y128.802 E4.36591
G1 X103.187 Y130.628 E4.38580
G1 X101.889 Y132.027 E4.40297
G1 X100.162 Y133.404 E4.42285
G1 X98.509 Y134.358 E4.44002
G1 X96.452 Y135.166 E4.45991
G1 X94.592 Y135.590 E4.47708
G1 X92.389 Y135.755 E4.49697
G1 X90.486 Y135.613 E4.51414
G1 X88.332 Y135.121 E4.53403
G1 X86.556 Y134.424 E4.55120
G1 X84.642 Y133.319 E4.57109
G1 X83.150 Y132.130 E4.58826
G1 X81.647 Y130.510 E4.60815
G1 X80.573 Y128.934 E4.62532
G1 X79.614 Y126.942 E4.64521
G1 X79.051 Y125.119 E4.66238
G1 X78.722 Y122.934 E4.68227
G1 X78.722 Y76.226 E5.10264
G1 X79.051 Y74.041 E5.12253
G1 X79.614 Y72.218 E5.13970
G1 X80.573 Y70.227 E5.15959
G1 X81.563 Y68.775 E5.17541
G1 X81.757 Y68.907 F9000.000
G1 X81.842 Y68.783 E5.17676 F2400.000
G1 X83.297 Y67.215 E5.19601
G1 X84.789 Y66.026 E5.21318
G1 X86.877 Y64.868 E5.23467
G1 X89.357 Y64.460 E5.25729
G1 X95.757 Y64.543 E5.31489
G1 X98.106 Y64.970 E5.33639 F2400.000
G1 X99.253 Y65.504 E5.34777
G1 X100.044 Y65.960 E5.35599
G1 X101.717 Y67.294 E5.37524
G1 X103.014 Y68.693 E5.39241
G1 X104.219 Y70.461 E5.41167
G1 X105.047 Y72.179 E5.42884
G1 X105.678 Y74.224 E5.44810
G1 X106.042 Y77.180 E5.47490
G1 X105.962 Y123.050 E5.88773
G1 X105.678 Y124.937 E5.90490
G1 X105.047 Y126.981 E5.92416
G1 X104.219 Y128.700 E5.94133
G1 X103.014 Y130.468 E5.96059
G1 X101.717 Y131.866 E5.97776
G1 X100.044 Y133.200 E5.99701
G1 X98.392 Y134.154 E6.01418
G1 X96.400 Y134.936 E6.03344
G1 X94.540 Y135.360 E6.05061
G1 X92.406 Y135.520 E6.06987
G1 X90.504 Y135.378 E6.08704
G1 X88.418 Y134.902 E6.10629
G1 X86.642 Y134.205 E6.12346
G1 X84.789 Y133.135 E6.14272
G1 X83.297 Y131.945 E6.15989
G1 X81.842 Y130.377 E6.17914
G1 X80.767 Y128.801 E6.19632
G1 X79.839 Y126.873 E6.21557
G1 X79.277 Y125.050 E6.23274
G1 X78.958 Y122.934 E6.25200
G1 X78.958 Y76.226 E6.67237
G1 X79.276 Y74.111 E6.69163
G1 X79.839 Y72.288 E6.70880
G1 X80.767 Y70.360 E6.72806
G1 X81.715 Y68.969 E6.74320
G1 X81.910 Y69.102 F9000.000
G1 X82.037 Y68.916 E6.74522 F2400.000
G1 X83.444 Y67.399 E6.76385
G1 X84.936 Y66.210 E6.78102
G1 X86.993 Y65.077 E6.80215
G1 X89.354 Y64.696 E6.82368
G1 X95.754 Y64.778 E6.88128
G1 X98.063 Y65.205 E6.90242 F2400.000
G1 X99.136 Y65.708 E6.91308
G1 X99.926 Y66.164 E6.92129
G1 X101.544 Y67.455 E6.93992
G1 X102.841 Y68.853 E6.95709
G1 X104.007 Y70.563 E6.97571
G1 X104.835 Y72.282 E6.99288
G1 X105.445 Y74.259 E7.01150
G1 X105.807 Y77.180 E7.03800
G1 X105.729 Y123.015 E7.45051
G1 X105.445 Y124.901 E7.46768
G1 X104.835 Y126.879 E7.48630
G1 X104.007 Y128.598 E7.50347
G1 X102.841 Y130.307 E7.52210
G1 X101.544 Y131.706 E7.53927
G1 X99.926 Y132.996 E7.55789
G1 X98.274 Y133.950 E7.57506
G1 X96.347 Y134.706 E7.59369
G1 X94.487 Y135.131 E7.61086
G1 X92.424 Y135.285 E7.62948
G1 X90.521 Y135.143 E7.64665
G1 X88.504 Y134.682 E7.66527
G1 X86.728 Y133.986 E7.68244
G1 X84.936 Y132.951 E7.70107
G1 X83.444 Y131.761 E7.71824
G1 X82.037 Y130.244 E7.73686
G1 X80.962 Y128.668 E7.75403
G1 X80.064 Y126.804 E7.77266
G1 X79.502 Y124.980 E7.78983
G1 X79.193 Y122.934 E7.80846
G1 X79.193 Y76.226 E8.22883
G1 X79.502 Y74.180 E8.24745
G1 X80.064 Y72.357 E8.26462
G1 X80.962 Y70.492 E8.28325
G1 X81.868 Y69.164 E8.29772
G1 X82.062 Y69.297 F9000.000
G1 X82.231 Y69.049 E8.30042 F2400.000
G1 X83.591 Y67.584 E8.31841
G1 X85.083 Y66.394 E8.33558
G1 X87.107 Y65.287 E8.35635
G1 X89.351 Y64.931 E8.37679
G1 X95.751 Y65.014 E8.43439
G1 X99.018 Y65.912 E8.46489 F2400.000
G1 X99.808 Y66.368 E8.47310
G1 X101.371 Y67.615 E8.49109
G1 X102.669 Y69.013 E8.50826
G1 X103.795 Y70.665 E8.52626
G1 X104.623 Y72.384 E8.54342
G1 X105.212 Y74.294 E8.56142
G1 X105.571 Y77.180 E8.58759
G1 X105.496 Y122.980 E8.99979
G1 X105.212 Y124.866 E9.01696
G1 X104.623 Y126.777 E9.03495
G1 X103.795 Y128.495 E9.05212
G1 X102.669 Y130.147 E9.07011
G1 X101.371 Y131.546 E9.08728
G1 X99.808 Y132.792 E9.10528
G1 X98.156 Y133.746 E9.12245
G1 X96.295 Y134.477 E9.14044
G1 X94.435 Y134.901 E9.15761
G1 X92.441 Y135.050 E9.17560
G1 X90.539 Y134.908 E9.19277
G1 X88.590 Y134.463 E9.21076
G1 X86.814 Y133.766 E9.22793
G1 X85.083 Y132.766 E9.24593
G1 X83.591 Y131.577 E9.26310
G1 X82.231 Y130.112 E9.28109
G1 X81.157 Y128.535 E9.29826
G1 X80.289 Y126.734 E9.31625
G1 X79.727 Y124.911 E9.33342
G1 X79.429 Y122.934 E9.35142
G1 X79.429 Y76.226 E9.77179
G1 X79.727 Y74.250 E9.78978
G1 X80.289 Y72.426 E9.80695
G1 X81.157 Y70.625 E9.82494
G1 X82.020 Y69.359 E9.83874
G1 X82.215 Y69.492 F9000.000
G1 X82.426 Y69.182 E9.84211 F2400.000
G1 X83.738 Y67.768 E9.85947
G1 X85.229 Y66.578 E9.87664
G1 X87.222 Y65.497 E9.89704
G1 X89.348 Y65.167 E9.91640
G1 X95.748 Y65.250 E9.97401
G1 X98.900 Y66.116 E10.00343 F2400.000
G1 X99.690 Y66.572 E10.01164
G1 X101.198 Y67.775 E10.02900
G1 X102.496 Y69.174 E10.04618
G1 X103.583 Y70.767 E10.06353
G1 X104.410 Y72.486 E10.08070
G1 X104.979 Y74.329 E10.09807
G1 X105.335 Y77.180 E10.12392
G1 X105.263 Y122.945 E10.53580
G1 X104.979 Y124.831 E10.55297
G1 X104.410 Y126.674 E10.57033
G1 X103.583 Y128.393 E10.58750
G1 X102.496 Y129.987 E10.60486
G1 X101.198 Y131.385 E10.62203
G1 X99.690 Y132.588 E10.63939
G1 X98.038 Y133.542 E10.65656
G1 X96.243 Y134.247 E10.67392
G1 X94.382 Y134.671 E10.69110
G1 X92.459 Y134.815 E10.70846
G1 X90.556 Y134.673 E10.72563
G1 X88.676 Y134.244 E10.74298
G1 X86.900 Y133.547 E10.76015
G1 X85.229 Y132.582 E10.77752
G1 X83.738 Y131.393 E10.79469
G1 X82.426 Y129.979 E10.81205
G1 X81.351 Y128.403 E10.82922
G1 X80.514 Y126.665 E10.84658
G1 X79.952 Y124.842 E10.86375
G1 X79.665 Y122.934 E10.88111
G1 X79.665 Y76.226 E11.30148
G1 X79.952 Y74.319 E11.31884
G1 X80.514 Y72.496 E11.33601
G1 X81.351 Y70.758 E11.35337
G1 X82.172 Y69.553 E11.36649
G1 X82.367 Y69.686 F9000.000
G1 X82.621 Y69.314 E11.37054 F2400.000
G1 X83.885 Y67.952 E11.38727
G1 X85.376 Y66.762 E11.40444
G1 X87.335 Y65.708 E11.42446
G1 X89.345 Y65.403 E11.44275
G1 X95.745 Y65.485 E11.50036
G1 X98.782 Y66.320 E11.52871 F2400.000
G1 X99.572 Y66.776 E11.53692
G1 X101.026 Y67.935 E11.55365
G1 X102.323 Y69.334 E11.57082
G1 X103.370 Y70.869 E11.58755
G1 X104.198 Y72.588 E11.60472
G1 X104.746 Y74.364 E11.62145
G1 X105.100 Y77.180 E11.64699
G1 X105.030 Y122.910 E12.05855
G1 X104.746 Y124.796 E12.07572
G1 X104.198 Y126.572 E12.09245
G1 X103.370 Y128.291 E12.10962
G1 X102.323 Y129.827 E12.12635
G1 X101.026 Y131.225 E12.14352
G1 X99.572 Y132.384 E12.16025
G1 X97.920 Y133.338 E12.17742
G1 X96.190 Y134.017 E12.19414
G1 X94.330 Y134.442 E12.21132
G1 X92.477 Y134.581 E12.22804
G1 X90.574 Y134.438 E12.24522
G1 X88.762 Y134.024 E12.26194
G1 X86.986 Y133.328 E12.27911
G1 X85.376 Y132.398 E12.29584
G1 X83.885 Y131.208 E12.31301
G1 X82.621 Y129.846 E12.32974
G1 X81.546 Y128.270 E12.34691
G1 X80.739 Y126.595 E12.36364
G1 X80.177 Y124.772 E12.38081
G1 X79.900 Y122.934 E12.39754
G1 X79.900 Y76.226 E12.81791
G1 X80.177 Y74.389 E12.83463
G1 X80.739 Y72.565 E12.85180
G1 X81.546 Y70.891 E12.86853
G1 X82.325 Y69.748 E12.88098
G1 F2400.000 E10.88098
G1 Z0.600 F9000.000
G92 E0
G1 X87.601 Y73.345 F9000.000
G1 Z0.300 F9000.000
G1 E2.00000 F2400.000
G1 X87.884 Y72.930 E2.00452 F2400.000
G1 X89.114 Y71.949 E2.01868
G1 X89.114 Y77.425 E2.06797
G1 X89.076 Y77.492 E2.06866 F2400.000
G1 X89.114 Y77.514 E2.06907
G1 X89.114 Y77.559 E2.06947
G1 X89.191 Y77.559 E2.07016
G1 X92.387 Y79.404 E2.10337
G1 X92.426 Y79.471 E2.10407
G1 X92.464 Y79.449 E2.10447
G1 X92.503 Y79.471 E2.10487
G1 X92.541 Y79.404 E2.10556
G1 X95.737 Y77.559 E2.13877
G1 X95.814 Y77.559 E2.13947
G1 X95.814 Y77.514 E2.13987
G1 X95.853 Y77.492 E2.14027
G1 X95.814 Y77.425 E2.14096
G1 X95.814 Y71.980 E2.18997
G1 X96.360 Y72.295 E2.19564
G1 X97.627 Y73.661 E2.21240
G1 X98.435 Y75.339 E2.22917
G1 X98.713 Y77.180 E2.24593
G1 X98.435 Y79.022 E2.26269
G1 X97.627 Y80.700 E2.27945
G1 X96.360 Y82.065 E2.29622
G1 X95.514 Y82.554 E2.30501
G1 X95.514 Y116.607 E2.61149
G1 X96.360 Y117.095 E2.62028
G1 X97.627 Y118.461 E2.63704
G1 X98.435 Y120.139 E2.65380
G1 X98.713 Y121.980 E2.67056
G1 X98.435 Y123.822 E2.68733
G1 X97.627 Y125.500 E2.70409
G1 X96.360 Y126.865 E2.72085
G1 X94.713 Y127.804 E2.73791
G1 X92.931 Y128.211 E2.75436
G1 X91.074 Y128.072 E2.77113
G1 X89.340 Y127.391 E2.78789
G1 X87.884 Y126.230 E2.80465
G1 X86.835 Y124.691 E2.82141
G1 X86.286 Y122.912 E2.83818
G1 X86.286 Y121.049 E2.85494
G1 X86.835 Y119.269 E2.87170
G1 X87.884 Y117.730 E2.88846
G1 X89.414 Y116.510 E2.90608
G1 X89.414 Y82.651 E3.21081
G1 X87.884 Y81.430 E3.22843
G1 X86.835 Y79.891 E3.24519
G1 X86.286 Y78.112 E3.26196
G1 X86.286 Y76.249 E3.27872
G1 X86.835 Y74.469 E3.29548
G1 X87.559 Y73.407 E3.30705
G1 F2400.000 E1.30705
G1 Z0.600 F9000.000
G92 E0
G1 X89.043 Y77.455 F9000.000
G1 X88.879 Y77.362 F9000.000
G1 Z0.300 F9000.000
G1 E2.00000 F2400.000
G1 X88.754 Y77.578 E2.00225 F2400.000
G1 X88.879 Y77.650 E2.00354
G1 X88.879 Y77.794 E2.00484
G1 X89.128 Y77.794 E2.00709
G1 X92.215 Y79.576 E2.03916
G1 X92.339 Y79.793 E2.04141
G1 X92.464 Y79.721 E2.04271
G1 X92.589 Y79.793 E2.04401
G1 X92.714 Y79.576 E2.04626
G1 X95.800 Y77.794 E2.07833
G1 X96.050 Y77.794 E2.08058
G1 X96.050 Y77.650 E2.08187
G1 X96.175 Y77.578 E2.08317
G1 X96.050 Y77.362 E2.08542
G1 X96.050 Y72.388 E2.13018 F2400.000
G1 X96.211 Y72.481 E2.13186
G1 X97.430 Y73.795 E2.14799
G1 X98.207 Y75.409 E2.16411
G1 X98.474 Y77.180 E2.18023
G1 X98.207 Y78.952 E2.19636
G1 X97.430 Y80.566 E2.21248
G1 X96.211 Y81.879 E2.22860
G1 X95.279 Y82.418 E2.23830
G1 X95.279 Y116.743 E2.54722
G1 X96.211 Y117.281 E2.55692
G1 X97.430 Y118.595 E2.57304
G1 X98.207 Y120.209 E2.58917
G1 X98.474 Y121.980 E2.60529
G1 X98.207 Y123.752 E2.62141
G1 X97.430 Y125.366 E2.63754
G1 X96.211 Y126.679 E2.65366
G1 X94.660 Y127.575 E2.66978
G1 X92.913 Y127.973 E2.68591
G1 X91.127 Y127.840 E2.70203
G1 X89.459 Y127.185 E2.71815
G1 X88.059 Y126.068 E2.73428
G1 X87.049 Y124.588 E2.75040
G1 X86.521 Y122.876 E2.76652
G1 X86.521 Y121.084 E2.78265
G1 X87.049 Y119.373 E2.79877
G1 X88.059 Y117.892 E2.81489
G1 X89.650 Y116.623 E2.83321
G1 X89.650 Y82.537 E3.13999
G1 X88.059 Y81.268 E3.15831
G1 X87.049 Y79.788 E3.17443
G1 X86.521 Y78.076 E3.19055
G1 X86.521 Y76.284 E3.20668
G1 X87.049 Y74.573 E3.22280
G1 X88.059 Y73.092 E3.23892
G1 X88.879 Y72.438 E3.24836
G1 X88.879 Y77.287 E3.29200
G1 F2400.000 E1.29200
G1 Z0.600 F9000.000
G92 E0
G1 X95.043 Y98.760 F9000.000
G1 Z0.300 F9000.000
G1 E2.00000 F2400.000
G1 X95.043 Y116.879 E2.16307 F2400.000
G1 X96.063 Y117.468 E2.17367
G1 X97.233 Y118.729 E2.18916
G1 X97.980 Y120.279 E2.20464
G1 X98.236 Y121.980 E2.22012
G1 X97.980 Y123.681 E2.23561
G1 X97.233 Y125.232 E2.25109
G1 X96.063 Y126.493 E2.26658
G1 X94.573 Y127.353 E2.28206
G1 X92.896 Y127.736 E2.29755
G1 X91.180 Y127.607 E2.31303
G1 X89.578 Y126.979 E2.32851
G1 X88.233 Y125.906 E2.34400
G1 X87.264 Y124.485 E2.35948
G1 X86.757 Y122.841 E2.37497
G1 X86.757 Y121.120 E2.39045
G1 X87.264 Y119.476 E2.40594
G1 X88.233 Y118.054 E2.42142
G1 X89.885 Y116.737 E2.44044
G1 X89.885 Y82.424 E2.74926
G1 X88.233 Y81.106 E2.76828
G1 X87.264 Y79.685 E2.78376
G1 X86.757 Y78.041 E2.79925
G1 X86.757 Y76.320 E2.81473
G1 X87.264 Y74.676 E2.83021
G1 X88.233 Y73.254 E2.84570
G1 X88.643 Y72.928 E2.85042
G1 X88.643 Y77.299 E2.88976
G1 X88.432 Y77.665 E2.89356
G1 X88.643 Y77.786 E2.89575
G1 X88.643 Y78.030 E2.89794
G1 X89.065 Y78.030 E2.90174
G1 X92.042 Y79.749 E2.93268
G1 X92.253 Y80.115 E2.93648
G1 X92.464 Y79.993 E2.93868
G1 X92.676 Y80.115 E2.94088
G1 X92.887 Y79.749 E2.94468
G1 X95.863 Y78.030 E2.97562
G1 X96.285 Y78.030 E2.97941
G1 X96.285 Y77.786 E2.98161
G1 X96.497 Y77.665 E2.98380
G1 X96.285 Y77.299 E2.98760
G1 X96.285 Y72.908 E3.02712
G1 X97.233 Y73.929 E3.03966
G1 X97.980 Y75.479 E3.05515 F2400.000
G1 X98.236 Y77.180 E3.07063
G1 X97.980 Y78.881 E3.08611
G1 X97.233 Y80.432 E3.10160
G1 X96.063 Y81.693 E3.11708
G1 X95.043 Y82.282 E3.12768
G1 X95.043 Y98.685 E3.27531
G1 F2400.000 E1.27531
G1 Z0.600 F9000.000
G92 E0
G1 X92.503 Y118.090 F9000.000
G1 Z0.300 F9000.000
G1 E2.00000 F2400.000
G1 X92.541 Y118.156 E2.00069 F2400.000
G1 X95.737 Y120.002 E2.03391
G1 X95.814 Y120.002 E2.03460
G1 X95.814 Y120.046 E2.03500
G1 X95.853 Y120.068 E2.03540
G1 X95.814 Y120.135 E2.03609
G1 X95.814 Y123.825 E2.06931
G1 X95.853 Y123.892 E2.07000
G1 X95.814 Y123.914 E2.07040
G1 X95.814 Y123.959 E2.07080
G1 X95.737 Y123.959 E2.07149
G1 X92.541 Y125.804 E2.10471
G1 X92.503 Y125.871 E2.10540
G1 X92.464 Y125.849 E2.10580
G1 X92.426 Y125.871 E2.10620
G1 X92.387 Y125.804 E2.10690
G1 X89.191 Y123.959 E2.14011
G1 X89.114 Y123.959 E2.14080
G1 X89.114 Y123.914 E2.14120
G1 X89.076 Y123.892 E2.14160
G1 X89.114 Y123.825 E2.14230
G1 X89.114 Y120.135 E2.17551
G1 X89.076 Y120.068 E2.17620
G1 X89.114 Y120.046 E2.17661
G1 X89.114 Y120.002 E2.17701
G1 X89.191 Y120.002 E2.17770
G1 X92.387 Y118.157 E2.21091
G1 X92.425 Y118.090 E2.21160
G1 X92.438 Y118.097 E2.21173
G1 X92.575 Y118.063 F9000.000
G1 X92.714 Y117.984 F9000.000
G1 X95.800 Y119.766 E2.24381 F2400.000
G1 X96.050 Y119.766 E2.24606
G1 X96.050 Y119.910 E2.24735
G1 X96.175 Y119.982 E2.24865
G1 X96.050 Y120.198 E2.25090
G1 X96.050 Y123.762 E2.28297
G1 X96.175 Y123.978 E2.28522
G1 X96.050 Y124.050 E2.28652
G1 X96.050 Y124.194 E2.28781
G1 X95.800 Y124.194 E2.29006
G1 X92.714 Y125.976 E2.32213
G1 X92.589 Y126.193 E2.32438
G1 X92.464 Y126.121 E2.32568
G1 X92.339 Y126.193 E2.32698
G1 X92.215 Y125.976 E2.32923
G1 X89.128 Y124.194 E2.36130
G1 X88.879 Y124.194 E2.36355
G1 X88.879 Y124.050 E2.36485
G1 X88.754 Y123.978 E2.36614
G1 X88.879 Y123.762 E2.36839
G1 X88.879 Y120.198 E2.40046
G1 X88.754 Y119.982 E2.40271
G1 X88.879 Y119.910 E2.40401
G1 X88.879 Y119.766 E2.40531
G1 X89.128 Y119.766 E2.40755
G1 X92.214 Y117.984 E2.43963
G1 X92.339 Y117.767 E2.44188 F2400.000
G1 X92.464 Y117.840 E2.44318
G1 X92.589 Y117.768 E2.44448
G1 X92.676 Y117.919 E2.44605
G1 X92.880 Y117.801 F9000.000
G1 X95.864 Y119.530 E2.47708 F2400.000
G1 X96.285 Y119.530 E2.48088
