; generated by Slic3r 1.2.0 on 2014-10-23 at 10:49:54

; external perimeters extrusion width = 0.50mm
; perimeters extrusion width = 0.72mm
; infill extrusion width = 0.72mm
; solid infill extrusion width = 0.72mm
; top infill extrusion width = 0.72mm

G21 ; set units to millimeters
M190 S65 ; wait for bed temperature to be reached
M104 S180 ; set temperature
G28 ; home all axes
M109 S180 ; wait for temperature to be reached
G90 ; use absolute coordinates
G92 E0
M82 ; use absolute distances for extrusion
M106 S89
G1 F2400.000 E-2.00000
G1 Z0.600 F9000.000
G92 E0
G1 X48.226 Y68.985 F9000.000
G1 Z0.300 F9000.000
G1 E2.00000 F2400.000
G1 X49.232 Y68.327 E2.01082 F2400.000
G1 X49.763 Y68.009 E2.01639
G1 X111.653 Y34.727 E2.64883
G1 X114.830 Y33.927 E2.67832
G1 X128.230 Y33.927 E2.79892
G1 X130.503 Y34.325 E2.81968
G1 X132.172 Y35.208 E2.83668 F2400.000
G1 X134.438 Y36.855 E2.86189
G1 X135.480 Y37.793 E2.87451
G1 X137.355 Y39.875 E2.89972
G1 X138.179 Y41.009 E2.91234
G1 X139.580 Y43.435 E2.93755
G1 X140.150 Y44.716 E2.95017
G1 X141.016 Y47.380 E2.97539
G1 X141.307 Y48.752 E2.98801
G1 X141.637 Y52.239 E3.01953
G1 X141.600 Y146.740 E3.87004
G1 X141.307 Y149.526 E3.89525
G1 X141.016 Y150.898 E3.90787
G1 X140.150 Y153.562 E3.93308
G1 X139.580 Y154.843 E3.94570
G1 X138.179 Y157.269 E3.97092
G1 X137.355 Y158.403 E3.98353
G1 X135.551 Y160.407 E4.00780
G1 X134.438 Y161.423 E4.02136
G1 X132.172 Y163.070 E4.04657
G1 X130.958 Y163.771 E4.05919
G1 X128.399 Y164.910 E4.08440
G1 X127.065 Y165.344 E4.09702
G1 X124.325 Y165.926 E4.12224
G1 X122.931 Y166.073 E4.13485
G1 X120.129 Y166.073 E4.16007
G1 X118.735 Y165.926 E4.17268
G1 X115.995 Y165.344 E4.19790
G1 X114.661 Y164.910 E4.21052
G1 X111.727 Y163.589 E4.23948
G1 X49.851 Y131.258 E4.86780
G1 X48.225 Y130.196 E4.88528
G1 X46.601 Y128.701 E4.90515
G1 X45.408 Y127.168 E4.92263
G1 X44.357 Y125.226 E4.94250
G1 X43.727 Y123.389 E4.95998
G1 X43.363 Y121.212 E4.97985
G1 X43.363 Y77.969 E5.36903
G1 X43.727 Y75.792 E5.38890
G1 X44.357 Y73.955 E5.40638
G1 X45.408 Y72.013 E5.42625
G1 X46.601 Y70.480 E5.44373
G1 X48.170 Y69.036 E5.46293
G1 X48.328 Y69.207 F9000.000
G1 X49.361 Y68.524 E5.47407 F2400.000
G1 X49.875 Y68.217 E5.47946
G1 X111.765 Y34.935 E6.11190
G1 X114.830 Y34.163 E6.14035
G1 X128.230 Y34.163 E6.26095
G1 X130.461 Y34.560 E6.28134
G1 X132.034 Y35.399 E6.29738 F2400.000
G1 X134.300 Y37.046 E6.32260
G1 X135.305 Y37.951 E6.33477
G1 X137.180 Y40.033 E6.35998
G1 X137.975 Y41.127 E6.37216
G1 X139.376 Y43.553 E6.39737
G1 X139.926 Y44.789 E6.40955
G1 X140.792 Y47.453 E6.43476
G1 X141.073 Y48.777 E6.44694
G1 X141.401 Y52.239 E6.47824
G1 X141.366 Y146.715 E7.32852
G1 X141.073 Y149.501 E7.35374
G1 X140.792 Y150.825 E7.36591
G1 X139.926 Y153.489 E7.39113
G1 X139.376 Y154.725 E7.40330
G1 X137.975 Y157.151 E7.42851
G1 X137.180 Y158.245 E7.44069
G1 X135.376 Y160.249 E7.46496
G1 X134.300 Y161.232 E7.47807
G1 X132.034 Y162.879 E7.50328
G1 X130.862 Y163.555 E7.51546
G1 X128.303 Y164.695 E7.54067
G1 X127.016 Y165.113 E7.55285
G1 X124.276 Y165.695 E7.57806
G1 X122.931 Y165.837 E7.59024
G1 X120.129 Y165.837 E7.61545
G1 X118.784 Y165.695 E7.62762
G1 X116.044 Y165.113 E7.65284
G1 X114.757 Y164.695 E7.66501
G1 X111.836 Y163.381 E7.69384
G1 X49.980 Y131.061 E8.32195
G1 X48.354 Y129.999 E8.33943
G1 X46.787 Y128.556 E8.35860
G1 X45.594 Y127.023 E8.37609
G1 X44.580 Y125.150 E8.39526
G1 X43.949 Y123.313 E8.41274
G1 X43.599 Y121.212 E8.43191
G1 X43.599 Y77.969 E8.82109
G1 X43.949 Y75.868 E8.84026
G1 X44.580 Y74.031 E8.85774
G1 X45.594 Y72.158 E8.87691
G1 X46.787 Y70.625 E8.89439
G1 X48.273 Y69.257 E8.91257
G1 X48.430 Y69.428 F9000.000
G1 X49.490 Y68.722 E8.92403 F2400.000
G1 X49.986 Y68.425 E8.92924
G1 X111.877 Y35.142 E9.56168
G1 X114.830 Y34.399 E9.58909
G1 X128.230 Y34.399 E9.70969
G1 X130.419 Y34.796 E9.72971
G1 X131.895 Y35.590 E9.74480 F2400.000
G1 X134.161 Y37.236 E9.77001
G1 X135.130 Y38.109 E9.78175
G1 X137.005 Y40.190 E9.80696
G1 X137.771 Y41.245 E9.81869
G1 X139.172 Y43.671 E9.84390
G1 X139.702 Y44.862 E9.85564
G1 X140.567 Y47.526 E9.88085
G1 X140.839 Y48.801 E9.89258
G1 X141.166 Y52.239 E9.92366
G1 X141.131 Y146.691 E10.77373
G1 X140.839 Y149.477 E10.79894
G1 X140.567 Y150.752 E10.81067
G1 X139.702 Y153.416 E10.83588
G1 X139.172 Y154.607 E10.84762
G1 X137.771 Y157.033 E10.87283
G1 X137.005 Y158.088 E10.88456
G1 X135.200 Y160.092 E10.90883
G1 X134.161 Y161.042 E10.92150
G1 X131.895 Y162.688 E10.94671
G1 X130.766 Y163.340 E10.95844
G1 X128.207 Y164.480 E10.98366
G1 X126.967 Y164.883 E10.99539
G1 X124.227 Y165.465 E11.02060
G1 X122.931 Y165.601 E11.03233
G1 X120.129 Y165.601 E11.05755
G1 X118.833 Y165.465 E11.06928
G1 X116.093 Y164.883 E11.09449
G1 X114.853 Y164.480 E11.10622
G1 X111.945 Y163.172 E11.13492
G1 X50.109 Y130.864 E11.76283
G1 X48.483 Y129.802 E11.78031
G1 X46.973 Y128.411 E11.79878
G1 X45.780 Y126.879 E11.81626
G1 X44.803 Y125.073 E11.83473
G1 X44.172 Y123.236 E11.85222
G1 X43.834 Y121.212 E11.87069
G1 X43.834 Y77.969 E12.25987
G1 X44.172 Y75.945 E12.27834
G1 X44.803 Y74.108 E12.29582
G1 X45.780 Y72.302 E12.31430
G1 X46.973 Y70.770 E12.33178
G1 X48.375 Y69.479 E12.34893
G1 F2400.000 E10.34893
G1 Z0.600 F9000.000
G92 E0
G1 X80.508 Y69.479 F9000.000
G1 Z0.300 F9000.000
G1 E2.00000 F2400.000
G1 X80.508 Y69.087 E2.00353 F2400.000
G1 X80.950 Y67.223 E2.02077
G1 X81.810 Y65.511 E2.03801
G1 X83.041 Y64.044 E2.05524
G1 X84.351 Y63.068 E2.06995
G1 X84.351 Y70.379 E2.13574
G1 X84.318 Y70.437 E2.13635 F2400.000
G1 X84.351 Y70.456 E2.13669
G1 X84.351 Y70.494 E2.13704
G1 X84.418 Y70.494 E2.13764
G1 X88.635 Y72.929 E2.18146
G1 X88.668 Y72.987 E2.18206
G1 X88.701 Y72.967 E2.18241
G1 X88.735 Y72.987 E2.18275
G1 X88.768 Y72.929 E2.18335
G1 X92.985 Y70.494 E2.22717
G1 X93.051 Y70.494 E2.22777
G1 X93.051 Y70.456 E2.22812
G1 X93.085 Y70.437 E2.22847
G1 X93.051 Y70.379 E2.22907
G1 X93.051 Y63.095 E2.29462
G1 X93.627 Y63.428 E2.30061
G1 X95.021 Y64.742 E2.31784
G1 X96.073 Y66.342 E2.33508
G1 X96.728 Y68.142 E2.35232
G1 X96.950 Y70.044 E2.36956
G1 X96.728 Y71.947 E2.38679
G1 X96.073 Y73.747 E2.40403
G1 X95.021 Y75.347 E2.42127
G1 X93.627 Y76.661 E2.43851
G1 X92.751 Y77.167 E2.44761
G1 X92.751 Y121.722 E2.84861
G1 X93.627 Y122.228 E2.85771
G1 X95.021 Y123.542 E2.87495
G1 X96.073 Y125.142 E2.89219
G1 X96.728 Y126.942 E2.90942
G1 X96.950 Y128.844 E2.92666
G1 X96.728 Y130.747 E2.94390
G1 X96.073 Y132.547 E2.96114
G1 X95.021 Y134.147 E2.97837
G1 X93.627 Y135.461 E2.99561
G1 X91.969 Y136.419 E3.01285
G1 X90.078 Y136.971 E3.03057
G1 X88.222 Y137.079 E3.04731
G1 X86.336 Y136.747 E3.06455
G1 X84.577 Y135.988 E3.08179
G1 X83.041 Y134.844 E3.09902
G1 X81.810 Y133.377 E3.11626
G1 X80.950 Y131.666 E3.13350
G1 X80.508 Y129.802 E3.15074
G1 X80.508 Y127.887 E3.16797
G1 X80.950 Y126.023 E3.18521
G1 X81.810 Y124.311 E3.20245
G1 X83.041 Y122.844 E3.21969
G1 X84.651 Y121.645 E3.23776
G1 X84.651 Y77.244 E3.63737
G1 X83.041 Y76.044 E3.65545
G1 X81.810 Y74.577 E3.67268
G1 X80.950 Y72.866 E3.68992
G1 X80.508 Y71.002 E3.70716
G1 X80.508 Y69.554 E3.72019
G1 F2400.000 E1.72019
G1 Z0.600 F9000.000
G92 E0
G1 X84.303 Y70.424 F9000.000
G1 X84.116 Y70.316 F9000.000
G1 Z0.300 F9000.000
G1 E2.00000 F2400.000
G1 X83.996 Y70.523 E2.00215 F2400.000
G1 X84.116 Y70.592 E2.00339
G1 X84.116 Y70.730 E2.00463
G1 X84.355 Y70.730 E2.00679
G1 X88.462 Y73.101 E2.04947
G1 X88.582 Y73.308 E2.05162
G1 X88.701 Y73.239 E2.05287
G1 X88.821 Y73.308 E2.05411
G1 X88.941 Y73.101 E2.05626
G1 X93.048 Y70.730 E2.09894
G1 X93.287 Y70.730 E2.10110
G1 X93.287 Y70.592 E2.10234
G1 X93.407 Y70.523 E2.10358
G1 X93.287 Y70.316 E2.10574
G1 X93.287 Y63.503 E2.16705 F2400.000
G1 X93.486 Y63.618 E2.16911
G1 X94.839 Y64.895 E2.18585
G1 X95.861 Y66.449 E2.20260
G1 X96.497 Y68.197 E2.21934
G1 X96.713 Y70.044 E2.23608
G1 X96.497 Y71.892 E2.25282
G1 X95.861 Y73.640 E2.26956
G1 X94.839 Y75.194 E2.28631
G1 X93.486 Y76.471 E2.30305
G1 X92.516 Y77.031 E2.31313
G1 X92.516 Y121.858 E2.71657
G1 X93.486 Y122.418 E2.72665
G1 X94.839 Y123.695 E2.74339
G1 X95.861 Y125.249 E2.76014
G1 X96.497 Y126.997 E2.77688
G1 X96.713 Y128.844 E2.79362
G1 X96.497 Y130.692 E2.81036
G1 X95.861 Y132.440 E2.82710
G1 X94.818 Y134.014 E2.84409
G1 X93.486 Y135.271 E2.86058
G1 X91.875 Y136.201 E2.87732
G1 X90.093 Y136.734 E2.89406
G1 X88.236 Y136.843 E2.91081
G1 X86.404 Y136.520 E2.92755
G1 X84.696 Y135.783 E2.94429
G1 X83.203 Y134.672 E2.96103
G1 X81.995 Y133.222 E2.97802
G1 X81.173 Y131.585 E2.99451
G1 X80.744 Y129.775 E3.01125
G1 X80.744 Y127.914 E3.02799
G1 X81.173 Y126.104 E3.04473
G1 X82.008 Y124.442 E3.06148
G1 X83.203 Y123.017 E3.07822
G1 X84.887 Y121.763 E3.09711
G1 X84.887 Y77.125 E3.49885
G1 X83.203 Y75.872 E3.51774
G1 X82.008 Y74.447 E3.53448
G1 X81.173 Y72.785 E3.55123
G1 X80.744 Y70.975 E3.56797
G1 X80.744 Y69.114 E3.58471
G1 X81.173 Y67.304 E3.60145
G1 X82.008 Y65.642 E3.61819
G1 X83.203 Y64.217 E3.63494
G1 X84.116 Y63.538 E3.64517
G1 X84.116 Y70.241 E3.70551
G1 F2400.000 E1.70551
G1 Z0.600 F9000.000
G92 E0
G1 X92.280 Y96.532 F9000.000
G1 Z0.300 F9000.000
G1 E2.00000 F2400.000
G1 X92.280 Y121.994 E2.22916 F2400.000
G1 X93.344 Y122.608 E2.24021
G1 X94.657 Y123.847 E2.25646
G1 X95.649 Y125.355 E2.27271
G1 X96.266 Y127.051 E2.28895
G1 X96.476 Y128.844 E2.30520
G1 X96.266 Y130.637 E2.32145
G1 X95.649 Y132.334 E2.33769
G1 X94.657 Y133.842 E2.35394
G1 X93.344 Y135.080 E2.37018
G1 X91.781 Y135.983 E2.38643
G1 X90.051 Y136.501 E2.40268
G1 X88.249 Y136.606 E2.41892
G1 X86.472 Y136.292 E2.43517
G1 X84.814 Y135.577 E2.45141
G1 X83.366 Y134.499 E2.46766
G1 X82.206 Y133.117 E2.48391
G1 X81.396 Y131.503 E2.50015
G1 X80.980 Y129.747 E2.51640
G1 X80.980 Y127.942 E2.53265
G1 X81.396 Y126.185 E2.54889
G1 X82.206 Y124.572 E2.56514
G1 X83.366 Y123.189 E2.58138
G1 X85.123 Y121.882 E2.60109
G1 X85.123 Y77.007 E3.00497
G1 X83.366 Y75.699 E3.02467
G1 X82.206 Y74.317 E3.04092
G1 X81.396 Y72.703 E3.05717
G1 X80.980 Y70.947 E3.07341
G1 X80.980 Y69.142 E3.08966
G1 X81.396 Y67.385 E3.10590
G1 X82.206 Y65.772 E3.12215
G1 X83.366 Y64.389 E3.13840
G1 X83.880 Y64.007 E3.14416
G1 X83.880 Y70.253 E3.20037
G1 X83.674 Y70.609 E3.20408
G1 X83.880 Y70.728 E3.20622
G1 X83.880 Y70.966 E3.20836
G1 X84.292 Y70.966 E3.21207
G1 X88.290 Y73.274 E3.25361
G1 X88.496 Y73.630 E3.25732
G1 X88.701 Y73.511 E3.25946
G1 X88.907 Y73.630 E3.26159
G1 X89.113 Y73.274 E3.26530
G1 X93.111 Y70.966 E3.30685
G1 X93.523 Y70.966 E3.31055
G1 X93.523 Y70.728 E3.31269
G1 X93.729 Y70.609 E3.31483
G1 X93.523 Y70.253 E3.31854
G1 X93.523 Y63.977 E3.37502
G1 X94.657 Y65.047 E3.38905
G1 X95.649 Y66.555 E3.40530 F2400.000
G1 X96.266 Y68.251 E3.42155
G1 X96.476 Y70.044 E3.43779
G1 X96.266 Y71.837 E3.45404
G1 X95.649 Y73.534 E3.47028
G1 X94.657 Y75.042 E3.48653
G1 X93.344 Y76.280 E3.50278
G1 X92.280 Y76.895 E3.51383
G1 X92.280 Y96.457 E3.68989
G1 F2400.000 E1.68989
G1 Z0.600 F9000.000
G92 E0
G1 X88.735 Y123.802 F9000.000
G1 Z0.300 F9000.000
G1 E2.00000 F2400.000
G1 X88.768 Y123.860 E2.00060 F2400.000
G1 X92.985 Y126.294 E2.04442
G1 X93.051 Y126.294 E2.04502
G1 X93.051 Y126.333 E2.04537
G1 X93.085 Y126.352 E2.04571
G1 X93.051 Y126.410 E2.04631
G1 X93.051 Y131.279 E2.09013
G1 X93.085 Y131.337 E2.09073
G1 X93.051 Y131.356 E2.09108
G1 X93.051 Y131.394 E2.09143
G1 X92.985 Y131.394 E2.09203
G1 X92.799 Y131.502 E2.09396
G1 X88.768 Y133.829 E2.13585
G1 X88.735 Y133.887 E2.13645
G1 X88.701 Y133.867 E2.13680
G1 X88.668 Y133.887 E2.13714
G1 X88.635 Y133.829 E2.13774
G1 X84.418 Y131.394 E2.18156
G1 X84.351 Y131.394 E2.18216
G1 X84.351 Y131.356 E2.18251
G1 X84.318 Y131.337 E2.18286
G1 X84.351 Y131.279 E2.18346
G1 X84.351 Y126.410 E2.22728
G1 X84.318 Y126.352 E2.22788
G1 X84.351 Y126.333 E2.22822
G1 X84.351 Y126.294 E2.22857
G1 X84.418 Y126.294 E2.22917
G1 X88.635 Y123.860 E2.27299
G1 X88.670 Y123.803 E2.27359
G1 X88.793 Y123.769 F9000.000
G1 X88.939 Y123.684 F9000.000
G1 X93.048 Y126.059 E2.31630 F2400.000
G1 X93.287 Y126.059 E2.31845
G1 X93.287 Y126.197 E2.31970
G1 X93.407 Y126.266 E2.32094
G1 X93.287 Y126.473 E2.32309
G1 X93.287 Y131.216 E2.36578
G1 X93.407 Y131.423 E2.36793
G1 X93.287 Y131.492 E2.36917
G1 X93.287 Y131.630 E2.37042
G1 X93.048 Y131.630 E2.37257
G1 X92.917 Y131.706 E2.37393
G1 X88.941 Y134.001 E2.41525
G1 X88.821 Y134.208 E2.41740
G1 X88.701 Y134.139 E2.41865
G1 X88.582 Y134.208 E2.41989
G1 X88.462 Y134.001 E2.42204
G1 X84.355 Y131.630 E2.46473
G1 X84.116 Y131.630 E2.46688
G1 X84.116 Y131.492 E2.46812
G1 X83.996 Y131.423 E2.46937
G1 X84.116 Y131.216 E2.47152
G1 X84.116 Y126.473 E2.51420
G1 X83.996 Y126.266 E2.51635
G1 X84.116 Y126.197 E2.51760
G1 X84.116 Y126.059 E2.51884
G1 X84.355 Y126.059 E2.52099
G1 X88.462 Y123.688 E2.56367
G1 X88.582 Y123.480 E2.56583 F2400.000
G1 X88.701 Y123.549 E2.56707
G1 X88.821 Y123.480 E2.56832
G1 X88.901 Y123.619 E2.56976
G1 X89.106 Y123.502 F9000.000
G1 X93.111 Y125.823 E2.61143 F2400.000
G1 X93.523 Y125.823 E2.61514
G1 X93.523 Y126.061 E2.61728
G1 X93.728 Y126.180 E2.61941
G1 X93.523 Y126.536 E2.62312
G1 X93.523 Y131.153 E2.66467
G1 X93.729 Y131.509 E2.66837
G1 X93.523 Y131.628 E2.67051
G1 X93.523 Y131.866 E2.67265
G1 X93.111 Y131.866 E2.67635
G1 X89.113 Y134.174 E2.71790
G1 X88.907 Y134.530 E2.72161
G1 X88.701 Y134.411 E2.72375
G1 X88.496 Y134.530 E2.72588
G1 X88.290 Y134.174 E2.72959
G1 X84.292 Y131.866 E2.77114
G1 X83.880 Y131.866 E2.77484
G1 X83.880 Y131.628 E2.77698
G1 X83.674 Y131.509 E2.77912
G1 X83.880 Y131.153 E2.78283
G1 X83.880 Y126.536 E2.82437
G1 X83.674 Y126.180 E2.82808
G1 X83.880 Y126.061 E2.83022
G1 X83.880 Y125.823 E2.83236
G1 X84.292 Y125.823 E2.83606
G1 X88.289 Y123.515 E2.87761
G1 X88.495 Y123.158 E2.88131
G1 X88.701 Y123.277 E2.88346
G1 X88.907 Y123.158 E2.88560 F2400.000
G1 X89.068 Y123.437 E2.88849
G1 F2400.000 E0.88849
G1 Z0.600 F9000.000
G92 E0
G1 X83.521 Y64.553 F9000.000
G1 Z0.300 F9000.000
G1 E2.00000 F2400.000
G1 X83.656 Y64.452 E2.00152 F2400.000
G1 X83.656 Y70.193 E2.05318
G1 X83.369 Y70.691 E2.05836
G1 X83.656 Y70.857 E2.06135
G1 X83.656 Y71.189 E2.06434
G1 X84.232 Y71.189 E2.06952
G1 X88.126 Y73.438 E2.10999
G1 X88.414 Y73.936 E2.11517
G1 X88.701 Y73.770 E2.11816
G1 X88.989 Y73.936 E2.12115
G1 X89.277 Y73.438 E2.12633
G1 X93.171 Y71.189 E2.16680
G1 X93.747 Y71.189 E2.17198
G1 X93.747 Y70.857 E2.17497
G1 X94.034 Y70.691 E2.17796
G1 X93.747 Y70.193 E2.18314
G1 X93.747 Y64.496 E2.23441
G1 X94.484 Y65.192 E2.24354
G1 X95.448 Y66.656 E2.25932
G1 X96.047 Y68.303 E2.27509
G1 X96.251 Y70.044 E2.29087
G1 X96.047 Y71.785 E2.30664
G1 X95.448 Y73.432 E2.32242
G1 X94.484 Y74.897 E2.33819
G1 X93.210 Y76.100 E2.35397
G1 X92.056 Y76.766 E2.36595
G1 X92.056 Y122.123 E2.77417
G1 X93.210 Y122.789 E2.78616
G1 X94.484 Y123.992 E2.80193
G1 X95.448 Y125.456 E2.81771
G1 X96.047 Y127.103 E2.83348
G1 X96.251 Y128.844 E2.84926
G1 X96.047 Y130.585 E2.86503
G1 X95.448 Y132.232 E2.88081
G1 X94.484 Y133.697 E2.89658
G1 X93.210 Y134.900 E2.91236
G1 X91.692 Y135.776 E2.92813
G1 X90.012 Y136.279 E2.94391
G1 X88.263 Y136.381 E2.95968
G1 X86.536 Y136.076 E2.97546
G1 X84.927 Y135.382 E2.99124
G1 X83.521 Y134.335 E3.00701
G1 X82.394 Y132.993 E3.02279
G1 X81.608 Y131.426 E3.03856
G1 X81.203 Y129.721 E3.05434
G1 X81.203 Y127.968 E3.07011
G1 X81.608 Y126.262 E3.08589
G1 X82.394 Y124.696 E3.10166
G1 X83.521 Y123.353 E3.11744
G1 X85.347 Y121.994 E3.13792
G1 X85.347 Y76.895 E3.54382
G1 X83.521 Y75.535 E3.56430
G1 X82.394 Y74.193 E3.58008
G1 X81.608 Y72.626 E3.59585
G1 X81.203 Y70.921 E3.61163
G1 X81.203 Y69.168 E3.62740
G1 X81.608 Y67.462 E3.64318
G1 X82.394 Y65.896 E3.65895
G1 X83.473 Y64.611 E3.67405
G1 X83.420 Y65.042 F9000.000
G1 X83.420 Y70.129 E3.71983 F2400.000
G1 X83.045 Y70.778 E3.72658
G1 X83.420 Y70.994 E3.73047
G1 X83.420 Y71.426 E3.73436
G1 X84.169 Y71.426 E3.74110
G1 X87.953 Y73.611 E3.78042
G1 X88.327 Y74.259 E3.78716
G1 X88.701 Y74.043 E3.79105
G1 X89.076 Y74.259 E3.79494
G1 X89.450 Y73.611 E3.80168
G1 X93.234 Y71.426 E3.84101
G1 X93.983 Y71.426 E3.84775
G1 X93.983 Y70.994 E3.85164
G1 X94.358 Y70.778 E3.85553
G1 X93.983 Y70.129 E3.86227
G1 X93.983 Y65.045 E3.90803
G1 X94.302 Y65.345 E3.91198
G1 X95.235 Y66.763 E3.92725
G1 X95.815 Y68.358 E3.94253
G1 X96.012 Y70.044 E3.95781
G1 X95.815 Y71.730 E3.97308
