; generated by Slic3r 1.2.1-dev on 2014-11-08 at 16:38:44

; external perimeters extrusion width = 0.50mm
; perimeters extrusion width = 0.85mm
; infill extrusion width = 1.02mm
; solid infill extrusion width = 0.85mm
; top infill extrusion width = 0.85mm

M190 S30 ; wait for bed temperature to be reached
M104 S220 ; set temperature
G28 ; home all axes
M109 S220 ; wait for temperature to be reached
G21 ; set units to millimeters
G90 ; use absolute coordinates
M82 ; use absolute distances for extrusion
G92 E0
M106 S89
G1 Z0.300 F9000.000
G1 X81.638 Y89.094 F9000.000
G1 X82.789 Y88.057 E0.01659 F1200.000
G1 X84.143 Y87.073 E0.03450
G1 X85.485 Y86.299 E0.05107
G1 X87.012 Y85.619 E0.06897
G1 X88.486 Y85.140 E0.08555
G1 X90.124 Y84.792 E0.10347
G1 X91.664 Y84.630 E0.12004
G1 X93.336 Y84.630 E0.13794
G1 X94.878 Y84.792 E0.15452
G1 X96.514 Y85.140 E0.17242 F1200.000
G1 X97.988 Y85.619 E0.18901
G1 X99.515 Y86.299 E0.20690
G1 X100.858 Y87.074 E0.22349
G1 X102.211 Y88.057 E0.24139
G1 X103.362 Y89.094 E0.25797
G1 X104.482 Y90.337 E0.27587
G1 X105.393 Y91.591 E0.29246
G1 X106.229 Y93.040 E0.31036
G1 X106.859 Y94.455 E0.32694
G1 X107.376 Y96.047 E0.34485
G1 X107.698 Y97.562 E0.36143
G1 X107.873 Y99.225 E0.37932
G1 X107.873 Y100.775 E0.39591
G1 X107.698 Y102.439 E0.41381
G1 X107.376 Y103.954 E0.43040
G1 X106.859 Y105.545 E0.44829
G1 X106.229 Y106.961 E0.46488
G1 X105.392 Y108.410 E0.48279
G1 X104.482 Y109.663 E0.49936
G1 X103.362 Y110.906 E0.51726
G1 X102.211 Y111.943 E0.53385
G1 X100.858 Y112.926 E0.55175
G1 X99.516 Y113.701 E0.56833
G1 X97.988 Y114.381 E0.58623
G1 X96.514 Y114.860 E0.60282
G1 X94.878 Y115.208 E0.62071
G1 X93.336 Y115.370 E0.63730
G1 X91.664 Y115.370 E0.65520
G1 X90.122 Y115.208 E0.67178
G1 X88.486 Y114.860 E0.68968
G1 X87.012 Y114.381 E0.70627
G1 X85.485 Y113.701 E0.72417
G1 X84.138 Y112.923 E0.74081
G1 X82.789 Y111.943 E0.75865
G1 X81.638 Y110.906 E0.77524
G1 X80.518 Y109.663 E0.79313
G1 X79.608 Y108.410 E0.80972
G1 X78.771 Y106.961 E0.82762
G1 X78.141 Y105.545 E0.84420
G1 X77.624 Y103.954 E0.86210
G1 X77.301 Y102.432 E0.87875
G1 X77.127 Y100.775 E0.89659
G1 X77.127 Y99.226 E0.91316
G1 X77.302 Y97.562 E0.93107
G1 X77.624 Y96.046 E0.94766
G1 X78.141 Y94.455 E0.96555
G1 X78.771 Y93.040 E0.98213
G1 X79.607 Y91.591 E1.00004
G1 X80.518 Y90.338 E1.01662
G1 X81.587 Y89.150 E1.03372
G1 X81.762 Y89.307 F9000.000
G1 X82.928 Y88.248 E1.05058 F1200.000
G1 X84.282 Y87.264 E1.06849
G1 X85.580 Y86.514 E1.08453
G1 X87.108 Y85.834 E1.10243
G1 X88.535 Y85.370 E1.11849
G1 X90.173 Y85.022 E1.13640
G1 X91.664 Y84.866 E1.15245
G1 X93.336 Y84.866 E1.17035
G1 X94.829 Y85.023 E1.18640
G1 X96.465 Y85.370 E1.20430 F1200.000
G1 X97.892 Y85.834 E1.22036
G1 X99.420 Y86.514 E1.23826
G1 X100.719 Y87.265 E1.25432
G1 X102.072 Y88.248 E1.27222
G1 X103.187 Y89.252 E1.28827
G1 X104.306 Y90.495 E1.30617
G1 X105.189 Y91.709 E1.32223
G1 X106.025 Y93.158 E1.34014
G1 X106.635 Y94.528 E1.35619
G1 X107.152 Y96.119 E1.37410
G1 X107.464 Y97.586 E1.39015
G1 X107.639 Y99.250 E1.40804
G1 X107.639 Y100.750 E1.42410
G1 X107.464 Y102.414 E1.44201
G1 X107.152 Y103.881 E1.45806
G1 X106.635 Y105.472 E1.47596
G1 X106.025 Y106.843 E1.49202
G1 X105.188 Y108.292 E1.50992
G1 X104.306 Y109.505 E1.52597
G1 X103.187 Y110.748 E1.54387
G1 X102.072 Y111.752 E1.55993
G1 X100.719 Y112.735 E1.57783
G1 X99.420 Y113.486 E1.59388
G1 X97.892 Y114.166 E1.61179
G1 X96.465 Y114.630 E1.62784
G1 X94.829 Y114.977 E1.64574
G1 X93.336 Y115.134 E1.66180
G1 X91.664 Y115.134 E1.67970
G1 X90.171 Y114.977 E1.69576
G1 X88.535 Y114.630 E1.71366
G1 X87.108 Y114.166 E1.72972
G1 X85.580 Y113.486 E1.74761
G1 X84.276 Y112.732 E1.76373
G1 X82.928 Y111.752 E1.78157
G1 X81.813 Y110.748 E1.79763
G1 X80.694 Y109.505 E1.81553
G1 X79.812 Y108.292 E1.83158
G1 X78.975 Y106.843 E1.84948
G1 X78.365 Y105.472 E1.86554
G1 X77.848 Y103.881 E1.88344
G1 X77.535 Y102.408 E1.89956
G1 X77.361 Y100.750 E1.91740
G1 X77.361 Y99.251 E1.93345
G1 X77.536 Y97.586 E1.95135
G1 X77.848 Y96.119 E1.96741
G1 X78.365 Y94.528 E1.98531
G1 X78.975 Y93.158 E2.00136
G1 X79.811 Y91.709 E2.01927
G1 X80.693 Y90.495 E2.03532
G1 X81.712 Y89.363 E2.05162
G1 X81.887 Y89.521 F9000.000
G1 X81.988 Y89.409 E2.05323 F1200.000
G1 X83.066 Y88.438 E2.06876
G1 X84.420 Y87.455 E2.08667
G1 X85.676 Y86.730 E2.10219
G1 X87.204 Y86.049 E2.12008
G1 X88.584 Y85.601 E2.13562
G1 X90.222 Y85.253 E2.15353
G1 X91.664 Y85.101 E2.16905
G1 X93.336 Y85.101 E2.18694
G1 X94.780 Y85.253 E2.20248
G1 X96.416 Y85.601 E2.22037 F1200.000
G1 X97.796 Y86.049 E2.23591
G1 X99.324 Y86.730 E2.25380
G1 X100.581 Y87.455 E2.26934
G1 X101.934 Y88.438 E2.28724
G1 X103.012 Y89.409 E2.30277
G1 X104.131 Y90.652 E2.32066
G1 X104.985 Y91.827 E2.33620
G1 X105.821 Y93.275 E2.35410
G1 X106.411 Y94.601 E2.36963
G1 X106.928 Y96.192 E2.38753
G1 X107.230 Y97.611 E2.40306
G1 X107.404 Y99.274 E2.42095
G1 X107.404 Y100.726 E2.43649
G1 X107.230 Y102.383 E2.45432
G1 X106.928 Y103.809 E2.46991
G1 X106.411 Y105.399 E2.48781
G1 X105.821 Y106.725 E2.50334
G1 X104.984 Y108.174 E2.52125
G1 X104.131 Y109.348 E2.53677
G1 X103.012 Y110.591 E2.55467
G1 X101.934 Y111.562 E2.57020
G1 X100.581 Y112.545 E2.58810
G1 X99.324 Y113.270 E2.60363
G1 X97.796 Y113.951 E2.62153
G1 X96.416 Y114.399 E2.63706
G1 X94.780 Y114.747 E2.65496
G1 X93.336 Y114.899 E2.67049
G1 X91.664 Y114.899 E2.68839
G1 X90.220 Y114.747 E2.70392
G1 X88.584 Y114.399 E2.72182
G1 X87.204 Y113.951 E2.73735
G1 X85.676 Y113.270 E2.75525
G1 X84.415 Y112.541 E2.77084
G1 X83.066 Y111.562 E2.78868
G1 X81.988 Y110.591 E2.80421
G1 X80.869 Y109.348 E2.82211
G1 X80.016 Y108.174 E2.83764
G1 X79.179 Y106.725 E2.85554
G1 X78.589 Y105.399 E2.87107
G1 X78.072 Y103.809 E2.88897
G1 X77.770 Y102.383 E2.90457
G1 X77.596 Y100.726 E2.92240
G1 X77.595 Y99.275 E2.93792
G1 X77.770 Y97.611 E2.95583
G1 X78.072 Y96.191 E2.97136
G1 X78.589 Y94.601 E2.98926
G1 X79.179 Y93.276 E3.00478
G1 X80.015 Y91.827 E3.02269
G1 X80.868 Y90.653 E3.03821
G1 X81.837 Y89.577 E3.05371
G1 X82.012 Y89.734 F9000.000
G1 X82.163 Y89.567 E3.05612 F1200.000
G1 X83.205 Y88.629 E3.07112
G1 X84.559 Y87.645 E3.08903
G1 X85.772 Y86.945 E3.10403
G1 X87.300 Y86.265 E3.12192
G1 X88.633 Y85.831 E3.13693
G1 X90.271 Y85.483 E3.15484
G1 X91.664 Y85.337 E3.16983
G1 X93.336 Y85.337 E3.18773
G1 X94.731 Y85.484 E3.20273
G1 X96.367 Y85.831 E3.22063 F1200.000
G1 X97.700 Y86.265 E3.23564
G1 X99.228 Y86.945 E3.25353
G1 X100.442 Y87.646 E3.26854
G1 X101.795 Y88.629 E3.28644
G1 X102.837 Y89.567 E3.30144
G1 X103.956 Y90.810 E3.31934
G1 X104.780 Y91.944 E3.33434
G1 X105.617 Y93.393 E3.35225
G1 X106.187 Y94.674 E3.36725
G1 X106.704 Y96.265 E3.38515
G1 X106.995 Y97.636 E3.40015
G1 X107.170 Y99.299 E3.41805
G1 X107.170 Y100.701 E3.43305
G1 X106.996 Y102.358 E3.45089
G1 X106.704 Y103.736 E3.46596
G1 X106.187 Y105.326 E3.48385
G1 X105.617 Y106.607 E3.49886
G1 X104.780 Y108.056 E3.51676
G1 X103.956 Y109.190 E3.53176
G1 X102.841 Y110.428 E3.54959
G1 X101.795 Y111.371 E3.56466
G1 X100.442 Y112.354 E3.58256
G1 X99.228 Y113.055 E3.59756
G1 X97.700 Y113.735 E3.61546
G1 X96.367 Y114.169 E3.63047
G1 X94.731 Y114.516 E3.64837
G1 X93.336 Y114.663 E3.66337
G1 X91.664 Y114.663 E3.68127
G1 X90.269 Y114.516 E3.69627
G1 X88.633 Y114.169 E3.71417
G1 X87.300 Y113.735 E3.72918
G1 X85.772 Y113.055 E3.74707
G1 X84.553 Y112.350 E3.76215
G1 X83.205 Y111.371 E3.77998
G1 X82.163 Y110.433 E3.79498
G1 X81.044 Y109.190 E3.81288
G1 X80.220 Y108.056 E3.82788
G1 X79.383 Y106.607 E3.84578
G1 X78.813 Y105.326 E3.86079
G1 X78.296 Y103.736 E3.87868
G1 X78.004 Y102.358 E3.89375
G1 X77.830 Y100.701 E3.91159
G1 X77.830 Y99.300 E3.92658
G1 X78.005 Y97.636 E3.94449
G1 X78.296 Y96.264 E3.95949
G1 X78.813 Y94.674 E3.97739
G1 X79.383 Y93.394 E3.99239
G1 X80.220 Y91.944 E4.01029
G1 X81.043 Y90.810 E4.02529
G1 X81.962 Y89.790 E4.03999
G1 X82.137 Y89.948 F9000.000
G1 X82.338 Y89.725 E4.04320 F1200.000
G1 X83.343 Y88.819 E4.05768
G1 X84.697 Y87.836 E4.07558
G1 X85.868 Y87.160 E4.09005
G1 X87.396 Y86.480 E4.10795
G1 X88.682 Y86.062 E4.12243
G1 X90.320 Y85.714 E4.14034
G1 X91.664 Y85.573 E4.15480
G1 X93.336 Y85.573 E4.17270
G1 X94.682 Y85.714 E4.18718
G1 X96.318 Y86.062 E4.20508 F1200.000
G1 X97.604 Y86.480 E4.21955
G1 X99.132 Y87.160 E4.23745
G1 X100.304 Y87.836 E4.25193
G1 X101.657 Y88.820 E4.26983
G1 X102.662 Y89.725 E4.28430
G1 X103.781 Y90.968 E4.30220
G1 X104.576 Y92.062 E4.31668
G1 X105.413 Y93.511 E4.33458
G1 X105.963 Y94.746 E4.34905
G1 X106.480 Y96.338 E4.36696
G1 X106.761 Y97.660 E4.38143
G1 X106.936 Y99.324 E4.39933
G1 X106.936 Y100.676 E4.41381
G1 X106.761 Y102.340 E4.43171
G1 X106.480 Y103.663 E4.44618
G1 X105.963 Y105.254 E4.46408
G1 X105.413 Y106.489 E4.47856
G1 X104.576 Y107.939 E4.49646
G1 X103.781 Y109.032 E4.51093
G1 X102.666 Y110.271 E4.52877
G1 X101.657 Y111.181 E4.54331
G1 X100.304 Y112.164 E4.56121
G1 X99.132 Y112.840 E4.57568
G1 X97.604 Y113.520 E4.59358
G1 X96.318 Y113.938 E4.60806
G1 X94.682 Y114.286 E4.62596
G1 X93.336 Y114.427 E4.64043
G1 X91.664 Y114.427 E4.65833
G1 X90.318 Y114.286 E4.67281
G1 X88.682 Y113.938 E4.69071
G1 X87.396 Y113.520 E4.70519
G1 X85.868 Y112.840 E4.72308
G1 X84.691 Y112.160 E4.73763
G1 X83.343 Y111.181 E4.75546
G1 X82.338 Y110.275 E4.76994
G1 X81.219 Y109.032 E4.78783
G1 X80.424 Y107.938 E4.80231
G1 X79.587 Y106.489 E4.82021
G1 X79.037 Y105.254 E4.83469
G1 X78.520 Y103.663 E4.85258
G1 X78.238 Y102.333 E4.86713
G1 X78.064 Y100.676 E4.88496
G1 X78.064 Y99.324 E4.89943
G1 X78.239 Y97.660 E4.91734
G1 X78.520 Y96.337 E4.93181
G1 X79.037 Y94.746 E4.94971
G1 X79.587 Y93.511 E4.96418
G1 X80.424 Y92.062 E4.98209
G1 X81.218 Y90.968 E4.99656
G1 X82.087 Y90.003 E5.01045
G1 X82.262 Y90.161 F9000.000
G1 X82.513 Y89.882 E5.01446 F1200.000
G1 X83.482 Y89.010 E5.02841
G1 X84.836 Y88.027 E5.04632
G1 X85.964 Y87.375 E5.06026
G1 X87.492 Y86.695 E5.07816
G1 X88.731 Y86.292 E5.09211
G1 X90.368 Y85.944 E5.11002
G1 X91.664 Y85.808 E5.12396
G1 X93.336 Y85.808 E5.14186
G1 X94.633 Y85.944 E5.15581
G1 X96.269 Y86.292 E5.17370 F1200.000
G1 X97.508 Y86.695 E5.18766
G1 X99.036 Y87.375 E5.20555
G1 X100.165 Y88.027 E5.21950
G1 X101.518 Y89.010 E5.23740
G1 X102.487 Y89.882 E5.25135
G1 X103.606 Y91.125 E5.26925
G1 X104.372 Y92.180 E5.28320
G1 X105.209 Y93.629 E5.30110
G1 X105.739 Y94.819 E5.31505
G1 X106.256 Y96.411 E5.33295
G1 X106.527 Y97.685 E5.34690
G1 X106.701 Y99.348 E5.36479
G1 X106.701 Y100.652 E5.37875
G1 X106.527 Y102.315 E5.39665
G1 X106.256 Y103.590 E5.41059
G1 X105.739 Y105.181 E5.42849
G1 X105.209 Y106.372 E5.44244
G1 X104.372 Y107.821 E5.46035
G1 X103.606 Y108.875 E5.47429
G1 X102.491 Y110.113 E5.49212
G1 X101.518 Y110.990 E5.50614
G1 X100.165 Y111.973 E5.52404
G1 X99.036 Y112.625 E5.53798
G1 X97.508 Y113.305 E5.55588
G1 X96.269 Y113.708 E5.56984
G1 X94.633 Y114.056 E5.58773
G1 X93.336 Y114.192 E5.60168
G1 X91.664 Y114.192 E5.61958
G1 X90.367 Y114.056 E5.63353
G1 X88.731 Y113.708 E5.65143
G1 X87.492 Y113.305 E5.66538
G1 X85.964 Y112.625 E5.68328
G1 X84.830 Y111.969 E5.69729
G1 X83.482 Y110.990 E5.71513
G1 X82.513 Y110.118 E5.72908
G1 X81.394 Y108.875 E5.74697
G1 X80.628 Y107.820 E5.76092
G1 X79.791 Y106.372 E5.77882
G1 X79.261 Y105.181 E5.79277
G1 X78.744 Y103.590 E5.81067
G1 X78.473 Y102.309 E5.82469
G1 X78.299 Y100.652 E5.84252
G1 X78.298 Y99.349 E5.85646
G1 X78.473 Y97.685 E5.87437
G1 X78.744 Y96.410 E5.88832
G1 X79.261 Y94.819 E5.90622
G1 X79.791 Y93.629 E5.92016
G1 X80.628 Y92.180 E5.93806
G1 X81.393 Y91.126 E5.95201
G1 X82.212 Y90.217 E5.96510
G92 E0
G1 X85.182 Y92.891 F9000.000
G1 X85.562 Y92.470 E0.00607 F1200.000
G1 X85.736 Y92.313 E0.00858
G1 X87.279 Y91.192 E0.02899
G1 X87.482 Y91.075 E0.03150
G1 X89.225 Y90.299 E0.05191
G1 X89.448 Y90.226 E0.05442
G1 X91.313 Y89.830 E0.07483
G1 X91.547 Y89.805 E0.07734
G1 X93.454 Y89.805 E0.09775
G1 X93.687 Y89.830 E0.10026
G1 X95.552 Y90.226 E0.12067 F1200.000
G1 X95.775 Y90.299 E0.12318
G1 X97.518 Y91.075 E0.14359
G1 X97.721 Y91.192 E0.14610
G1 X99.264 Y92.313 E0.16651
G1 X99.438 Y92.470 E0.16902
G1 X100.714 Y93.887 E0.18943
G1 X100.852 Y94.077 E0.19194
G1 X101.806 Y95.729 E0.21235
G1 X101.901 Y95.943 E0.21486
G1 X102.490 Y97.757 E0.23527
G1 X102.539 Y97.986 E0.23778
G1 X102.738 Y99.883 E0.25818
G1 X102.738 Y100.117 E0.26069
G1 X102.539 Y102.014 E0.28110
G1 X102.490 Y102.243 E0.28361
G1 X101.901 Y104.057 E0.30402
G1 X101.806 Y104.271 E0.30653
G1 X100.852 Y105.923 E0.32694
G1 X100.714 Y106.113 E0.32945
G1 X99.521 Y107.438 E0.34854
G1 X99.264 Y107.687 E0.35237
G1 X97.721 Y108.808 E0.37278
G1 X97.518 Y108.925 E0.37529
G1 X95.775 Y109.701 E0.39570
G1 X95.552 Y109.774 E0.39821
G1 X93.687 Y110.170 E0.41862
G1 X93.454 Y110.195 E0.42113
G1 X91.546 Y110.195 E0.44154
G1 X91.313 Y110.170 E0.44405
G1 X89.448 Y109.774 E0.46445
G1 X89.225 Y109.701 E0.46697
G1 X87.482 Y108.925 E0.48737
G1 X87.179 Y108.735 E0.49120
G1 X85.736 Y107.687 E0.51029
G1 X85.562 Y107.530 E0.51280
G1 X84.286 Y106.113 E0.53321
G1 X84.148 Y105.923 E0.53572
G1 X83.194 Y104.271 E0.55613
G1 X83.099 Y104.057 E0.55864
G1 X82.510 Y102.243 E0.57905
G1 X82.448 Y101.891 E0.58287
G1 X82.262 Y100.117 E0.60196
G1 X82.262 Y99.883 E0.60447
G1 X82.461 Y97.986 E0.62488
G1 X82.510 Y97.757 E0.62739
G1 X83.099 Y95.943 E0.64780
G1 X83.194 Y95.729 E0.65031
G1 X84.148 Y94.077 E0.67072
G1 X84.286 Y93.887 E0.67323
G1 X85.132 Y92.947 E0.68676
G1 X85.307 Y93.105 F9000.000
G1 X85.729 Y92.637 E0.69351 F1200.000
G1 X85.885 Y92.496 E0.69575
G1 X87.408 Y91.390 E0.71590
G1 X87.590 Y91.285 E0.71814
G1 X89.309 Y90.519 E0.73829
G1 X89.509 Y90.454 E0.74053
G1 X91.350 Y90.063 E0.76068
G1 X91.559 Y90.041 E0.76293
G1 X93.441 Y90.041 E0.78307
G1 X93.650 Y90.063 E0.78532 F1200.000
G1 X95.491 Y90.454 E0.80546
G1 X95.691 Y90.519 E0.80771
G1 X97.410 Y91.285 E0.82785
G1 X97.592 Y91.390 E0.83010
G1 X99.115 Y92.496 E0.85024
G1 X99.271 Y92.637 E0.85249
G1 X100.531 Y94.036 E0.87263
G1 X100.654 Y94.205 E0.87488
G1 X101.540 Y95.739 E0.89383
G1 X101.681 Y96.027 E0.89727
G1 X102.262 Y97.818 E0.91741
G1 X102.306 Y98.023 E0.91966
G1 X102.503 Y99.895 E0.93980
G1 X102.503 Y100.105 E0.94205
G1 X102.306 Y101.977 E0.96219
G1 X102.262 Y102.182 E0.96444
G1 X101.681 Y103.972 E0.98458
G1 X101.595 Y104.164 E0.98683
G1 X100.710 Y105.698 E1.00578
G1 X100.531 Y105.964 E1.00922
G1 X99.271 Y107.363 E1.02936
G1 X99.115 Y107.504 E1.03161
G1 X97.592 Y108.610 E1.05175
G1 X97.411 Y108.715 E1.05400
G1 X95.691 Y109.481 E1.07414
G1 X95.491 Y109.546 E1.07639
G1 X93.650 Y109.937 E1.09653
G1 X93.441 Y109.959 E1.09878
G1 X91.559 Y109.959 E1.11892
G1 X91.350 Y109.937 E1.12117
G1 X89.509 Y109.546 E1.14131
G1 X89.309 Y109.481 E1.14356
G1 X87.590 Y108.715 E1.16370
G1 X87.318 Y108.545 E1.16714
G1 X85.885 Y107.504 E1.18609
G1 X85.729 Y107.363 E1.18834
G1 X84.469 Y105.964 E1.20848
G1 X84.346 Y105.795 E1.21073
G1 X83.405 Y104.164 E1.23087
G1 X83.319 Y103.973 E1.23312
G1 X82.738 Y102.182 E1.25326
G1 X82.682 Y101.866 E1.25670
G1 X82.497 Y100.105 E1.27565
G1 X82.497 Y99.895 E1.27789
G1 X82.694 Y98.023 E1.29804
G1 X82.738 Y97.818 E1.30029
G1 X83.319 Y96.027 E1.32043
G1 X83.405 Y95.836 E1.32268
G1 X84.346 Y94.205 E1.34282
G1 X84.469 Y94.036 E1.34507
G1 X85.257 Y93.161 E1.35767
G1 X85.432 Y93.318 F9000.000
G1 X85.896 Y92.804 E1.36508 F1200.000
G1 X86.033 Y92.680 E1.36706
G1 X87.536 Y91.588 E1.38695
G1 X87.697 Y91.495 E1.38893
G1 X89.394 Y90.740 E1.40880
G1 X89.570 Y90.682 E1.41079
G1 X91.387 Y90.296 E1.43067
G1 X91.571 Y90.277 E1.43265
G1 X93.429 Y90.277 E1.45253
G1 X93.613 Y90.296 E1.45451
G1 X95.430 Y90.682 E1.47439 F1200.000
G1 X95.606 Y90.739 E1.47637
G1 X97.303 Y91.495 E1.49625
G1 X97.464 Y91.588 E1.49824
G1 X98.967 Y92.680 E1.51812
G1 X99.104 Y92.804 E1.52010
G1 X100.347 Y94.184 E1.53998
G1 X100.456 Y94.334 E1.54196
G1 X101.385 Y95.943 E1.56184
G1 X101.460 Y96.112 E1.56382
G1 X102.034 Y97.879 E1.58371
G1 X102.073 Y98.060 E1.58569
G1 X102.267 Y99.907 E1.60556
G1 X102.267 Y100.093 E1.60755
G1 X102.073 Y101.940 E1.62743
G1 X102.034 Y102.121 E1.62941
G1 X101.460 Y103.888 E1.64929
G1 X101.385 Y104.057 E1.65127
G1 X100.456 Y105.666 E1.67115
G1 X100.347 Y105.816 E1.67314
G1 X99.170 Y107.123 E1.69196
G1 X98.967 Y107.320 E1.69499
G1 X97.464 Y108.412 E1.71487
G1 X97.303 Y108.505 E1.71685
G1 X95.606 Y109.260 E1.73674
